;FLAVOR:Marlin
;TIME:4718
;Filament used: 3.51342m
;Layer height: 0.28
;MINX:87.7
;MINY:102.198
;MINZ:0.28
;MAXX:147.289
;MAXY:132.802
;MAXZ:47.88
;Generated with Cura_SteamEngine 4.8
M140 S50
M105
M190 S50
M104 S200
M105
M109 S200
M82 ;absolute extrusion mode
; Ender 3 Custom Start G-code
G92 E0 ; Reset Extruder
G90
G28 ; Home all axes
G1 Z2.0 F3000 ; Move Z Axis up little to prevent scratching of Heat Bed
G1 X0.1 Y20 Z0.3 F5000.0 ; Move to start position
G1 X0.1 Y200.0 Z0.3 F1500.0 E15 ; Draw the first line
G1 X0.4 Y200.0 Z0.3 F5000.0 ; Move to side a little
G1 X0.4 Y20 Z0.3 F1500.0 E30 ; Draw the second line
G92 E0 ; Reset Extruder
G1 Z2.0 F3000 ; Move Z Axis up little to prevent scratching of Heat Bed
G1 X5 Y20 Z0.3 F5000.0 ; Move over to prevent blob squish
G92 E0
G92 E0
G1 F2700 E-5
;LAYER_COUNT:171
;LAYER:0
M107
;MESH:3DBenchy.stl
G0 F6000 X95.403 Y118.883 Z0.28
;TYPE:WALL-INNER
G1 F2700 E0
G1 F1200 X95.157 Y118.952 E0.0119
G1 X94.835 Y118.925 E0.02694
G1 X94.569 Y118.8 E0.04063
G1 X94.367 Y118.573 E0.05478
G1 X94.242 Y118.242 E0.07125
G1 X94.175 Y117.782 E0.0929
G1 X94.163 Y117.482 E0.10688
G1 X94.17 Y117.21 E0.11955
G1 X94.229 Y116.74 E0.14161
G1 X94.282 Y116.555 E0.15057
G1 X94.444 Y116.251 E0.16661
G1 X94.672 Y116.065 E0.18031
G1 X94.966 Y115.975 E0.19462
G1 X95.183 Y116.004 E0.20482
G1 X95.384 Y116.115 E0.21551
G1 X95.622 Y116.262 E0.22854
G1 X95.981 Y116.437 E0.24713
G1 X96.513 Y116.516 E0.27218
G1 X97.04 Y116.279 E0.29908
G1 X97.364 Y115.832 E0.32479
G1 X97.414 Y115.546 E0.33831
G1 X97.529 Y115.724 E0.33994
G1 X97.668 Y115.938 E0.35078
G1 X98.159 Y116.141 E0.37552
G1 X98.6 Y116.13 E0.39606
G1 X98.88 Y116.089 E0.40924
G1 X98.895 Y116.087 E0.40994
G1 X99.21 Y116.083 E0.42461
G1 X99.21 Y116.095
G1 X99.204 Y116.297 E0.42943
G1 X99.203 Y116.313 E0.43017
G1 X99.186 Y116.571 E0.44221
G1 X99.184 Y116.886 E0.45688
G1 X99.192 Y117.201 E0.47155
G1 X99.19 Y118.502 E0.53213
G1 X99.187 Y118.839 E0.54783
G1 X99.199 Y119.474 E0.5774
G1 X99.152 Y120.056 E0.60459
G1 X99.296 Y120.601 E0.63084
G1 X99.763 Y120.938 E0.65765
G1 X100.273 Y121.019 E0.6817
G1 X100.659 Y120.946 E0.69999
G1 X101.094 Y120.638 E0.72481
G1 X101.311 Y120.137 E0.75023
G1 X101.348 Y119.729 E0.76931
G1 X101.328 Y119.165 E0.79559
G1 X101.327 Y118.914 E0.80727
G1 X101.331 Y118.294 E0.83614
G1 X101.33 Y116.9 E0.90106
G1 X101.333 Y116.386 E0.92499
G1 X101.333 Y116.273 E0.93025
G1 X101.33 Y116.093 E0.93863
G1 X101.443 Y116.097 E0.94286
G1 X101.767 Y116.11 E0.95796
G1 X102.097 Y116.1 E0.97334
G1 X102.477 Y116.049 E0.99119
G1 X102.98 Y115.803 E1.01726
G1 X103.103 Y115.557 E1.03007
G1 X103.152 Y115.458 E1.03521
G1 X103.173 Y115.591 E1.03656
G1 X103.21 Y115.645
G1 X103.476 Y116.035 E1.05854
G1 X103.957 Y116.328 E1.08476
G1 X104.108 Y116.315 E1.09182
G1 X104.195 Y116.307 E1.09589
G1 X104.112 Y116.354 E1.09637
G1 X104.085 Y116.401
G1 X103.843 Y116.822 E1.11899
G1 X103.769 Y117.34 E1.14335
G1 X103.954 Y117.876 E1.16975
G1 X104.401 Y118.162 E1.19446
G1 X104.804 Y118.244 E1.21361
G1 X105.15 Y118.331 E1.23023
G1 X105.275 Y118.409 E1.23709
G1 X105.451 Y118.618 E1.24981
G1 X105.481 Y118.653 E1.25196
G1 X105.521 Y118.828 E1.26032
G1 X105.464 Y118.972 E1.26753
G1 X105.424 Y118.995 E1.26968
G1 X105.321 Y119.056 E1.27525
G1 X105.278 Y119.038 E1.27742
G1 X105.076 Y118.885 E1.28922
G1 X104.72 Y118.669 E1.30861
G1 X104.26 Y118.578 E1.33044
G1 X103.755 Y118.653 E1.35422
G1 X103.3 Y118.971 E1.38006
G1 X103.093 Y119.511 E1.40699
G1 X103.148 Y120.045 E1.43199
G1 X103.375 Y120.479 E1.4548
G1 X103.719 Y120.787 E1.4763
G1 X104.074 Y120.965 E1.49479
G1 X104.28 Y121.035 E1.50492
G1 X104.643 Y121.117 E1.52225
G1 X104.991 Y121.151 E1.53853
G1 X105.304 Y121.157 E1.55311
G1 X105.663 Y121.134 E1.56986
G1 X105.994 Y121.072 E1.58554
G1 X106.357 Y120.951 E1.60336
G1 X106.704 Y120.768 E1.62162
G1 X107.012 Y120.53 E1.63975
G1 X107.276 Y120.246 E1.6578
G1 X107.467 Y119.965 E1.67362
G1 X107.615 Y119.666 E1.68916
G1 X107.618 Y119.66 E1.68947
G1 X107.621 Y119.652 E1.68987
G1 X107.637 Y119.608 E1.69205
G1 X107.641 Y119.595 E1.69268
G1 X107.729 Y119.345 E1.70502
G1 X107.774 Y119.107 E1.7163
G1 X107.8 Y118.974 E1.72261
G1 X107.805 Y118.766 E1.7323
G1 X107.809 Y118.601 E1.73999
G1 X107.755 Y118.23 E1.75744
G1 X107.653 Y117.851 E1.77572
G1 X107.627 Y117.768 E1.77977
G1 X107.557 Y117.549 E1.79047
G1 X107.389 Y117.196 E1.80868
G1 X107.186 Y116.978 E1.82255
G1 X107.36 Y116.777 E1.83493
G1 X107.505 Y116.372 E1.85496
G1 X107.549 Y116.026 E1.8712
G1 X107.57 Y115.683 E1.8872
G1 X107.548 Y115.326 E1.90386
G1 X107.442 Y114.938 E1.92259
G1 X107.228 Y114.575 E1.94221
G1 X106.932 Y114.268 E1.96206
G1 X106.621 Y114.06 E1.97949
G1 X106.266 Y113.91 E1.99743
G1 X105.894 Y113.823 E2.01522
G1 X105.588 Y113.784 E2.02958
G1 X105.278 Y113.771 E2.04403
G1 X104.966 Y113.781 E2.05857
G1 X104.631 Y113.824 E2.07429
G1 X104.314 Y113.901 E2.08948
G1 X103.962 Y114.039 E2.10709
G1 X103.64 Y114.229 E2.1245
G1 X103.433 Y114.42 E2.13761
G1 X103.308 Y114.535 E2.14552
G1 X103.234 Y114.697 E2.15382
G1 X103.184 Y114.599 E2.15392
G1 X103.106 Y114.448 E2.15977
G1 X102.966 Y114.176 E2.17402
G1 X102.474 Y113.959 E2.19906
G1 X102.083 Y113.942 E2.21728
G1 X101.731 Y113.95 E2.23368
G1 X100.953 Y113.946 E2.2699
G1 X99.893 Y113.947 E2.31926
G1 X99.602 Y113.945 E2.33281
G1 X99.17 Y113.953 E2.35293
G1 X98.941 Y113.954 E2.3636
G1 X98.38 Y113.908 E2.38981
G1 X97.867 Y114.002 E2.41409
G1 X97.456 Y114.394 E2.44054
G1 X97.452 Y114.398 E2.4408
G1 X97.324 Y114.798 E2.46036
G1 X97.302 Y114.865 E2.46364
G1 X97.271 Y114.782 E2.46449
G1 X97.158 Y114.65 E2.46703
G1 X97.155 Y114.646 E2.46727
G1 X96.998 Y114.462 E2.47853
G1 X96.691 Y114.215 E2.49688
G1 X96.356 Y114.023 E2.51486
G1 X95.995 Y113.888 E2.5328
G1 X95.645 Y113.81 E2.5495
G1 X95.268 Y113.777 E2.56712
G1 X94.95 Y113.775 E2.58193
G1 X94.585 Y113.808 E2.599
G1 X94.243 Y113.876 E2.61523
G1 X93.906 Y113.988 E2.63177
G1 X93.593 Y114.134 E2.64785
G1 X93.296 Y114.321 E2.66419
G1 X93.024 Y114.54 E2.68045
G1 X92.778 Y114.797 E2.69702
G1 X92.602 Y115.028 E2.71054
G1 X92.564 Y115.078 E2.71347
G1 X92.38 Y115.397 E2.73061
G1 X92.232 Y115.736 E2.74784
G1 X92.208 Y115.813 E2.75159
G1 X92.208 Y115.736
G1 X92.208 Y115.397 E2.75521
G1 X92.208 Y115.079 E2.76602
G1 X92.208 Y115.016 E2.7688
G1 X92.207 Y112.647 E2.87912
G1 X92.236 Y112.361 E2.8925
G1 X92.35 Y112.019 E2.90929
G1 X92.561 Y111.731 E2.92591
G1 X92.716 Y111.613 E2.93498
G1 X93.052 Y111.466 E2.95206
G1 X93.317 Y111.425 E2.96455
G1 X116.817 Y109.992 E4.06084
G1 X117.124 Y109.979 E4.07515
G1 X117.417 Y109.972 E4.08879
G1 X117.847 Y109.975 E4.10882
G1 X118.143 Y109.983 E4.1226
G1 X118.567 Y110.007 E4.14238
G1 X118.851 Y110.031 E4.15565
G1 X119.158 Y110.063 E4.17002
G1 X119.403 Y110.092 E4.18151
G1 X119.824 Y110.153 E4.20132
G1 X120.174 Y110.213 E4.21785
G1 X120.742 Y110.331 E4.24487
G1 X121.134 Y110.426 E4.26365
G1 X121.377 Y110.492 E4.27537
G1 X121.756 Y110.602 E4.29375
G1 X122.124 Y110.721 E4.31176
G1 X122.376 Y110.807 E4.32416
G1 X122.796 Y110.964 E4.34504
G1 X123.197 Y111.13 E4.36525
G1 X123.416 Y111.225 E4.37636
G1 X123.788 Y111.398 E4.39546
G1 X124.083 Y111.545 E4.41081
G1 X124.305 Y111.661 E4.42248
G1 X124.623 Y111.836 E4.43938
G1 X124.828 Y111.955 E4.45041
G1 X125.146 Y112.148 E4.46774
G1 X125.458 Y112.347 E4.48497
G1 X125.765 Y112.557 E4.50229
G1 X126.033 Y112.747 E4.51758
G1 X126.345 Y112.982 E4.53577
G1 X126.603 Y113.188 E4.55114
G1 X126.992 Y113.515 E4.57481
G1 X127.251 Y113.748 E4.59103
G1 X127.489 Y113.971 E4.60622
G1 X127.725 Y114.204 E4.62166
G1 X127.992 Y114.481 E4.63957
G1 X128.152 Y114.652 E4.65048
G1 X128.33 Y114.851 E4.66291
G1 X128.693 Y115.281 E4.68911
G1 X129.039 Y115.724 E4.71529
G1 X129.269 Y116.043 E4.7336
G1 X129.528 Y116.421 E4.75494
G1 X129.796 Y116.845 E4.77829
G1 X129.956 Y117.117 E4.79299
G1 X130.048 Y117.353 E4.80478
G1 X130.052 Y117.636 E4.81796
G1 X130.005 Y117.784 E4.82519
G1 X129.866 Y118.037 E4.83863
G1 X129.716 Y118.284 E4.85209
G1 X129.541 Y118.561 E4.86735
G1 X129.297 Y118.919 E4.88752
G1 X129.096 Y119.198 E4.90353
G1 X128.896 Y119.462 E4.91895
G1 X128.869 Y119.498 E4.92105
G1 X128.696 Y119.715 E4.93397
G1 X128.686 Y119.727 E4.9347
G1 X128.6 Y119.83 E4.94095
G1 X128.586 Y119.732 E4.94118
G1 X128.571 Y119.632 E4.94215
G1 X128.542 Y119.597 E4.94427
G1 X128.227 Y119.214 E4.96736
G1 X127.736 Y119.034 E4.99171
G1 X127.528 Y119.01 E5.00146
G1 X127.323 Y118.988 E5.01106
G1 X127.273 Y118.988 E5.01339
G1 X127.167 Y118.988 E5.01832
G1 X127.22 Y118.914 E5.01895
G1 X127.273 Y118.842 E5.02025
G1 X127.391 Y118.674 E5.02728
G1 X127.756 Y118.152 E5.05694
G1 X128.093 Y117.681 E5.08391
G1 X128.303 Y117.366 E5.10153
G1 X128.474 Y117.024 E5.11934
G1 X128.563 Y116.603 E5.13938
G1 X128.517 Y116.135 E5.16127
G1 X128.251 Y115.64 E5.18744
G1 X127.772 Y115.409 E5.2122
G1 X127.375 Y115.38 E5.23074
G1 X126.969 Y115.386 E5.24964
G1 X125.912 Y115.383 E5.29886
G1 X125.562 Y115.378 E5.31516
G1 X125.23 Y115.39 E5.33063
G1 X124.807 Y115.465 E5.35064
G1 X124.357 Y115.75 E5.37544
G1 X124.326 Y115.827 E5.3793
G1 X124.267 Y115.969 E5.38646
G1 X124.196 Y115.837 E5.38807
G1 X124.153 Y115.757 E5.38927
G1 X123.672 Y115.404 E5.41706
G1 X123.093 Y115.395 E5.44402
G1 X122.632 Y115.746 E5.471
G1 X122.397 Y116.105 E5.49098
G1 X122.245 Y116.446 E5.50836
G1 X122.241 Y116.455 E5.50882
G1 X122.151 Y116.73 E5.5223
G1 X122.038 Y117.071 E5.53902
G1 X121.883 Y116.642 E5.54865
G1 X121.861 Y116.553 E5.55157
G1 X121.859 Y116.544 E5.552
G1 X121.8 Y116.317 E5.56292
G1 X121.64 Y115.921 E5.58281
G1 X121.267 Y115.55 E5.60731
G1 X120.751 Y115.379 E5.63262
G1 X120.181 Y115.433 E5.65928
G1 X119.734 Y115.813 E5.6866
G1 X119.674 Y116.087 E5.69966
G1 X119.571 Y115.909 E5.70114
G1 X119.424 Y115.658 E5.71376
G1 X118.916 Y115.37 E5.74095
G1 X118.369 Y115.433 E5.76659
G1 X117.966 Y115.714 E5.78947
G1 X117.836 Y115.867 E5.79882
G1 X117.695 Y116.033 E5.80896
G1 X117.685 Y116.052 E5.80996
G1 X117.674 Y116.071 E5.81098
G1 X117.663 Y116.052 E5.81111
G1 X117.653 Y116.035 E5.81122
G1 X117.519 Y115.864 E5.81782
G1 X117.403 Y115.717 E5.82654
G1 X116.977 Y115.417 E5.8508
G1 X116.42 Y115.381 E5.87679
G1 X115.89 Y115.633 E5.90412
G1 X115.573 Y116.115 E5.93098
G1 X115.596 Y116.679 E5.95726
G1 X115.749 Y117.069 E5.97677
G1 X115.942 Y117.412 E5.9951
G1 X116.063 Y117.618 E6.00622
G1 X116.225 Y117.917 E6.02206
G1 X116.446 Y118.262 E6.04113
G1 X116.282 Y118.48 E6.05384
G1 X116.121 Y118.74 E6.06808
G1 X115.993 Y118.973 E6.08046
G1 X115.982 Y118.993 E6.08152
G1 X115.886 Y119.152 E6.09017
G1 X115.776 Y119.334 E6.10007
G1 X115.683 Y119.133 E6.10372
G1 X115.616 Y118.99 E6.10855
G1 X115.601 Y118.973 E6.1096
G1 X115.336 Y118.668 E6.12842
G1 X114.987 Y118.429 E6.14811
G1 X114.584 Y118.29 E6.16796
G1 X114.161 Y118.264 E6.1877
G1 X113.913 Y118.313 E6.19947
G1 X113.745 Y118.346 E6.20744
G1 X113.734 Y118.352 E6.20803
G1 X113.633 Y118.403 E6.21329
G1 X113.647 Y118.328 E6.21332
G1 X113.667 Y118.222 E6.21499
G1 X113.685 Y118.051 E6.223
G1 X113.707 Y117.859 E6.232
G1 X113.72 Y117.486 E6.24937
G1 X113.716 Y117.198 E6.26279
G1 X113.691 Y116.853 E6.27889
G1 X113.643 Y116.513 E6.29488
G1 X113.574 Y116.201 E6.30976
G1 X113.487 Y115.909 E6.32395
G1 X113.35 Y115.573 E6.34084
G1 X113.179 Y115.26 E6.35745
G1 X112.982 Y114.976 E6.37355
G1 X112.752 Y114.721 E6.38954
G1 X112.497 Y114.502 E6.40519
G1 X112.176 Y114.3 E6.42285
G1 X111.833 Y114.156 E6.44017
G1 X111.508 Y114.066 E6.45587
G1 X111.203 Y114.01 E6.47031
G1 X110.872 Y113.972 E6.48583
G1 X110.57 Y113.954 E6.49991
G1 X110.273 Y113.947 E6.51375
G1 X109.734 Y113.95 E6.53885
G1 X109.269 Y113.933 E6.56051
G1 X108.886 Y113.962 E6.5784
G1 X108.419 Y114.131 E6.60152
G1 X108.044 Y114.551 E6.62774
G1 X107.992 Y115.08 E6.65249
G1 X108.03 Y115.465 E6.67051
G1 X108.033 Y115.727 E6.68271
G1 X108.025 Y116.012 E6.69598
G1 X108.023 Y116.435 E6.71568
G1 X108.025 Y116.83 E6.73407
G1 X108.025 Y117.764 E6.77756
G1 X108.025 Y117.851 E6.78148
G1 X108.025 Y118.23 E6.79565
G1 X108.025 Y118.601 E6.80616
G1 X108.025 Y118.771 E6.81054
G1 X108.027 Y118.971 E6.81568
G1 X108.03 Y119.155 E6.82137
G1 X108.026 Y119.351 E6.82743
G1 X108.024 Y119.413 E6.82996
G1 X108.014 Y119.666 E6.84175
G1 X108.014 Y119.675 E6.84217
G1 X108.014 Y119.682 E6.84249
G1 X108.012 Y119.725 E6.8445
G1 X108.013 Y119.738 E6.84511
G1 X108.042 Y120.125 E6.86318
G1 X108.206 Y120.587 E6.886
G1 X108.605 Y120.954 E6.91125
G1 X109.118 Y121.02 E6.93533
G1 X109.554 Y120.976 E6.95574
G1 X109.835 Y120.975 E6.96882
G1 X110.142 Y120.984 E6.98312
G1 X110.458 Y120.982 E6.99784
G1 X110.737 Y120.969 E7.01084
G1 X111.067 Y120.939 E7.02627
G1 X111.369 Y120.889 E7.04053
G1 X111.702 Y120.805 E7.05652
G1 X112.059 Y120.661 E7.07444
G1 X112.352 Y120.493 E7.09017
G1 X112.492 Y120.388 E7.09832
G1 X112.582 Y120.321 E7.10354
G1 X112.626 Y120.279 E7.10638
G1 X112.711 Y120.197 E7.11188
G1 X112.731 Y120.286 E7.11243
G1 X112.763 Y120.421 E7.11556
G1 X112.815 Y120.521 E7.12081
G1 X112.955 Y120.787 E7.1348
G1 X113.17 Y121.033 E7.15002
G1 X113.486 Y121.267 E7.16833
G1 X113.882 Y121.423 E7.18814
G1 X114.305 Y121.47 E7.20796
G1 X114.723 Y121.403 E7.22767
G1 X115.11 Y121.231 E7.24739
G1 X115.44 Y120.961 E7.26725
G1 X115.625 Y120.7 E7.28215
G1 X115.628 Y120.71
G1 X115.642 Y120.722
G1 X116.084 Y121.096 E7.30911
G1 X116.689 Y121.208 E7.33776
G1 X117.179 Y120.948 E7.36359
G1 X117.411 Y120.667 E7.38055
G1 X117.437 Y120.636 E7.38244
G1 X117.545 Y120.475 E7.39146
G1 X117.619 Y120.365 E7.39764
G1 X117.69 Y120.489 E7.39981
G1 X117.769 Y120.624 E7.40432
G1 X117.794 Y120.656 E7.40621
G1 X118.032 Y120.962 E7.42426
G1 X118.509 Y121.201 E7.4491
G1 X119.093 Y121.16 E7.47636
G1 X119.567 Y120.856 E7.50258
G1 X119.791 Y120.367 E7.52763
G1 X119.768 Y119.838 E7.55228
G1 X119.601 Y119.434 E7.57264
G1 X119.349 Y119.033 E7.59469
G1 X119.147 Y118.668 E7.61412
G1 X118.973 Y118.392 E7.62931
G1 X118.893 Y118.205 E7.63878
G1 X119.004 Y117.96 E7.6513
G1 X119.206 Y117.641 E7.66889
G1 X119.437 Y117.246 E7.69019
G1 X119.535 Y117.078 E7.69925
G1 X119.555 Y117.035 E7.70146
G1 X119.657 Y116.819 E7.71258
G1 X119.714 Y117.028 E7.71468
G1 X119.74 Y117.121 E7.71565
G1 X119.811 Y117.302 E7.72276
G1 X119.866 Y117.441 E7.72972
G1 X120 Y117.754 E7.74558
G1 X120.487 Y119.047 E7.80991
G1 X120.624 Y119.432 E7.82894
G1 X120.745 Y119.732 E7.844
G1 X120.898 Y120.064 E7.86103
G1 X120.936 Y120.22 E7.8685
G1 X120.917 Y120.302 E7.87242
G1 X120.807 Y120.535 E7.88442
G1 X120.688 Y120.799 E7.8979
G1 X120.546 Y121.187 E7.91714
G1 X120.396 Y121.434 E7.9306
G1 X120.127 Y121.557 E7.94437
G1 X119.819 Y121.638 E7.9592
G1 X119.346 Y121.924 E7.98494
G1 X119.167 Y122.47 E8.01169
G1 X119.261 Y122.983 E8.03598
G1 X119.533 Y123.424 E8.06011
G1 X120.01 Y123.698 E8.08572
G1 X120.5 Y123.718 E8.10856
G1 X120.862 Y123.645 E8.12575
G1 X121.177 Y123.539 E8.14123
G1 X121.508 Y123.376 E8.15841
G1 X121.824 Y123.126 E8.17717
G1 X122.077 Y122.816 E8.1958
G1 X122.246 Y122.521 E8.21163
G1 X122.393 Y122.209 E8.22769
G1 X122.503 Y121.945 E8.24101
G1 X122.747 Y121.324 E8.27208
G1 X122.917 Y120.876 E8.29439
G1 X123.2 Y120.091 E8.33325
G1 X123.881 Y118.172 E8.42806
G1 X124.056 Y117.639 E8.45419
G1 X124.141 Y117.431 E8.46465
G1 X124.153 Y117.4 E8.4662
G1 X124.246 Y117.204 E8.4763
G1 X124.273 Y117.149 E8.47915
G1 X124.31 Y117.05 E8.48407
G1 X124.344 Y117.104
G1 X124.423 Y117.23 E8.4878
G1 X124.474 Y117.312 E8.48992
G1 X124.505 Y117.325 E8.49148
G1 X124.962 Y117.519 E8.5146
G1 X125.121 Y117.539 E8.52206
G1 X125.341 Y117.566 E8.53238
G1 X125.502 Y117.573 E8.53989
G1 X125.451 Y117.644
G1 X125.322 Y117.824 E8.54725
G1 X124.796 Y118.561 E8.58941
G1 X124.648 Y118.758 E8.60088
G1 X124.476 Y118.994 E8.61448
G1 X124.3 Y119.277 E8.63
G1 X124.148 Y119.633 E8.64802
G1 X124.087 Y120.069 E8.66852
G1 X124.181 Y120.535 E8.69066
G1 X124.507 Y121.014 E8.71764
G1 X125.007 Y121.197 E8.74243
G1 X125.392 Y121.195 E8.76036
G1 X125.688 Y121.177 E8.77417
G1 X125.964 Y121.176 E8.78702
G1 X126.293 Y121.182 E8.80234
G1 X126.573 Y121.183 E8.81538
G1 X126.752 Y121.181 E8.82372
G1 X126.908 Y121.181 E8.83098
G1 X127.168 Y121.181 E8.84309
G1 X127.323 Y121.182 E8.8503
G1 X127.168 Y121.329 E8.85375
G1 X127.095 Y121.393 E8.85462
G1 X126.978 Y121.496 E8.86088
G1 X126.842 Y121.616 E8.86933
G1 X126.53 Y121.872 E8.88812
G1 X126.24 Y122.098 E8.90524
G1 X125.947 Y122.316 E8.92225
G1 X125.68 Y122.504 E8.93745
G1 X125.46 Y122.651 E8.94977
G1 X125.167 Y122.841 E8.96603
G1 X124.744 Y123.095 E8.98901
G1 X124.422 Y123.276 E9.00621
G1 X123.966 Y123.512 E9.03012
G1 X123.74 Y123.625 E9.04188
G1 X123.435 Y123.766 E9.05753
G1 X123.17 Y123.883 E9.07102
G1 X122.853 Y124.013 E9.08697
G1 X122.625 Y124.101 E9.09835
G1 X122.305 Y124.218 E9.11422
G1 X121.981 Y124.328 E9.13015
G1 X121.694 Y124.417 E9.14414
G1 X121.382 Y124.508 E9.15927
G1 X120.932 Y124.624 E9.18091
G1 X120.485 Y124.725 E9.20225
G1 X120.149 Y124.792 E9.21821
G1 X119.827 Y124.847 E9.23342
G1 X119.382 Y124.911 E9.25435
G1 X118.908 Y124.966 E9.27657
G1 X118.422 Y125.002 E9.29926
G1 X118.101 Y125.017 E9.31423
G1 X117.788 Y125.027 E9.32881
G1 X117.489 Y125.029 E9.34273
G1 X117.18 Y125.023 E9.35712
G1 X116.828 Y125.01 E9.37352
G1 X114.659 Y124.876 E9.47471
G1 X113.315 Y124.797 E9.5374
G1 X113.06 Y124.778 E9.54931
G1 X112.855 Y124.767 E9.55887
G1 X112.599 Y124.75 E9.57082
G1 X112.147 Y124.724 E9.5919
G1 X110.444 Y124.618 E9.67135
G1 X109.975 Y124.591 E9.69323
G1 X109.706 Y124.573 E9.70578
G1 X109.233 Y124.546 E9.72784
G1 X108.963 Y124.528 E9.74044
G1 X107.725 Y124.454 E9.79819
G1 X106.686 Y124.389 E9.84667
G1 X106.191 Y124.361 E9.86975
G1 X93.326 Y123.575 E10.46992
G1 X92.934 Y123.497 E10.48853
G1 X92.63 Y123.329 E10.5047
G1 X92.482 Y123.178 E10.51455
G1 X92.309 Y122.892 E10.53011
G1 X92.219 Y122.546 E10.54676
G1 X92.209 Y122.129 E10.56618
G1 X92.209 Y119.929 E10.66862
G1 X92.209 Y119.679 E10.68026
G1 X92.209 Y119.363 E10.69498
G1 X92.208 Y119.119 E10.70634
G1 X92.298 Y119.362 E10.70816
G1 X92.458 Y119.679 E10.71594
G1 X92.595 Y119.887 E10.72545
G1 X92.652 Y119.974 E10.73029
G1 X92.875 Y120.244 E10.7466
G1 X93.135 Y120.484 E10.76307
G1 X93.413 Y120.689 E10.77916
G1 X93.722 Y120.861 E10.79562
G1 X94.046 Y120.994 E10.81193
G1 X94.368 Y121.083 E10.82749
G1 X94.739 Y121.139 E10.84496
G1 X95.055 Y121.154 E10.85969
G1 X95.365 Y121.147 E10.87413
G1 X95.707 Y121.108 E10.89016
G1 X96.036 Y121.031 E10.90589
G1 X96.394 Y120.893 E10.92376
G1 X96.717 Y120.701 E10.94125
G1 X96.995 Y120.458 E10.95845
G1 X97.224 Y120.169 E10.97562
G1 X97.431 Y119.762 E10.99688
G1 X97.472 Y119.268 E11.01996
G1 X97.172 Y118.772 E11.04695
G1 X96.718 Y118.5 E11.0716
G1 X96.191 Y118.425 E11.09638
G1 X95.669 Y118.611 E11.12219
G1 X95.403 Y118.883 E11.1399
G0 F6000 X95.613 Y119.239
;TYPE:WALL-OUTER
G1 F1200 X95.195 Y119.357 E11.16012
G1 X94.729 Y119.318 E11.1819
G1 X94.327 Y119.128 E11.2026
G1 X94.029 Y118.794 E11.22345
G1 X93.93 Y118.587 E11.23413
G1 X93.853 Y118.34 E11.24618
G1 X93.804 Y118.084 E11.25832
G1 X93.775 Y117.809 E11.27119
G1 X93.763 Y117.49 E11.28606
G1 X93.771 Y117.177 E11.30064
G1 X93.792 Y116.922 E11.31255
G1 X93.839 Y116.649 E11.32545
G1 X93.908 Y116.405 E11.33726
G1 X94.129 Y115.991 E11.35911
G1 X94.48 Y115.705 E11.38019
G1 X94.904 Y115.576 E11.40083
G1 X95.116 Y115.574 E11.4107
G1 X95.329 Y115.628 E11.42093
G1 X95.588 Y115.771 E11.43471
G1 X95.815 Y115.911 E11.44713
G1 X96.101 Y116.05 E11.46193
G1 X96.456 Y116.103 E11.47865
G1 X96.779 Y115.958 E11.49513
G1 X96.986 Y115.672 E11.51157
G1 X97.047 Y115.325 E11.52798
G1 X96.921 Y114.988 E11.54473
G1 X96.718 Y114.75 E11.5593
G1 X96.465 Y114.546 E11.57443
G1 X96.185 Y114.386 E11.58945
G1 X95.881 Y114.272 E11.60457
G1 X95.584 Y114.206 E11.61873
G1 X95.249 Y114.177 E11.63439
G1 X94.966 Y114.175 E11.64757
G1 X94.642 Y114.204 E11.66271
G1 X94.346 Y114.263 E11.67677
G1 X94.054 Y114.36 E11.6911
G1 X93.785 Y114.486 E11.70493
G1 X93.529 Y114.647 E11.71901
G1 X93.295 Y114.835 E11.73299
G1 X93.083 Y115.057 E11.74728
G1 X92.898 Y115.3 E11.7615
G1 X92.738 Y115.578 E11.77644
G1 X92.607 Y115.877 E11.79164
G1 X92.52 Y116.151 E11.80502
G1 X92.449 Y116.453 E11.81947
G1 X92.399 Y116.786 E11.83515
G1 X92.37 Y117.133 E11.85136
G1 X92.363 Y117.404 E11.86399
G1 X92.364 Y117.676 E11.87665
G1 X92.386 Y118.023 E11.89284
G1 X92.426 Y118.34 E11.90772
G1 X92.483 Y118.63 E11.92148
G1 X92.553 Y118.898 E11.93438
G1 X92.665 Y119.202 E11.94947
G1 X92.805 Y119.478 E11.96388
G1 X92.974 Y119.736 E11.97824
G1 X93.166 Y119.968 E11.99226
G1 X93.39 Y120.175 E12.00646
G1 X93.63 Y120.352 E12.02035
G1 X93.896 Y120.5 E12.03452
G1 X94.176 Y120.615 E12.04862
G1 X94.451 Y120.691 E12.0619
G1 X94.779 Y120.74 E12.07734
G1 X95.061 Y120.754 E12.09049
G1 X95.337 Y120.748 E12.10335
G1 X95.638 Y120.713 E12.11746
G1 X95.918 Y120.648 E12.13084
G1 X96.219 Y120.532 E12.14586
G1 X96.481 Y120.376 E12.16006
G1 X96.704 Y120.181 E12.17385
G1 X96.886 Y119.952 E12.18748
G1 X97.039 Y119.651 E12.2032
G1 X97.063 Y119.364 E12.21661
G1 X96.881 Y119.064 E12.23295
G1 X96.582 Y118.885 E12.24917
G1 X96.232 Y118.835 E12.26564
G1 X95.89 Y118.957 E12.28255
G1 X95.613 Y119.239 E12.30095
G0 F6000 X95.389 Y118.861
G1 F2700 E7.30095
G0 F6000 X94.675 Y118.661
G0 X94.346 Y117.766
G0 X94.396 Y116.779
G0 X94.579 Y116.363
G0 X94.981 Y116.15
G0 X97.152 Y116.417
G0 X97.48 Y115.993
G0 X99.022 Y116.269
G0 X99.026 Y117.418
G0 X99.529 Y120.522
G0 X99.646 Y120.36
G1 F2700 E12.30095
G1 F1200 X99.92 Y120.558 E12.31669
G1 X100.267 Y120.613 E12.33305
G1 X100.499 Y120.569 E12.34405
G1 X100.771 Y120.376 E12.35958
G1 X100.918 Y120.037 E12.37678
G1 X100.947 Y119.718 E12.3917
G1 X100.928 Y119.179 E12.41681
G1 X100.927 Y118.911 E12.42929
G1 X100.931 Y118.293 E12.45807
G1 X100.93 Y116.898 E12.52303
G1 X100.933 Y116.275 E12.55204
G1 X100.927 Y115.922 E12.56847
G1 X100.987 Y115.713 E12.5786
G1 X101.171 Y115.684 E12.58727
G1 X101.442 Y115.698 E12.59991
G1 X101.768 Y115.71 E12.6151
G1 X102.064 Y115.701 E12.62889
G1 X102.359 Y115.661 E12.64275
G1 X102.682 Y115.503 E12.65949
G1 X102.847 Y115.172 E12.67672
G1 X102.841 Y114.806 E12.69376
G1 X102.675 Y114.485 E12.71059
G1 X102.381 Y114.355 E12.72556
G1 X102.079 Y114.342 E12.73963
G1 X101.738 Y114.35 E12.75551
G1 X100.952 Y114.346 E12.79211
G1 X99.89 Y114.347 E12.84157
G1 X99.604 Y114.345 E12.85488
G1 X99.177 Y114.353 E12.87477
G1 X98.921 Y114.354 E12.88669
G1 X98.4 Y114.311 E12.91103
G1 X98.057 Y114.374 E12.92727
G1 X97.802 Y114.617 E12.94367
G1 X97.697 Y114.944 E12.95967
G1 X97.736 Y115.307 E12.97667
G1 X97.936 Y115.616 E12.9938
G1 X98.234 Y115.739 E13.00882
G1 X98.566 Y115.731 E13.02428
G1 X98.861 Y115.687 E13.03817
G1 X99.29 Y115.682 E13.05815
G1 X99.464 Y115.752 E13.06688
G1 X99.572 Y115.871 E13.07436
G1 X99.615 Y116.058 E13.0833
G1 X99.604 Y116.314 E13.09523
G1 X99.586 Y116.586 E13.10792
G1 X99.584 Y116.882 E13.1217
G1 X99.592 Y117.202 E13.13661
G1 X99.59 Y118.506 E13.19733
G1 X99.587 Y118.837 E13.21274
G1 X99.599 Y119.489 E13.24311
G1 X99.556 Y120.02 E13.26791
G1 X99.646 Y120.36 E13.28429
G0 F6000 X99.284 Y120.609
G0 X100.269 Y120.753
G0 X100.554 Y120.699
G0 X100.883 Y120.466
G0 X101.505 Y118.855
G0 X101.516 Y116.283
G0 X103.148 Y115.892
G0 X103.963 Y116.192
G0 X105.169 Y115.966
;TYPE:WALL-INNER
G1 F1200 X105.054 Y115.999 E13.28986
G1 X104.918 Y116.039 E13.29646
G1 X105.038 Y115.945 E13.29731
G1 X105.15 Y115.909 E13.29805
G1 X105.22 Y115.886 E13.30144
G1 X105.169 Y115.966 E13.30237
G1 F2700 E8.30237
G0 F6000 X104.02 Y116.058
G0 X103.661 Y115.841
G0 X103.422 Y115.492
G0 X103.356 Y115.065
G0 X103.524 Y114.691
G0 X104.077 Y114.275
G0 X104.679 Y114.081
G0 X105.565 Y114.044
G0 X106.184 Y114.159
G0 X106.764 Y114.47
G0 X107.018 Y114.734
G0 X107.199 Y115.041
G0 X107.309 Y115.684
G0 X107.25 Y116.31
G0 X107.154 Y116.579
G0 X106.791 Y116.998
G0 X106.463 Y117.011
;TYPE:WALL-OUTER
G1 F2700 E13.30237
G1 F1200 X106.515 Y116.988 E13.30502
G1 X106.785 Y116.83 E13.31958
G1 X107.009 Y116.572 E13.33549
G1 X107.114 Y116.278 E13.35003
G1 X107.151 Y115.989 E13.3636
G1 X107.169 Y115.684 E13.37782
G1 X107.151 Y115.392 E13.39145
G1 X107.07 Y115.095 E13.40578
G1 X106.907 Y114.819 E13.42071
G1 X106.674 Y114.577 E13.43635
G1 X106.43 Y114.414 E13.45001
G1 X106.141 Y114.292 E13.46462
G1 X105.823 Y114.217 E13.47983
G1 X105.554 Y114.183 E13.49246
G1 X105.276 Y114.171 E13.50541
G1 X104.998 Y114.18 E13.51837
G1 X104.704 Y114.218 E13.53217
G1 X104.435 Y114.283 E13.54506
G1 X104.138 Y114.4 E13.55992
G1 X103.88 Y114.552 E13.57386
G1 X103.639 Y114.774 E13.58912
G1 X103.498 Y115.084 E13.60498
G1 X103.554 Y115.44 E13.62176
G1 X103.758 Y115.738 E13.63858
G1 X104.053 Y115.918 E13.65467
G1 X104.361 Y115.891 E13.66906
G1 X104.627 Y115.739 E13.68333
G1 X104.846 Y115.592 E13.69561
G1 X105.045 Y115.506 E13.70571
G1 X105.244 Y115.479 E13.71506
G1 X105.408 Y115.516 E13.72289
G1 X105.544 Y115.631 E13.73118
G1 X105.618 Y115.796 E13.7396
G1 X105.624 Y115.969 E13.74766
G1 X105.545 Y116.151 E13.7569
G1 X105.413 Y116.289 E13.76579
G1 X105.238 Y116.382 E13.77502
G1 X104.988 Y116.433 E13.7869
G1 X104.696 Y116.485 E13.80071
G1 X104.404 Y116.649 E13.8163
G1 X104.228 Y116.955 E13.83274
G1 X104.179 Y117.301 E13.84901
G1 X104.287 Y117.614 E13.86443
G1 X104.554 Y117.785 E13.8792
G1 X104.881 Y117.851 E13.89473
G1 X105.13 Y117.898 E13.90653
G1 X105.326 Y117.968 E13.91622
G1 X105.541 Y118.103 E13.92804
G1 X105.83 Y118.446 E13.94893
G1 X105.903 Y118.635 E13.95836
G1 X105.926 Y118.85 E13.96843
G1 X105.88 Y119.053 E13.97812
G1 X105.777 Y119.23 E13.98766
G1 X105.617 Y119.369 E13.99753
G1 X105.434 Y119.449 E14.00683
G1 X105.255 Y119.462 E14.01518
G1 X105.075 Y119.387 E14.02426
G1 X104.851 Y119.216 E14.03738
G1 X104.573 Y119.048 E14.05251
G1 X104.25 Y118.984 E14.06784
G1 X103.907 Y119.035 E14.08399
G1 X103.63 Y119.229 E14.09974
G1 X103.501 Y119.565 E14.1165
G1 X103.538 Y119.928 E14.13349
G1 X103.696 Y120.229 E14.14932
G1 X103.946 Y120.453 E14.16495
G1 X104.229 Y120.595 E14.17969
G1 X104.389 Y120.65 E14.18757
G1 X104.706 Y120.721 E14.20269
G1 X105.015 Y120.751 E14.21715
G1 X105.295 Y120.757 E14.23019
G1 X105.613 Y120.736 E14.24503
G1 X105.894 Y120.684 E14.25834
G1 X106.199 Y120.582 E14.27331
G1 X106.487 Y120.43 E14.28848
G1 X106.741 Y120.234 E14.30342
G1 X106.962 Y119.996 E14.31854
G1 X107.121 Y119.763 E14.33167
G1 X107.249 Y119.504 E14.34513
G1 X107.342 Y119.24 E14.35816
G1 X107.401 Y118.932 E14.37276
G1 X107.408 Y118.625 E14.38706
G1 X107.363 Y118.311 E14.40183
G1 X107.269 Y117.964 E14.41857
G1 X107.184 Y117.696 E14.43166
G1 X107.054 Y117.423 E14.44574
G1 X106.827 Y117.179 E14.46126
G1 X106.531 Y117.032 E14.47665
G1 X106.463 Y117.011 E14.47996
G1 F2700 E9.47996
G0 F6000 X106.791 Y116.998
G0 X107.171 Y117.344
G0 X108.431 Y120.439
G0 X108.647 Y120.719
G0 X108.782 Y120.573
G1 F2700 E14.47996
G1 F1200 X109.124 Y120.617 E14.49602
G1 X109.533 Y120.576 E14.51516
G1 X109.846 Y120.575 E14.52974
G1 X110.147 Y120.584 E14.54376
G1 X110.448 Y120.582 E14.55777
G1 X110.71 Y120.57 E14.56999
G1 X111.016 Y120.542 E14.58429
G1 X111.287 Y120.497 E14.59709
G1 X111.578 Y120.424 E14.61106
G1 X111.884 Y120.3 E14.62643
G1 X112.132 Y120.158 E14.63974
G1 X112.323 Y120.015 E14.65085
G1 X112.544 Y119.804 E14.66508
G1 X112.733 Y119.573 E14.67897
G1 X112.903 Y119.305 E14.69375
G1 X113.044 Y119.013 E14.70885
G1 X113.139 Y118.75 E14.72187
G1 X113.214 Y118.466 E14.73555
G1 X113.271 Y118.163 E14.7499
G1 X113.308 Y117.83 E14.76551
G1 X113.32 Y117.482 E14.78172
G1 X113.316 Y117.215 E14.79415
G1 X113.293 Y116.895 E14.80909
G1 X113.249 Y116.584 E14.82372
G1 X113.187 Y116.302 E14.83716
G1 X113.109 Y116.042 E14.8498
G1 X112.988 Y115.745 E14.86474
G1 X112.838 Y115.47 E14.87932
G1 X112.668 Y115.225 E14.89321
G1 X112.472 Y115.008 E14.90682
G1 X112.259 Y114.825 E14.9199
G1 X111.991 Y114.656 E14.93465
G1 X111.702 Y114.535 E14.94924
G1 X111.418 Y114.456 E14.96297
G1 X111.144 Y114.406 E14.97594
G1 X110.837 Y114.371 E14.99033
G1 X110.553 Y114.354 E15.00357
G1 X110.269 Y114.347 E15.0168
G1 X109.722 Y114.35 E15.04227
G1 X109.277 Y114.334 E15.06301
G1 X108.971 Y114.357 E15.0773
G1 X108.65 Y114.473 E15.09319
G1 X108.429 Y114.72 E15.10862
G1 X108.394 Y115.08 E15.12546
G1 X108.43 Y115.447 E15.14264
G1 X108.433 Y115.738 E15.15619
G1 X108.425 Y116.019 E15.16928
G1 X108.423 Y116.435 E15.18865
G1 X108.425 Y116.83 E15.20704
G1 X108.425 Y118.768 E15.29728
G1 X108.43 Y119.164 E15.31572
G1 X108.424 Y119.428 E15.32802
G1 X108.413 Y119.718 E15.34153
G1 X108.437 Y120.042 E15.35666
G1 X108.55 Y120.36 E15.37237
G1 X108.782 Y120.573 E15.38704
G0 F6000 X108.597 Y120.971
G1 F2700 E10.38704
G0 F6000 X112.611 Y120.528
G0 X114.272 Y121.264
G0 X114.295 Y121.066
G1 F2700 E15.38704
G1 F1200 X114.608 Y121.016 E15.4018
G1 X114.899 Y120.887 E15.41662
G1 X115.145 Y120.686 E15.43141
G1 X115.329 Y120.426 E15.44625
G1 X115.44 Y120.129 E15.46101
G1 X115.469 Y119.811 E15.47588
G1 X115.412 Y119.499 E15.49065
G1 X115.277 Y119.21 E15.5055
G1 X115.068 Y118.969 E15.52035
G1 X114.806 Y118.79 E15.53513
G1 X114.505 Y118.686 E15.54996
G1 X114.188 Y118.666 E15.56475
G1 X113.876 Y118.728 E15.57956
G1 X113.592 Y118.871 E15.59437
G1 X113.355 Y119.083 E15.60917
G1 X113.183 Y119.349 E15.62392
G1 X113.084 Y119.652 E15.63877
G1 X113.07 Y119.971 E15.65363
G1 X113.141 Y120.281 E15.66844
G1 X113.287 Y120.559 E15.68306
G1 X113.443 Y120.737 E15.69408
G1 X113.682 Y120.914 E15.70793
G1 X113.979 Y121.031 E15.7228
G1 X114.295 Y121.066 E15.7376
G0 F6000 X114.305 Y121.505
G1 F2700 E10.7376
G0 F6000 X116.137 Y120.798
G0 X116.647 Y120.933
G0 X117.01 Y120.741
G0 X117.162 Y120.52
G0 X117.614 Y119.831
G0 X117.602 Y119.512
G1 F2700 E15.7376
G1 F1200 X117.673 Y119.635 E15.74421
G1 X117.817 Y119.908 E15.75859
G1 X118.102 Y120.4 E15.78506
G1 X118.292 Y120.645 E15.7995
G1 X118.59 Y120.794 E15.81501
G1 X118.963 Y120.768 E15.83242
G1 X119.252 Y120.583 E15.8484
G1 X119.387 Y120.288 E15.86351
G1 X119.371 Y119.926 E15.88038
G1 X119.244 Y119.618 E15.89589
G1 X119.01 Y119.246 E15.91636
G1 X118.803 Y118.872 E15.93626
G1 X118.624 Y118.588 E15.95189
G1 X118.516 Y118.383 E15.96268
G1 X118.486 Y118.193 E15.97164
G1 X118.526 Y118.014 E15.98018
G1 X118.655 Y117.763 E15.99332
G1 X118.864 Y117.433 E16.01151
G1 X119.181 Y116.891 E16.04075
G1 X119.308 Y116.622 E16.0546
G1 X119.332 Y116.294 E16.06991
G1 X119.133 Y115.953 E16.0883
G1 X118.832 Y115.782 E16.10442
G1 X118.515 Y115.819 E16.11928
G1 X118.237 Y116.013 E16.13506
G1 X118.025 Y116.262 E16.15029
G1 X117.875 Y116.532 E16.16467
G1 X117.756 Y116.814 E16.17893
G1 X117.693 Y116.942 E16.18557
G1 X117.625 Y116.826 E16.19183
G1 X117.476 Y116.525 E16.20747
G1 X117.321 Y116.26 E16.22176
G1 X117.125 Y116.01 E16.23656
G1 X116.839 Y115.809 E16.25283
G1 X116.498 Y115.787 E16.26875
G1 X116.163 Y115.946 E16.28601
G1 X115.978 Y116.227 E16.30168
G1 X115.993 Y116.596 E16.31887
G1 X116.111 Y116.897 E16.33393
G1 X116.289 Y117.213 E16.35082
G1 X116.414 Y117.427 E16.36236
G1 X116.57 Y117.714 E16.37757
G1 X116.859 Y118.167 E16.40259
G1 X116.884 Y118.29 E16.40843
G1 X116.811 Y118.442 E16.41628
G1 X116.613 Y118.706 E16.43165
G1 X116.467 Y118.942 E16.44457
G1 X116.333 Y119.186 E16.45753
G1 X116.092 Y119.585 E16.47924
G1 X115.965 Y119.847 E16.4928
G1 X115.893 Y120.171 E16.50825
G1 X115.98 Y120.484 E16.52338
G1 X116.261 Y120.722 E16.54053
G1 X116.625 Y120.789 E16.55776
G1 X116.921 Y120.632 E16.57336
G1 X117.116 Y120.396 E16.58762
G1 X117.275 Y120.16 E16.60087
G1 X117.427 Y119.895 E16.61509
G1 X117.602 Y119.512 E16.6347
G1 F2700 E11.6347
G0 F6000 X117.614 Y119.831
G0 X118.202 Y120.754
G0 X118.563 Y120.935
G0 X119.007 Y120.903
G0 X119.361 Y120.677
G0 X119.527 Y120.315
G0 X119.294 Y118.581
G0 X119.082 Y118.207
G0 X119.972 Y115.956
G0 X120.288 Y115.686
G0 X120.721 Y115.644
G0 X121.127 Y115.778
G0 X121.388 Y116.039
G0 X122.05 Y117.855
G0 X122.075 Y118.244
G1 F2700 E16.6347
G1 F1200 X122.007 Y118.101 E16.64207
G1 X121.893 Y117.806 E16.6568
G1 X121.77 Y117.475 E16.67324
G1 X121.578 Y117.003 E16.69697
G1 X121.498 Y116.751 E16.70928
G1 X121.419 Y116.442 E16.72413
G1 X121.3 Y116.147 E16.73894
G1 X121.052 Y115.9 E16.75524
G1 X120.705 Y115.785 E16.77226
G1 X120.344 Y115.819 E16.78915
G1 X120.096 Y116.03 E16.80431
G1 X120.014 Y116.405 E16.82218
G1 X120.047 Y116.727 E16.83726
G1 X120.12 Y116.995 E16.85019
G1 X120.236 Y117.289 E16.86491
G1 X120.375 Y117.614 E16.88137
G1 X120.64 Y118.323 E16.91661
G1 X120.864 Y118.913 E16.946
G1 X120.998 Y119.29 E16.96463
G1 X121.112 Y119.574 E16.97888
G1 X121.277 Y119.932 E16.99723
G1 X121.348 Y120.22 E17.01105
G1 X121.296 Y120.436 E17.02139
G1 X121.17 Y120.703 E17.03514
G1 X121.058 Y120.951 E17.04781
G1 X120.911 Y121.351 E17.06765
G1 X120.799 Y121.575 E17.07931
G1 X120.668 Y121.732 E17.08884
G1 X120.5 Y121.849 E17.09837
G1 X120.239 Y121.941 E17.11125
G1 X119.976 Y122.01 E17.12392
G1 X119.68 Y122.189 E17.14002
G1 X119.579 Y122.498 E17.15516
G1 X119.641 Y122.837 E17.17121
G1 X119.82 Y123.128 E17.18712
G1 X120.124 Y123.302 E17.20343
G1 X120.468 Y123.316 E17.21946
G1 X120.758 Y123.258 E17.23323
G1 X121.024 Y123.168 E17.2463
G1 X121.293 Y123.036 E17.26026
G1 X121.542 Y122.839 E17.27504
G1 X121.746 Y122.589 E17.29007
G1 X121.891 Y122.336 E17.30364
G1 X122.027 Y122.047 E17.31852
G1 X122.132 Y121.795 E17.33123
G1 X122.374 Y121.18 E17.362
G1 X122.542 Y120.737 E17.38407
G1 X122.823 Y119.956 E17.42271
G1 X123.502 Y118.043 E17.51724
G1 X123.681 Y117.499 E17.5439
G1 X123.785 Y117.242 E17.55681
G1 X123.905 Y116.992 E17.56973
G1 X124.013 Y116.703 E17.58409
G1 X124.012 Y116.342 E17.6009
G1 X123.843 Y116.026 E17.61759
G1 X123.538 Y115.802 E17.63521
G1 X123.225 Y115.797 E17.64978
G1 X122.929 Y116.023 E17.66713
G1 X122.749 Y116.297 E17.68239
G1 X122.615 Y116.599 E17.69778
G1 X122.421 Y117.187 E17.72661
G1 X122.264 Y117.611 E17.74766
G1 X122.166 Y117.936 E17.76347
G1 X122.088 Y118.212 E17.77682
G1 X122.075 Y118.244 E17.77843
G1 F2700 E12.77843
G0 F6000 X122.05 Y117.855
G0 X122.626 Y116.23
G0 X122.826 Y115.927
G0 X123.18 Y115.658
G0 X123.583 Y115.666
G0 X123.95 Y115.933
G0 X124.917 Y117.686
G0 X124.402 Y119.704
G0 X124.353 Y120.061
G0 X124.427 Y120.431
G0 X124.676 Y120.797
G0 X125.054 Y120.936
G0 X127.594 Y120.911
G0 X127.963 Y120.825
G0 X128.259 Y120.57
G0 X128.383 Y120.157
G0 X128.322 Y119.742
G0 X128.07 Y119.435
G0 X127.676 Y119.29
G0 X126.652 Y119.27
G0 X126.403 Y119.426
G1 F2700 E17.77843
G1 F1200 X126.464 Y119.29 E17.78537
G1 X126.609 Y119.074 E17.79748
G1 X126.785 Y118.835 E17.81131
G1 X126.947 Y118.61 E17.82422
G1 X127.429 Y117.922 E17.86333
G1 X127.764 Y117.454 E17.89013
G1 X127.956 Y117.165 E17.90629
G1 X128.093 Y116.891 E17.92055
G1 X128.159 Y116.58 E17.93536
G1 X128.127 Y116.254 E17.95061
G1 X127.96 Y115.944 E17.967
G1 X127.667 Y115.802 E17.98217
G1 X127.364 Y115.78 E17.99631
G1 X126.974 Y115.786 E18.01447
G1 X125.906 Y115.783 E18.0642
G1 X125.567 Y115.778 E18.07999
G1 X125.272 Y115.789 E18.09374
G1 X124.954 Y115.845 E18.10877
G1 X124.678 Y116.02 E18.12399
G1 X124.54 Y116.355 E18.14086
G1 X124.563 Y116.702 E18.15705
G1 X124.746 Y116.993 E18.17306
G1 X125.067 Y117.129 E18.18929
G1 X125.374 Y117.167 E18.2037
G1 X125.694 Y117.181 E18.21861
G1 X126.01 Y117.162 E18.23335
G1 X126.315 Y117.13 E18.24763
G1 X126.243 Y117.237 E18.25364
G1 X126.074 Y117.462 E18.26674
G1 X125.121 Y118.794 E18.34301
G1 X124.97 Y118.996 E18.35475
G1 X124.808 Y119.218 E18.36755
G1 X124.656 Y119.462 E18.38093
G1 X124.537 Y119.741 E18.39506
G1 X124.493 Y120.057 E18.40991
G1 X124.557 Y120.377 E18.42511
G1 X124.765 Y120.683 E18.44234
G1 X125.077 Y120.797 E18.4578
G1 X125.379 Y120.795 E18.47187
G1 X125.68 Y120.777 E18.48591
G1 X125.97 Y120.776 E18.49941
G1 X126.297 Y120.782 E18.51464
G1 X126.573 Y120.783 E18.52749
G1 X126.908 Y120.781 E18.54309
G1 X127.302 Y120.783 E18.56144
G1 X127.576 Y120.772 E18.57421
G1 X127.899 Y120.698 E18.58964
G1 X128.139 Y120.492 E18.60436
G1 X128.242 Y120.148 E18.62109
G1 X128.191 Y119.8 E18.63746
G1 X127.987 Y119.552 E18.65242
G1 X127.644 Y119.426 E18.66943
G1 X127.301 Y119.388 E18.6855
G1 X126.977 Y119.388 E18.70059
G1 X126.662 Y119.415 E18.71531
G1 X126.403 Y119.426 E18.72738
G1 F2700 E13.72738
G0 F6000 X126.652 Y119.27
G0 X127.676 Y119.29
G0 X128.07 Y119.435
G0 X128.322 Y119.742
G0 X128.383 Y120.157
G0 X128.259 Y120.57
G0 X127.963 Y120.825
G0 X124.343 Y123.124
G0 X122.563 Y123.942
G0 X121.213 Y124.358
G0 X117.486 Y125.229
G0 X117.485 Y125.429
G1 F2700 E18.72738
G1 F1200 X117.164 Y125.423 E18.74233
G1 X116.812 Y125.409 E18.75873
G1 X115.828 Y125.35 E18.80463
G1 X114.635 Y125.275 E18.86029
G1 X113.285 Y125.196 E18.92326
G1 X113.034 Y125.177 E18.93499
G1 X112.828 Y125.166 E18.94459
G1 X112.574 Y125.149 E18.95644
G1 X112.122 Y125.123 E18.97753
G1 X111.148 Y125.062 E19.02297
G1 X110.683 Y125.035 E19.04466
G1 X110.419 Y125.017 E19.05698
G1 X109.948 Y124.99 E19.07895
G1 X109.681 Y124.972 E19.09141
G1 X109.206 Y124.945 E19.11356
G1 X108.938 Y124.927 E19.12607
G1 X108.456 Y124.899 E19.14855
G1 X108.185 Y124.881 E19.1612
G1 X107.7 Y124.853 E19.18382
G1 X106.662 Y124.788 E19.23225
G1 X106.167 Y124.76 E19.25533
G1 X95.539 Y124.112 E19.75114
G1 X93.275 Y123.972 E19.85676
G1 X92.805 Y123.879 E19.87907
G1 X92.547 Y123.757 E19.89236
G1 X92.37 Y123.635 E19.90237
G1 X92.164 Y123.426 E19.91603
G1 X91.937 Y123.049 E19.93652
G1 X91.823 Y122.61 E19.95764
G1 X91.807 Y122.358 E19.9694
G1 X91.809 Y122.127 E19.98016
G1 X91.807 Y112.627 E20.42252
G1 X91.842 Y112.279 E20.4388
G1 X91.987 Y111.844 E20.46015
G1 X92.142 Y111.6 E20.47361
G1 X92.286 Y111.438 E20.48371
G1 X92.515 Y111.264 E20.4971
G1 X92.934 Y111.081 E20.51839
G1 X93.219 Y111.033 E20.53185
G1 X93.273 Y111.027 E20.53438
G1 X116.8 Y109.592 E21.63193
G1 X117.107 Y109.579 E21.64624
G1 X117.411 Y109.572 E21.6604
G1 X117.859 Y109.575 E21.68126
G1 X118.155 Y109.584 E21.69505
G1 X118.601 Y109.608 E21.71584
G1 X118.885 Y109.632 E21.72912
G1 X119.2 Y109.665 E21.74386
G1 X119.46 Y109.696 E21.75606
G1 X119.881 Y109.757 E21.77586
G1 X120.255 Y109.821 E21.79353
G1 X120.837 Y109.942 E21.82121
G1 X121.229 Y110.038 E21.84001
G1 X121.488 Y110.108 E21.8525
G1 X121.879 Y110.221 E21.87145
G1 X122.253 Y110.342 E21.88975
G1 X122.505 Y110.428 E21.90215
G1 X122.949 Y110.594 E21.92422
G1 X123.35 Y110.76 E21.94443
G1 X123.585 Y110.862 E21.95636
G1 X123.957 Y111.035 E21.97547
G1 X124.268 Y111.19 E21.99165
G1 X124.49 Y111.306 E22.00331
G1 X124.824 Y111.49 E22.02107
G1 X125.036 Y111.613 E22.03248
G1 X125.354 Y111.806 E22.0498
G1 X125.684 Y112.017 E22.06804
G1 X125.991 Y112.227 E22.08536
G1 X126.273 Y112.427 E22.10146
G1 X126.595 Y112.669 E22.12021
G1 X126.853 Y112.875 E22.13559
G1 X127.25 Y113.209 E22.15974
G1 X127.519 Y113.451 E22.17659
G1 X127.769 Y113.686 E22.19257
G1 X128.013 Y113.926 E22.20851
G1 X128.28 Y114.203 E22.22642
G1 X128.45 Y114.385 E22.23802
G1 X128.636 Y114.593 E22.25101
G1 X128.999 Y115.023 E22.27721
G1 X129.363 Y115.49 E22.30478
G1 X129.599 Y115.817 E22.32356
G1 X129.858 Y116.195 E22.3449
G1 X129.991 Y116.403 E22.35639
G1 X130.141 Y116.642 E22.36953
G1 X130.317 Y116.941 E22.38569
G1 X130.437 Y117.25 E22.40112
G1 X130.468 Y117.482 E22.41202
G1 X130.446 Y117.718 E22.42306
G1 X130.374 Y117.943 E22.43406
G1 X130.216 Y118.231 E22.44936
G1 X130.054 Y118.498 E22.4639
G1 X129.872 Y118.786 E22.47976
G1 X129.628 Y119.144 E22.49994
G1 X129.415 Y119.439 E22.51688
G1 X129.182 Y119.747 E22.53486
G1 X129.003 Y119.972 E22.54825
G1 X128.708 Y120.324 E22.56964
G1 X128.384 Y120.687 E22.59229
G1 X128.144 Y120.94 E22.60853
G1 X127.872 Y121.215 E22.62654
G1 X127.432 Y121.629 E22.65467
G1 X127.096 Y121.925 E22.67552
G1 X126.776 Y122.188 E22.69481
G1 X126.486 Y122.414 E22.71193
G1 X126.186 Y122.637 E22.72934
G1 X125.902 Y122.837 E22.74551
G1 X125.682 Y122.984 E22.75783
G1 X125.373 Y123.184 E22.77497
G1 X124.94 Y123.444 E22.79849
G1 X124.618 Y123.625 E22.81569
G1 X124.145 Y123.87 E22.84049
G1 X123.917 Y123.984 E22.85236
G1 X123.597 Y124.132 E22.86878
G1 X123.332 Y124.249 E22.88227
G1 X123.005 Y124.383 E22.89872
G1 X122.762 Y124.477 E22.91086
G1 X122.434 Y124.597 E22.92712
G1 X122.11 Y124.707 E22.94305
G1 X121.813 Y124.799 E22.95753
G1 X121.488 Y124.893 E22.97328
G1 X121.02 Y125.014 E22.99579
G1 X120.573 Y125.115 E23.01713
G1 X120.223 Y125.185 E23.03375
G1 X119.884 Y125.243 E23.04976
G1 X119.439 Y125.307 E23.0707
G1 X118.938 Y125.365 E23.09418
G1 X118.441 Y125.402 E23.11739
G1 X118.12 Y125.417 E23.13235
G1 X117.8 Y125.427 E23.14726
G1 X117.485 Y125.429 E23.16193
G0 F6000 X117.487 Y124.989
G0 X117.495 Y124.639
;TYPE:SKIN
G1 F1200 X117.194 Y124.633 E23.17595
G1 X116.852 Y124.62 E23.19188
G1 X114.683 Y124.486 E23.29307
G1 X113.259 Y124.402 E23.3595
G1 X112.881 Y124.377 E23.37714
G1 X112.623 Y124.36 E23.38918
G1 X112.169 Y124.334 E23.41035
G1 X110.466 Y124.228 E23.4898
G1 X110.001 Y124.201 E23.51149
G1 X109.73 Y124.183 E23.52414
G1 X109.259 Y124.156 E23.54611
G1 X108.988 Y124.138 E23.55875
G1 X107.748 Y124.064 E23.6166
G1 X106.709 Y123.999 E23.66507
G1 X106.214 Y123.971 E23.68816
G1 X93.368 Y123.187 E24.28743
G1 X93.071 Y123.127 E24.30154
G1 X92.792 Y122.937 E24.31726
G1 X92.673 Y122.739 E24.32802
G1 X92.607 Y122.49 E24.34001
G1 X92.599 Y122.129 E24.35683
G1 X92.598 Y120.52 E24.43175
G1 X92.886 Y120.785 E24.44997
G1 X93.202 Y121.018 E24.46825
G1 X93.552 Y121.213 E24.48691
G1 X93.919 Y121.364 E24.50539
G1 X94.287 Y121.465 E24.52316
G1 X94.7 Y121.527 E24.5426
G1 X95.05 Y121.544 E24.55892
G1 X95.392 Y121.537 E24.57485
G1 X95.773 Y121.493 E24.59271
G1 X96.151 Y121.405 E24.61078
G1 X96.565 Y121.246 E24.63143
G1 X96.947 Y121.018 E24.65215
G1 X97.278 Y120.729 E24.67261
G1 X97.554 Y120.381 E24.69329
G1 X97.813 Y119.871 E24.71992
G1 X97.871 Y119.174 E24.75249
G1 X97.455 Y118.487 E24.78989
G1 X96.851 Y118.125 E24.82268
G1 X96.15 Y118.025 E24.85565
G1 X95.453 Y118.274 E24.89011
G1 X95.197 Y118.535 E24.90714
G1 X94.939 Y118.543 E24.91916
G1 X94.808 Y118.481 E24.9259
G1 X94.706 Y118.367 E24.93303
G1 X94.622 Y118.143 E24.94417
G1 X94.564 Y117.742 E24.96303
G1 X94.553 Y117.466 E24.97589
G1 X94.559 Y117.242 E24.98633
G1 X94.613 Y116.814 E25.00642
G1 X94.754 Y116.501 E25.0224
G1 X94.858 Y116.417 E25.02863
G1 X95.057 Y116.38 E25.03805
G1 X95.187 Y116.452 E25.04497
G1 X95.433 Y116.604 E25.05844
G1 X95.864 Y116.814 E25.08076
G1 X96.569 Y116.918 E25.11394
G1 X97.295 Y116.593 E25.15098
G1 X97.51 Y116.295 E25.16809
G1 X98.087 Y116.533 E25.19716
G1 X98.633 Y116.52 E25.22259
G1 X98.8 Y116.495 E25.23045
G1 X98.796 Y116.557 E25.23334
G1 X98.794 Y116.89 E25.24885
G1 X98.802 Y117.201 E25.26334
G1 X98.8 Y118.498 E25.32373
G1 X98.797 Y118.841 E25.3397
G1 X98.809 Y119.47 E25.369
G1 X98.758 Y120.091 E25.39801
G1 X98.955 Y120.835 E25.43385
G1 X99.61 Y121.309 E25.4715
G1 X100.279 Y121.415 E25.50304
G1 X100.815 Y121.313 E25.52844
G1 X101.408 Y120.893 E25.56228
G1 X101.693 Y120.235 E25.59567
G1 X101.738 Y119.74 E25.61881
G1 X101.718 Y119.151 E25.64625
G1 X101.717 Y118.916 E25.6572
G1 X101.721 Y118.296 E25.68607
G1 X101.72 Y116.902 E25.75098
G1 X101.722 Y116.498 E25.76979
G1 X101.765 Y116.5 E25.7718
G1 X102.128 Y116.49 E25.7887
G1 X102.592 Y116.427 E25.81051
G1 X103.101 Y116.178 E25.83689
G1 X103.201 Y116.324 E25.84513
G1 X103.555 Y116.54 E25.86444
G1 X103.467 Y116.693 E25.87266
G1 X103.369 Y117.379 E25.90493
G1 X103.63 Y118.131 E25.94199
G1 X103.815 Y118.25 E25.95224
G1 X103.607 Y118.281 E25.96203
G1 X102.978 Y118.72 E25.99775
G1 X102.695 Y119.458 E26.03455
G1 X102.768 Y120.16 E26.06742
G1 X103.063 Y120.723 E26.09701
G1 X103.497 Y121.112 E26.12415
G1 X103.924 Y121.326 E26.14639
G1 X104.174 Y121.411 E26.15869
G1 X104.581 Y121.503 E26.17812
G1 X104.968 Y121.541 E26.19622
G1 X105.312 Y121.547 E26.21224
G1 X105.712 Y121.522 E26.23091
G1 X106.092 Y121.45 E26.24891
G1 X106.511 Y121.311 E26.26947
G1 X106.916 Y121.097 E26.2908
G1 X107.276 Y120.819 E26.31198
G1 X107.582 Y120.49 E26.3329
G1 X107.697 Y120.32 E26.34246
G1 X107.871 Y120.809 E26.36663
G1 X108.432 Y121.325 E26.40212
G1 X109.112 Y121.412 E26.43404
G1 X109.573 Y121.366 E26.45561
G1 X109.825 Y121.365 E26.46735
G1 X110.138 Y121.374 E26.48193
G1 X110.468 Y121.372 E26.49729
G1 X110.764 Y121.359 E26.51109
G1 X111.116 Y121.327 E26.52755
G1 X111.449 Y121.271 E26.54327
G1 X111.823 Y121.177 E26.56123
G1 X112.23 Y121.012 E26.58168
G1 X112.539 Y120.834 E26.59828
G1 X112.631 Y121.009 E26.60749
G1 X112.905 Y121.322 E26.62686
G1 X113.295 Y121.611 E26.64946
G1 X113.787 Y121.805 E26.67409
G1 X114.315 Y121.864 E26.69883
G1 X114.835 Y121.78 E26.72336
G1 X115.316 Y121.566 E26.74787
G1 X115.682 Y121.267 E26.76988
G1 X115.911 Y121.461 E26.78385
G1 X116.752 Y121.616 E26.82367
G1 X117.43 Y121.256 E26.85942
G1 X117.603 Y121.047 E26.87205
G1 X117.778 Y121.272 E26.88532
G1 X118.429 Y121.597 E26.9192
G1 X119.22 Y121.542 E26.95612
G1 X119.874 Y121.123 E26.99229
G1 X120.185 Y120.443 E27.02711
G1 X120.154 Y119.752 E27.05932
G1 X119.948 Y119.255 E27.08437
G1 X119.685 Y118.835 E27.10744
G1 X119.483 Y118.469 E27.12691
G1 X119.319 Y118.21 E27.14118
G1 X119.348 Y118.145 E27.1445
G1 X119.539 Y117.844 E27.1611
G1 X119.582 Y117.77 E27.16508
G1 X119.638 Y117.9 E27.17167
G1 X120.12 Y119.178 E27.23527
G1 X120.259 Y119.57 E27.25464
G1 X120.387 Y119.886 E27.27052
G1 X120.53 Y120.198 E27.2865
G1 X120.453 Y120.371 E27.29532
G1 X120.327 Y120.651 E27.30961
G1 X120.195 Y121.012 E27.32751
G1 X120.125 Y121.129 E27.33386
G1 X119.993 Y121.189 E27.34061
G1 X119.665 Y121.275 E27.3564
G1 X119.02 Y121.665 E27.3915
G1 X118.765 Y122.443 E27.42962
G1 X118.891 Y123.125 E27.46192
G1 X119.253 Y123.713 E27.49407
G1 X119.899 Y124.084 E27.52876
G1 X120.531 Y124.11 E27.55821
G1 X120.963 Y124.023 E27.57873
G1 X121.326 Y123.9 E27.59658
G1 X121.717 Y123.708 E27.61686
G1 X122.099 Y123.405 E27.63956
G1 X122.399 Y123.038 E27.66164
G1 X122.593 Y122.701 E27.67974
G1 X122.75 Y122.367 E27.69693
G1 X122.864 Y122.091 E27.71083
G1 X123.111 Y121.465 E27.74217
G1 X123.283 Y121.011 E27.76477
G1 X123.74 Y119.737 E27.8278
G1 X123.691 Y120.081 E27.84398
G1 X123.814 Y120.689 E27.87286
G1 X124.255 Y121.337 E27.90936
G1 X124.939 Y121.587 E27.94327
G1 X125.405 Y121.585 E27.96497
G1 X125.711 Y121.567 E27.97924
G1 X125.959 Y121.566 E27.99079
G1 X126.28 Y121.572 E28.00574
G1 X125.947 Y121.831 E28.02539
G1 X125.766 Y121.966 E28.0359
G1 X125.459 Y122.182 E28.05338
G1 X125.245 Y122.326 E28.06539
G1 X124.96 Y122.51 E28.08119
G1 X124.553 Y122.755 E28.10331
G1 X124.237 Y122.932 E28.12017
G1 X123.789 Y123.164 E28.14366
G1 X123.571 Y123.273 E28.15501
G1 X123.274 Y123.41 E28.17024
G1 X123.022 Y123.522 E28.18308
G1 X122.709 Y123.65 E28.19883
G1 X122.487 Y123.736 E28.20992
G1 X122.139 Y123.863 E28.22716
G1 X121.861 Y123.957 E28.24083
G1 X121.585 Y124.043 E28.25429
G1 X121.285 Y124.13 E28.26884
G1 X120.835 Y124.246 E28.29047
G1 X120.399 Y124.345 E28.31129
G1 X120.083 Y124.408 E28.3263
G1 X119.772 Y124.461 E28.34099
G1 X119.337 Y124.523 E28.36145
G1 X118.834 Y124.582 E28.38503
G1 X118.456 Y124.61 E28.40268
G1 X118.083 Y124.627 E28.42007
G1 X117.776 Y124.637 E28.43437
G1 X117.495 Y124.639 E28.44745
G0 F6000 X117.49 Y124.918
G0 X120.114 Y124.625
G0 X121.931 Y124.165
G0 X123.669 Y123.47
G0 X125.378 Y122.494
G0 X126.739 Y121.474
G0 X124.395 Y121.157
G0 X124.335 Y118.899
G0 X125.153 Y117.734
G0 X124.33 Y117.449
G0 X123.723 Y118.949
G0 X123.986 Y119.043
G1 F1200 X124.25 Y118.299 E28.48421
G1 X124.427 Y117.76 E28.51063
G1 X124.442 Y117.723 E28.51249
G1 X124.806 Y117.876 E28.53088
G1 X124.481 Y118.33 E28.55687
G1 X124.334 Y118.526 E28.56828
G1 X124.152 Y118.776 E28.58268
G1 X123.986 Y119.043 E28.59732
G0 F6000 X123.723 Y118.949
G0 X124.33 Y117.449
G0 X125.153 Y117.734
G0 X124.02 Y119.476
G0 X124.427 Y120.431
G0 X125.093 Y121.371
G0 X126.815 Y121.379
G0 X125.665 Y122.379
G0 X125.412 Y122.018
G1 F1200 X125.14 Y121.746 E28.61523
G0 F6000 X125.073 Y122.244
G1 F1200 X124.382 Y121.554 E28.6607
G0 F6000 X123.835 Y121.007
G1 F1200 X123.554 Y120.725 E28.67924
G0 F6000 X123.404 Y121.141
G1 F1200 X124.725 Y122.463 E28.76626
G0 F6000 X124.37 Y122.673
G1 F1200 X123.248 Y121.55 E28.84018
G0 F6000 X123.087 Y121.956
G1 F1200 X124.003 Y122.871 E28.90047
G0 F6000 X123.629 Y123.064
G1 F1200 X122.925 Y122.359 E28.94686
G0 F6000 X122.747 Y122.747
G1 F1200 X123.245 Y123.245 E28.97966
G0 F6000 X122.852 Y123.417
G1 F1200 X122.542 Y123.107 E29.00007
G0 F6000 X122.29 Y123.421
G1 F1200 X122.448 Y123.58 E29.01051
G0 F6000 X122.606 Y123.99
G0 X119.844 Y124.732
G0 X119.771 Y124.296
G1 F1200 X119.53 Y124.056 E29.02634
G0 F6000 X119.276 Y124.368
G1 F1200 X116.671 Y121.763 E29.19789
G0 F6000 X117.091 Y121.616
G1 F1200 X118.866 Y123.392 E29.31481
G0 F6000 X118.629 Y122.589
G1 F1200 X117.461 Y121.42 E29.39176
G0 F6000 X118.333 Y121.727
G1 F1200 X118.708 Y122.102 E29.41645
G0 F6000 X119.126 Y122.24
G0 X119.961 Y123.868
G0 X122.397 Y122.6
G0 X124.33 Y117.449
G0 X125.153 Y117.734
G0 X124.02 Y120.603
G0 X126.573 Y121.353
G0 X125.585 Y122.361
G0 X123.887 Y123.36
G0 X122.25 Y124.056
G0 X120.791 Y124.462
G0 X118.801 Y124.864
G0 X118.769 Y124.426
G1 F1200 X115.978 Y121.635 E29.60024
G0 F6000 X115.445 Y121.667
G1 F1200 X118.236 Y124.458 E29.78403
G0 F6000 X117.688 Y124.476
G1 F1200 X115.064 Y121.852 E29.95683
G0 F6000 X114.622 Y121.976
G1 F1200 X117.115 Y124.469 E30.121
G0 F6000 X116.517 Y124.437
G1 F1200 X114.078 Y121.998 E30.28161
G0 F6000 X113.299 Y121.784
G1 F1200 X115.915 Y124.4 E30.45388
G0 F6000 X115.312 Y124.363
G1 F1200 X112.161 Y121.212 E30.66138
G0 F6000 X111.744 Y121.361
G1 F1200 X114.708 Y124.325 E30.85656
G0 F6000 X114.107 Y124.29
G1 F1200 X111.278 Y121.461 E31.04286
G0 F6000 X110.771 Y121.519
G1 F1200 X113.506 Y124.254 E31.22296
G0 F6000 X112.903 Y124.216
G1 F1200 X110.219 Y121.533 E31.39967
G0 F6000 X109.646 Y121.525
G1 F1200 X112.3 Y124.179 E31.57444
G0 F6000 X111.697 Y124.142
G1 F1200 X109.124 Y121.57 E31.74385
G0 F6000 X108.48 Y121.49
G1 F1200 X111.094 Y124.105 E31.91602
G0 F6000 X110.491 Y124.067
G1 F1200 X107.371 Y120.947 E32.12147
G0 F6000 X107.051 Y121.193
G1 F1200 X109.889 Y124.031 E32.30836
G0 F6000 X109.288 Y123.996
G1 F1200 X106.69 Y121.398 E32.47944
G0 F6000 X106.281 Y121.555
G1 F1200 X108.684 Y123.957 E32.63765
G0 F6000 X108.082 Y123.921
G1 F1200 X105.824 Y121.663 E32.78635
G0 F6000 X105.301 Y121.706
G1 F1200 X107.48 Y123.885 E32.92984
G0 F6000 X106.877 Y123.847
G1 F1200 X104.704 Y121.675 E33.0729
G0 F6000 X103.975 Y121.512
G1 F1200 X106.276 Y123.812 E33.22439
G0 F6000 X105.674 Y123.776
G1 F1200 X101.876 Y119.978 E33.4745
G0 F6000 X101.776 Y120.443
G1 F1200 X105.071 Y123.739 E33.69151
G0 F6000 X104.469 Y123.702
G1 F1200 X101.604 Y120.838 E33.88014
G0 F6000 X101.339 Y121.137
G1 F1200 X103.866 Y123.665 E34.04658
G0 F6000 X103.264 Y123.629
G1 F1200 X101.007 Y121.372 E34.19521
G0 F6000 X100.588 Y121.519
G1 F1200 X102.662 Y123.592 E34.33175
G0 F6000 X102.06 Y123.556
G1 F1200 X100.042 Y121.538 E34.46464
G0 F6000 X100.11 Y121.106
G0 X99.268 Y120.717
G0 X99.011 Y121.072
G1 F1200 X101.457 Y123.519 E34.62575
G0 F6000 X100.855 Y123.482
G1 F1200 X97.739 Y120.367 E34.83091
G0 F6000 X97.505 Y120.698
G1 F1200 X100.252 Y123.445 E35.0118
G0 F6000 X99.65 Y123.409
G1 F1200 X97.227 Y120.986 E35.17136
G0 F6000 X96.905 Y121.229
G1 F1200 X99.047 Y123.372 E35.31245
G0 F6000 X98.445 Y123.335
G1 F1200 X96.537 Y121.427 E35.4381
G0 F6000 X96.12 Y121.576
G1 F1200 X97.843 Y123.298 E35.55152
G0 F6000 X97.24 Y123.262
G1 F1200 X95.646 Y121.667 E35.65653
G0 F6000 X95.115 Y121.702
G1 F1200 X96.638 Y123.225 E35.75682
G0 F6000 X96.035 Y123.188
G1 F1200 X94.505 Y121.658 E35.85757
G0 F6000 X93.747 Y121.466
G1 F1200 X95.433 Y123.151 E35.96856
G0 F6000 X94.83 Y123.115
G1 F1200 X92.757 Y121.041 E36.10511
G0 F6000 X92.758 Y121.608
G1 F1200 X94.228 Y123.078 E36.20191
G0 F6000 X93.625 Y123.041
G1 F1200 X92.759 Y122.175 E36.25894
G0 F6000 X92.32 Y122.184
G0 X92.407 Y119.963
G0 X94.132 Y120.747
G0 X95.06 Y120.893
G0 X95.958 Y120.782
G0 X96.563 Y120.489
G0 X97.004 Y120.027
G0 X97.175 Y119.689
G0 X97.203 Y119.331
G0 X96.982 Y118.963
G0 X96.665 Y118.774
G0 X95.47 Y118.656
G0 X95.155 Y118.348
G1 F1200 X94.755 Y117.948 E36.28528
G0 F6000 X94.715 Y117.342
G1 F1200 X95.47 Y118.097 E36.335
G0 F6000 X95.886 Y117.948
G1 F1200 X94.776 Y116.838 E36.40809
G0 F6000 X95.078 Y116.574
G1 F1200 X96.402 Y117.898 E36.49528
G0 F6000 X97.242 Y118.172
G1 F1200 X96.075 Y117.005 E36.57213
G0 F6000 X96.678 Y117.043
G1 F1200 X98.639 Y119.004 E36.70126
G0 F6000 X98.64 Y118.439
G1 F1200 X97.07 Y116.869 E36.80465
G0 F6000 X97.436 Y116.669
G1 F1200 X98.641 Y117.874 E36.884
G0 F6000 X98.642 Y117.309
G1 F1200 X98.003 Y116.671 E36.92605
G0 F6000 X98.578 Y116.68
G1 F1200 X98.635 Y116.736 E36.92977
G0 F6000 X99.074 Y116.739
G0 X99.022 Y116.269
G0 X97.48 Y115.993
G0 X95.54 Y116.411
G0 X95.127 Y116.17
G0 X94.756 Y116.219
G0 X94.396 Y116.779
G0 X94.346 Y117.766
G0 X94.514 Y118.48
G0 X94.88 Y118.757
G0 X96.249 Y118.695
G0 X97.397 Y118.931
G0 X97.774 Y118.704
G1 F1200 X98.641 Y119.571 E36.98686
G0 F6000 X98.598 Y120.094
G1 F1200 X98.004 Y119.5 E37.02598
G0 F6000 X97.93 Y119.991
G1 F1200 X98.796 Y120.858 E37.08304
G0 F6000 X99.194 Y120.671
G0 X100.269 Y120.753
G0 X100.554 Y120.699
G0 X100.82 Y120.511
G0 X101.447 Y119.437
G0 X101.887 Y119.423
G1 F1200 X102.605 Y120.141 E37.13032
G0 F6000 X102.54 Y119.51
G1 F1200 X101.876 Y118.846 E37.17405
G0 F6000 X101.88 Y118.285
G1 F1200 X102.669 Y119.074 E37.226
G0 F6000 X102.826 Y118.665
G1 F1200 X101.88 Y117.719 E37.2883
G0 F6000 X101.879 Y117.153
G1 F1200 X103.137 Y118.411 E37.37114
G0 F6000 X103.47 Y118.178
G1 F1200 X101.947 Y116.654 E37.47146
G0 F6000 X102.463 Y116.605
G1 F1200 X103.211 Y117.353 E37.52072
G0 F6000 X103.282 Y116.858
G1 F1200 X102.885 Y116.461 E37.54686
G0 F6000 X103.2 Y115.928
;TYPE:SKIN
G1 F1200 X103.143 Y115.871 E37.54874
G0 F6000 X103.144 Y115.832
G0 X103.837 Y116.468
G0 X104.063 Y118.077
G0 X104.013 Y118.155
G1 F1200 X104.274 Y118.416 E37.55733
G0 F6000 X104.482 Y118.342
G1 F1200 X104.627 Y118.486 E37.56209
G0 F6000 X104.842 Y118.418
G1 F1200 X105.201 Y118.778 E37.57393
G0 F6000 X105.17 Y118.818
G0 X104.031 Y118.5
G0 X104.025 Y118.45
G1 F1200 X103.963 Y118.388 E37.57597
G0 F6000 X103.98 Y118.508
G0 X103.517 Y119.141
G0 X103.36 Y119.546
G0 X103.402 Y119.968
G0 X103.585 Y120.315
G0 X103.867 Y120.569
G0 X104.352 Y120.784
G0 X105.297 Y120.896
G0 X105.928 Y120.819
G0 X107.564 Y120.02
G0 X107.603 Y120.048
G1 F1200 X107.697 Y120.142 E37.57907
G0 F6000 X107.876 Y120.038
G1 F1200 X107.696 Y119.858 E37.58499
G0 F6000 X107.852 Y119.732
G1 F1200 X107.785 Y119.665 E37.5872
G0 F6000 X107.823 Y119.66
G0 X108.431 Y120.439
G0 X108.722 Y120.704
G0 X109.123 Y120.757
G0 X111.034 Y120.68
G0 X113.11 Y120.506
G0 X113.348 Y120.84
G0 X113.614 Y121.036
G0 X113.946 Y121.167
G0 X114.229 Y121.198
G0 X115.649 Y120.914
G0 X115.614 Y120.988
G1 F1200 X115.672 Y121.046 E37.58911
G0 F6000 X115.748 Y120.957
G0 X116.647 Y120.933
G0 X117.986 Y120.478
G0 X118.202 Y120.754
G0 X118.563 Y120.935
G0 X119.007 Y120.903
G0 X119.361 Y120.677
G0 X119.527 Y120.315
G0 X119.509 Y119.896
G0 X118.794 Y118.55
G0 X119.434 Y117.47
G0 X119.474 Y117.494
G1 F1200 X119.573 Y117.593 E37.59237
G0 F6000 X119.687 Y117.424
G1 F1200 X119.579 Y117.316 E37.59592
G0 F6000 X119.617 Y117.266
G0 X119.972 Y115.956
G0 X120.288 Y115.686
G0 X120.721 Y115.644
G0 X121.127 Y115.778
G0 X122.29 Y117.139
G0 X122.626 Y116.23
G0 X122.826 Y115.927
G0 X123.18 Y115.658
G0 X123.583 Y115.666
G0 X123.95 Y115.933
G0 X124.15 Y116.308
G0 X123.65 Y119.154
G0 X123.695 Y119.17
G1 F1200 X124.029 Y119.503 E37.6069
G0 F6000 X123.819 Y119.576
G1 F1200 X123.621 Y119.378 E37.61342
G0 F6000 X123.577 Y119.362
G0 X124.33 Y117.449
G0 X125.153 Y117.734
G0 X125.147 Y117.793
G1 F1200 X125.044 Y117.69 E37.61682
G0 F6000 X125.05 Y117.642
G0 X124.402 Y119.704
G0 X124.353 Y120.061
G0 X124.427 Y120.431
G0 X124.676 Y120.797
G0 X126.434 Y121.293
G0 X126.434 Y121.343
G1 F1200 X126.653 Y121.562 E37.62403
G0 F6000 X126.806 Y121.432
G1 F1200 X126.716 Y121.342 E37.62699
G1 F2700 E32.62699
G0 F6000 X126.717 Y121.292
G0 X124.395 Y121.157
G0 X124.335 Y118.899
G0 X125.153 Y117.734
G0 X124.33 Y117.449
G0 X121.861 Y122.668
G0 X121.368 Y123.154
G0 X120.794 Y123.393
G0 X120.479 Y123.455
G0 X120.085 Y123.439
G0 X119.721 Y123.23
G0 X119.509 Y122.887
G0 X119.437 Y122.489
G0 X119.565 Y122.099
G0 X120.851 Y121.108
G0 X120.736 Y120.122
G0 X119.613 Y117.326
G0 X119.082 Y118.207
G0 X119.964 Y120.401
G0 X119.58 Y121.069
G0 X117.846 Y121.015
G0 X117.603 Y120.721
G0 X117.366 Y121
G0 X114.972 Y121.007
G0 X114.648 Y121.151
G0 X114.297 Y121.206
G0 X113.946 Y121.167
G0 X112.611 Y120.528
G0 X112.131 Y120.836
G0 X108.059 Y120.684
G0 X107.811 Y119.719
G0 X106.253 Y120.71
G0 X105.629 Y120.874
G0 X104.684 Y120.859
G0 X103.22 Y120.558
G0 X103.158 Y118.86
G0 X105.317 Y118.821
G0 X105.083 Y118.491
G0 X103.593 Y117.358
G0 X103.837 Y116.468
G0 X103.148 Y115.892
G0 X101.516 Y116.283
G0 X101.341 Y120.499
G0 X100.269 Y120.753
G0 X99.866 Y120.689
G0 X98.979 Y120.072
G0 X99.02 Y118.5
G0 X99.022 Y116.269
G0 X97.48 Y115.993
G0 X95.54 Y116.411
G0 X95.127 Y116.17
G0 X94.756 Y116.219
G0 X94.396 Y116.779
G0 X94.346 Y117.766
G0 X94.514 Y118.48
G0 X94.88 Y118.757
G0 X97.297 Y118.647
G0 X97.288 Y120.373
G0 X95.661 Y120.851
G0 X94.766 Y120.879
G0 X94.407 Y120.805
G0 X92.721 Y120.231
G0 X92.606 Y120.324
G1 F2700 E37.62699
G1 F1200 X92.367 Y120.086 E37.63484
G0 F6000 X92.367 Y120.369
G1 F1200 X92.408 Y120.41 E37.63619
G0 F6000 X92.318 Y120.409
G0 X92.231 Y117.126
G0 X92.356 Y116.307
G0 X92.799 Y114.615
G0 X92.598 Y114.421
;TYPE:SKIN
G1 F1200 X92.597 Y112.666 E37.71791
G1 X92.62 Y112.443 E37.72835
G1 X92.702 Y112.198 E37.74038
G1 X92.917 Y111.95 E37.75567
G1 X93.158 Y111.844 E37.76792
G1 X93.358 Y111.814 E37.77734
G1 X116.841 Y110.382 E38.87284
G1 X117.14 Y110.369 E38.88678
G1 X117.425 Y110.362 E38.90005
G1 X117.837 Y110.365 E38.91924
G1 X118.121 Y110.373 E38.93246
G1 X118.545 Y110.396 E38.95224
G1 X118.81 Y110.419 E38.96462
G1 X119.112 Y110.451 E38.97876
G1 X119.357 Y110.48 E38.99025
G1 X119.768 Y110.539 E39.00959
G1 X120.094 Y110.595 E39.02499
G1 X120.685 Y110.718 E39.0531
G1 X121.037 Y110.803 E39.06996
G1 X121.271 Y110.867 E39.08126
G1 X121.642 Y110.975 E39.09925
G1 X121.998 Y111.09 E39.11667
G1 X122.244 Y111.174 E39.12877
G1 X122.647 Y111.325 E39.14881
G1 X123.048 Y111.49 E39.169
G1 X123.256 Y111.58 E39.17956
G1 X123.614 Y111.747 E39.19795
G1 X123.905 Y111.892 E39.21309
G1 X124.12 Y112.004 E39.22438
G1 X124.427 Y112.173 E39.2407
G1 X124.625 Y112.288 E39.25136
G1 X124.936 Y112.477 E39.2683
G1 X125.243 Y112.673 E39.28526
G1 X125.539 Y112.875 E39.30195
G1 X125.799 Y113.059 E39.31678
G1 X126.101 Y113.286 E39.33437
G1 X126.355 Y113.489 E39.34951
G1 X126.731 Y113.805 E39.37238
G1 X126.984 Y114.033 E39.38824
G1 X127.219 Y114.251 E39.40317
G1 X127.444 Y114.475 E39.41795
G1 X127.707 Y114.748 E39.4356
G1 X128.028 Y115.099 E39.45775
G1 X127.875 Y115.025 E39.46567
G1 X127.386 Y114.99 E39.48849
G1 X126.965 Y114.996 E39.5081
G1 X125.918 Y114.993 E39.55685
G1 X125.558 Y114.988 E39.57362
G1 X125.189 Y115.002 E39.59081
G1 X124.663 Y115.094 E39.61568
G1 X124.258 Y115.35 E39.63799
G1 X123.802 Y115.016 E39.66431
G1 X122.964 Y115.003 E39.70333
G1 X122.342 Y115.477 E39.73975
G1 X122.057 Y115.913 E39.764
G1 X121.972 Y115.701 E39.77464
G1 X121.477 Y115.209 E39.80713
G1 X120.796 Y114.983 E39.84055
G1 X120.022 Y115.056 E39.87675
G1 X119.674 Y115.352 E39.89802
G1 X118.998 Y114.968 E39.93422
G1 X118.227 Y115.057 E39.97036
G1 X117.701 Y115.423 E40.0002
G1 X117.674 Y115.431 E40.00151
G1 X117.112 Y115.035 E40.03352
G1 X116.344 Y114.985 E40.06936
G1 X115.624 Y115.327 E40.10648
G1 X115.179 Y116.006 E40.14428
G1 X115.209 Y116.761 E40.17946
G1 X115.396 Y117.237 E40.20328
G1 X115.604 Y117.607 E40.22304
G1 X115.72 Y117.804 E40.23369
G1 X115.889 Y118.116 E40.25021
G1 X115.96 Y118.259 E40.25764
G1 X115.768 Y118.571 E40.2747
G1 X115.597 Y118.374 E40.28685
G1 X115.164 Y118.078 E40.31127
G1 X114.66 Y117.904 E40.3361
G1 X114.135 Y117.872 E40.36059
G1 X114.097 Y117.879 E40.36239
G1 X114.11 Y117.49 E40.38051
G1 X114.106 Y117.181 E40.3949
G1 X114.079 Y116.812 E40.41213
G1 X114.027 Y116.443 E40.42948
G1 X113.952 Y116.103 E40.44569
G1 X113.855 Y115.78 E40.4614
G1 X113.703 Y115.405 E40.48024
G1 X113.511 Y115.055 E40.49883
G1 X113.288 Y114.734 E40.51703
G1 X113.025 Y114.442 E40.53533
G1 X112.729 Y114.188 E40.55349
G1 X112.357 Y113.953 E40.57398
G1 X111.961 Y113.787 E40.59397
G1 X111.596 Y113.686 E40.61161
G1 X111.26 Y113.624 E40.62752
G1 X110.906 Y113.584 E40.6441
G1 X110.586 Y113.564 E40.65903
G1 X110.277 Y113.557 E40.67343
G1 X109.746 Y113.56 E40.69815
G1 X109.261 Y113.543 E40.72075
G1 X108.804 Y113.578 E40.74209
G1 X108.193 Y113.798 E40.77233
G1 X107.668 Y114.386 E40.80904
G1 X107.654 Y114.529 E40.81573
G1 X107.54 Y114.337 E40.82612
G1 X107.184 Y113.967 E40.85003
G1 X106.807 Y113.715 E40.87115
G1 X106.387 Y113.538 E40.89237
G1 X105.964 Y113.439 E40.9126
G1 X105.621 Y113.396 E40.9287
G1 X105.28 Y113.381 E40.94459
G1 X104.935 Y113.391 E40.96066
G1 X104.56 Y113.44 E40.97827
G1 X104.197 Y113.528 E40.99566
G1 X103.79 Y113.688 E41.01603
G1 X103.406 Y113.915 E41.0368
G1 X103.314 Y114 E41.04263
G1 X103.249 Y113.875 E41.04919
G1 X102.564 Y113.573 E41.08405
G1 X102.087 Y113.552 E41.10628
G1 X101.724 Y113.56 E41.12319
G1 X100.953 Y113.556 E41.15909
G1 X99.895 Y113.557 E41.20836
G1 X99.6 Y113.555 E41.22209
G1 X99.163 Y113.563 E41.24244
G1 X98.948 Y113.564 E41.25246
G1 X98.361 Y113.516 E41.27988
G1 X97.682 Y113.639 E41.31201
G1 X97.186 Y114.113 E41.34396
G1 X96.911 Y113.892 E41.36039
G1 X96.522 Y113.668 E41.38129
G1 X96.106 Y113.513 E41.40196
G1 X95.705 Y113.424 E41.42109
G1 X95.286 Y113.387 E41.44067
G1 X94.934 Y113.385 E41.45706
G1 X94.529 Y113.422 E41.476
G1 X94.143 Y113.498 E41.49432
G1 X93.762 Y113.625 E41.51302
G1 X93.406 Y113.791 E41.53131
G1 X93.07 Y114.003 E41.54981
G1 X92.759 Y114.252 E41.56836
G1 X92.598 Y114.421 E41.57923
G1 F2700 E36.57923
G0 F6000 X92.799 Y114.615
G0 X94.623 Y114.066
G0 X95.605 Y114.068
G0 X97.682 Y114.541
G0 X97.992 Y114.246
G0 X98.393 Y114.171
G0 X102.413 Y114.218
G0 X103.797 Y114.439
G0 X104.393 Y114.149
G0 X105.277 Y114.031
G0 X106.184 Y114.159
G0 X106.764 Y114.47
G0 X107.018 Y114.734
G0 X107.199 Y115.041
G0 X107.51 Y116.865
G0 X107.82 Y117.706
G0 X108.297 Y114.662
G0 X108.57 Y114.355
G0 X108.942 Y114.219
G0 X110.849 Y114.232
G0 X111.748 Y114.403
G0 X112.342 Y114.712
G0 X112.778 Y115.139
G0 X113.24 Y115.996
G0 X113.865 Y118.132
G0 X115.803 Y118.927
G0 X116.229 Y118.253
G0 X115.855 Y116.625
G0 X115.839 Y116.189
G0 X116.069 Y115.838
G0 X116.472 Y115.647
G0 X118.143 Y115.909
G0 X118.464 Y115.686
G0 X118.86 Y115.64
G0 X120.721 Y115.644
G0 X121.127 Y115.778
G0 X122.29 Y117.139
G0 X122.626 Y116.23
G0 X122.826 Y115.927
G0 X123.18 Y115.658
G0 X123.583 Y115.666
G0 X123.95 Y115.933
G0 X124.917 Y117.686
G0 X124.402 Y119.704
G0 X124.353 Y120.061
G0 X124.427 Y120.431
G0 X124.676 Y120.797
G0 X125.054 Y120.936
G0 X127.594 Y120.911
G0 X127.963 Y120.825
G0 X128.259 Y120.57
G0 X128.383 Y120.157
G0 X128.335 Y119.822
G0 X127.775 Y118.931
G0 X127.871 Y118.668
G1 F2700 E41.57923
G1 F1200 X128.075 Y118.377 E41.59578
G1 X128.414 Y117.903 E41.62291
G1 X128.641 Y117.562 E41.64199
G1 X128.845 Y117.153 E41.66327
G1 X128.957 Y116.625 E41.6884
G1 X128.917 Y116.221 E41.70731
G1 X129.198 Y116.63 E41.73041
G1 X129.463 Y117.049 E41.7535
G1 X129.604 Y117.288 E41.76642
G1 X129.659 Y117.428 E41.77342
G1 X129.642 Y117.634 E41.78305
G1 X129.528 Y117.842 E41.79409
G1 X129.386 Y118.076 E41.80684
G1 X129.219 Y118.341 E41.82142
G1 X128.981 Y118.691 E41.84113
G1 X128.785 Y118.962 E41.85671
G1 X128.661 Y119.126 E41.86628
G1 X128.461 Y118.884 E41.8809
G1 X127.871 Y118.668 E41.91015
G0 F6000 X127.775 Y118.931
G0 X127.521 Y118.819
G0 X128.225 Y116.937
G0 X128.299 Y116.588
G0 X128.263 Y116.213
G0 X128.1 Y115.912
G0 X127.281 Y115.272
G0 X127.276 Y114.831
G1 F1200 X125.46 Y113.015 E42.02974
G0 F6000 X125.714 Y112.657
G0 X124.207 Y111.735
G0 X124.003 Y112.124
G1 F1200 X126.714 Y114.834 E42.20823
G0 F6000 X126.147 Y114.833
G1 F1200 X122.928 Y111.614 E42.42021
G0 F6000 X122.012 Y111.264
G1 F1200 X125.575 Y114.827 E42.65484
G0 F6000 X125.046 Y114.863
G1 F1200 X121.193 Y111.011 E42.90853
G0 F6000 X120.449 Y110.833
G1 F1200 X124.575 Y114.959 E43.18024
G0 F6000 X124.051 Y115
G1 F1200 X119.748 Y110.697 E43.4636
G0 F6000 X119.095 Y110.61
G1 F1200 X123.333 Y114.848 E43.74268
G0 F6000 X122.825 Y114.905
G1 F1200 X118.472 Y110.553 E44.0293
G0 F6000 X117.88 Y110.526
G1 F1200 X122.504 Y115.15 E44.33379
G0 F6000 X122.195 Y115.407
G1 F1200 X117.313 Y110.525 E44.65528
G0 F6000 X116.77 Y110.547
G1 F1200 X121.157 Y114.935 E44.94421
G0 F6000 X120.506 Y114.849
G1 F1200 X116.236 Y110.579 E45.22539
G0 F6000 X115.703 Y110.612
G1 F1200 X119.989 Y114.898 E45.50763
G0 F6000 X119.67 Y115.144
G1 F1200 X115.17 Y110.644 E45.80397
G0 F6000 X114.636 Y110.677
G1 F1200 X118.791 Y114.831 E46.07755
G0 F6000 X118.283 Y114.889
G1 F1200 X114.103 Y110.709 E46.35281
G0 F6000 X113.57 Y110.742
G1 F1200 X117.91 Y115.081 E46.63857
G0 F6000 X117.138 Y114.875
G1 F1200 X113.037 Y110.774 E46.90863
G0 F6000 X112.504 Y110.807
G1 F1200 X116.534 Y114.837 E47.17401
G0 F6000 X116.068 Y114.937
G1 F1200 X111.971 Y110.839 E47.44384
G0 F6000 X111.437 Y110.872
G1 F1200 X115.684 Y115.119 E47.72351
G0 F6000 X115.39 Y115.39
G1 F1200 X110.904 Y110.904 E48.01892
G0 F6000 X110.371 Y110.937
G1 F1200 X115.167 Y115.732 E48.33471
G0 F6000 X115.025 Y116.157
G1 F1200 X109.838 Y110.969 E48.67632
G0 F6000 X109.305 Y111.002
G1 F1200 X111.909 Y113.606 E48.8478
G0 F6000 X111.191 Y113.454
G1 F1200 X108.772 Y111.034 E49.00712
G0 F6000 X108.238 Y111.067
G1 F1200 X110.574 Y113.402 E49.16092
G0 F6000 X110.003 Y113.398
G1 F1200 X107.705 Y111.099 E49.31228
G0 F6000 X107.172 Y111.132
G1 F1200 X109.428 Y113.388 E49.46084
G0 F6000 X108.884 Y113.41
G1 F1200 X106.639 Y111.164 E49.60871
G0 F6000 X106.106 Y111.197
G1 F1200 X108.445 Y113.536 E49.76274
G0 F6000 X108.055 Y113.712
G1 F1200 X105.573 Y111.23 E49.92618
G0 F6000 X105.04 Y111.262
G1 F1200 X107.789 Y114.011 E50.10721
G0 F6000 X108.116 Y114.304
G0 X107.82 Y117.706
G0 X107.429 Y116.973
G0 X107.378 Y114.948
G0 X106.542 Y113.907
G0 X106.713 Y113.501
G1 F1200 X104.506 Y111.295 E50.25251
G0 F6000 X103.973 Y111.327
G1 F1200 X105.917 Y113.271 E50.38053
G0 F6000 X105.301 Y113.221
G1 F1200 X103.44 Y111.36 E50.50308
G0 F6000 X102.907 Y111.392
G1 F1200 X104.764 Y113.25 E50.6254
G0 F6000 X104.288 Y113.339
G1 F1200 X102.374 Y111.425 E50.75144
G0 F6000 X101.841 Y111.457
G1 F1200 X103.867 Y113.484 E50.88489
G0 F6000 X103.494 Y113.676
G1 F1200 X101.307 Y111.49 E51.02887
G0 F6000 X100.774 Y111.522
G1 F1200 X102.717 Y113.465 E51.15682
G0 F6000 X102.077 Y113.391
G1 F1200 X100.24 Y111.554 E51.27779
G0 F6000 X99.707 Y111.587
G1 F1200 X101.518 Y113.398 E51.39705
G0 F6000 X100.95 Y113.395
G1 F1200 X99.174 Y111.619 E51.514
G0 F6000 X98.641 Y111.652
G1 F1200 X100.384 Y113.395 E51.62878
G0 F6000 X99.818 Y113.395
G1 F1200 X98.108 Y111.684 E51.74142
G0 F6000 X97.575 Y111.717
G1 F1200 X99.258 Y113.4 E51.85225
G0 F6000 X98.672 Y113.38
G1 F1200 X97.041 Y111.749 E51.95965
G0 F6000 X96.508 Y111.782
G1 F1200 X98.121 Y113.395 E52.06587
G0 F6000 X97.642 Y113.482
G1 F1200 X95.975 Y111.814 E52.17568
G0 F6000 X95.442 Y111.847
G1 F1200 X97.338 Y113.743 E52.30053
G0 F6000 X96.527 Y113.498
G1 F1200 X94.909 Y111.879 E52.40711
G0 F6000 X94.376 Y111.912
G1 F1200 X95.728 Y113.265 E52.49618
G0 F6000 X95.123 Y113.225
G1 F1200 X93.842 Y111.944 E52.58053
G0 F6000 X93.314 Y111.982
G1 F1200 X94.587 Y113.255 E52.66436
G0 F6000 X94.107 Y113.34
G1 F1200 X92.936 Y112.169 E52.74148
G0 F6000 X92.767 Y112.566
G1 F1200 X93.683 Y113.482 E52.8018
G0 F6000 X93.301 Y113.666
G1 F1200 X92.756 Y113.121 E52.83769
G0 F6000 X92.756 Y113.687
G1 F1200 X92.956 Y113.887 E52.85086
G0 F6000 X93.232 Y114.231
G0 X95.255 Y114.038
G0 X95.921 Y114.138
G0 X97.682 Y114.541
G0 X97.992 Y114.246
G0 X98.393 Y114.171
G0 X102.413 Y114.218
G0 X103.797 Y114.439
G0 X104.393 Y114.149
G0 X105.277 Y114.031
G0 X106.184 Y114.159
G0 X106.764 Y114.47
G0 X107.74 Y115.683
G0 X107.429 Y116.973
G0 X107.82 Y117.706
G0 X108.297 Y114.662
G0 X108.57 Y114.355
G0 X108.942 Y114.219
G0 X110.849 Y114.232
G0 X111.748 Y114.403
G0 X112.228 Y114.653
G0 X113.583 Y115.852
G0 X113.99 Y115.687
G1 F1200 X115.049 Y116.746 E52.92059
G0 F6000 X114.259 Y117.088
G1 F1200 X115.035 Y117.864 E52.97169
G0 F6000 X115.527 Y117.789
G1 F1200 X114.189 Y116.452 E53.05977
G0 F6000 X113.754 Y116.512
G0 X113.825 Y117.643
G0 X114.264 Y117.658
G1 F1200 X114.328 Y117.722 E53.06399
G0 F6000 X114.301 Y118.162
G0 X115.803 Y118.927
G0 X116.71 Y118.184
G0 X115.984 Y116.957
G0 X115.855 Y116.625
G0 X115.839 Y116.189
G0 X116.069 Y115.838
G0 X116.472 Y115.647
G0 X118.143 Y115.909
G0 X118.464 Y115.686
G0 X118.86 Y115.64
G0 X120.721 Y115.644
G0 X121.127 Y115.778
G0 X122.29 Y117.139
G0 X122.626 Y116.23
G0 X122.826 Y115.927
G0 X123.18 Y115.658
G0 X127.703 Y115.666
G0 X128.06 Y115.84
G0 X128.263 Y116.213
G0 X128.299 Y116.588
G0 X127.796 Y118.287
G0 X128.156 Y118.539
G1 F1200 X128.255 Y118.639 E53.07054
G0 F6000 X128.39 Y118.208
G1 F1200 X128.821 Y118.639 E53.09892
G0 F6000 X129.051 Y118.303
G1 F1200 X128.623 Y117.875 E53.1271
G0 F6000 X128.836 Y117.523
G1 F1200 X129.27 Y117.956 E53.15565
G0 F6000 X129.478 Y117.598
G1 F1200 X129.01 Y117.131 E53.18644
G0 F6000 X128.584 Y117.041
G0 X128.627 Y116.102
G0 X128.802 Y116.074
;TYPE:SKIN
G1 F1200 X128.505 Y115.777 E53.19622
G0 F6000 X128.134 Y115.406
G1 F1200 X128.066 Y115.338 E53.19845
G0 F6000 X128.187 Y115.176
G1 F1200 X129.009 Y115.998 E53.22552
G0 F6000 X129.07 Y115.955
G0 X129.878 Y117.387
G0 X129.847 Y117.716
G0 X128.961 Y119.094
G0 X128.665 Y119.457
G0 X127.521 Y118.819
G0 X127.526 Y118.757
G1 F1200 X127.628 Y118.86 E53.22889
G0 F6000 X127.623 Y118.91
G0 X128.322 Y119.742
G0 X128.383 Y120.157
G0 X128.259 Y120.57
G0 X127.963 Y120.825
G0 X127.304 Y120.922
G0 X125.054 Y120.936
G0 X124.676 Y120.797
G0 X124.427 Y120.431
G0 X124.353 Y120.061
G0 X124.402 Y119.704
G0 X125.153 Y117.734
G0 X124.152 Y116.728
G0 X124.15 Y116.308
G0 X123.95 Y115.933
G0 X123.583 Y115.666
G0 X123.221 Y115.659
G0 X122.035 Y116.499
G0 X122.081 Y116.425
G1 F1200 X121.96 Y116.303 E53.23289
G0 F6000 X122.166 Y116.227
G1 F1200 X122.026 Y116.087 E53.2375
G0 F6000 X121.854 Y116.155
G0 X121.127 Y115.778
G0 X120.799 Y115.67
G0 X119.625 Y115.713
G0 X119.641 Y115.681
G1 F1200 X119.597 Y115.638 E53.23894
G0 F6000 X119.554 Y115.662
G0 X118.672 Y115.68
G0 X117.765 Y115.78
G0 X117.727 Y115.747
G1 F1200 X117.579 Y115.599 E53.24381
G0 F6000 X117.499 Y115.66
G0 X115.65 Y115.674
G0 X116.229 Y118.253
G0 X115.803 Y118.927
G0 X113.865 Y118.132
G0 X113.546 Y115.596
G0 X112.055 Y114.532
G0 X111.164 Y114.268
G0 X109.275 Y114.195
G0 X108.942 Y114.219
G0 X108.57 Y114.355
G0 X108.35 Y114.603
G0 X107.921 Y115.508
G0 X107.871 Y115.508
G1 F1200 X107.708 Y115.345 E53.24918
G0 F6000 X107.842 Y115.196
G1 F1200 X107.615 Y114.969 E53.25665
G0 F6000 X107.847 Y114.918
G1 F1200 X107.64 Y114.711 E53.26347
G0 F6000 X107.727 Y115.647
G1 F1200 X107.871 Y115.79 E53.26819
G0 F6000 X107.714 Y115.917
G1 F1200 X107.864 Y116.067 E53.27313
G0 F6000 X107.69 Y116.175
G1 F1200 X107.863 Y116.348 E53.27883
G0 F6000 X107.655 Y116.423
G1 F1200 X107.864 Y116.632 E53.28571
G0 F6000 X107.581 Y116.632
G1 F1200 X107.864 Y116.915 E53.29503
G0 F6000 X107.864 Y117.198
G1 F1200 X107.507 Y116.84 E53.3068
G0 F6000 X107.553 Y117.17
G1 F1200 X107.864 Y117.481 E53.31704
G0 F6000 X107.76 Y117.659
G1 F1200 X107.864 Y117.764 E53.32048
G0 F6000 X107.131 Y116.643
G0 X107.29 Y116.001
G0 X107.289 Y115.37
G0 X107.199 Y115.041
G0 X107.018 Y114.734
G0 X106.496 Y114.291
G0 X105.848 Y114.079
G0 X104.987 Y114.041
G0 X104.393 Y114.149
G0 X103.797 Y114.439
G0 X103.524 Y114.691
G0 X102.528 Y116.215
G0 X101.516 Y116.283
G0 X101.054 Y120.071
G0 X100.883 Y120.466
G0 X100.554 Y120.699
G0 X100.269 Y120.753
G0 X99.866 Y120.689
G0 X99.526 Y120.442
G0 X99.416 Y120.032
G0 X99.473 Y116.09
G0 X97.136 Y115.624
G0 X97.189 Y115.312
G0 X97.043 Y114.916
G0 X96.544 Y114.43
G0 X95.921 Y114.138
G0 X94.961 Y114.036
G0 X94.186 Y114.192
G0 X92.684 Y114.737
G0 X92.645 Y114.706
G1 F1200 X92.513 Y114.575 E53.32481
G0 F6000 X92.367 Y114.712
G1 F1200 X92.522 Y114.867 E53.32991
G0 F6000 X92.562 Y114.898
G0 X92.218 Y115.976
G0 X92.284 Y116.042
G1 F1200 X92.139 Y116.181 E53.33634
G1 X92.094 Y117.833 E53.38921
G1 X92.162 Y118.75 E53.41863
G1 X92.043 Y118.913 E53.42508
G0 F6000 X92.009 Y118.853
G0 X93.301 Y120.282
G0 X93.836 Y120.626
G0 X94.422 Y120.828
G0 X95.346 Y120.887
G0 X95.958 Y120.782
G0 X96.563 Y120.489
G0 X97.004 Y120.027
G0 X97.175 Y119.689
G0 X97.203 Y119.331
G0 X96.982 Y118.963
G0 X96.629 Y118.752
G0 X96.218 Y118.694
G0 X94.413 Y119.015
G0 X93.965 Y117.157
G0 X95.095 Y115.774
G0 X95.102 Y115.749
G1 F1200 X95.143 Y115.79 E53.42643
G0 F6000 X96.06 Y116.185
G0 X96.475 Y116.245
G0 X96.869 Y116.069
G0 X97.069 Y115.793
G0 X97.249 Y115.306
G0 X97.263 Y115.365
G1 F1200 X97.383 Y115.202 E53.43498
G1 X97.484 Y115.021 E53.44373
G0 F6000 X97.509 Y115.071
G0 X97.682 Y114.541
G0 X97.992 Y114.246
G0 X98.393 Y114.171
G0 X102.413 Y114.218
G0 X102.738 Y114.362
G0 X103.043 Y114.898
G0 X103.179 Y115.059
G1 F1200 X103.075 Y115.237 E53.4512
G1 X103.31 Y114.907 E53.46587
G0 F6000 X103.341 Y114.949
G0 X103.422 Y115.492
G0 X103.661 Y115.841
G0 X103.951 Y116.016
G0 X104.458 Y116.067
G0 X104.576 Y116.173
G1 F1200 X104.42 Y116.3 E53.4702
G1 X104.69 Y116.004 E53.47882
G1 X105.148 Y116.179 E53.48937
G0 F6000 X105.171 Y116.192
G0 X104.649 Y116.353
G0 X104.303 Y116.547
G0 X104.095 Y116.91
G0 X104.038 Y117.314
G0 X104.173 Y117.703
G0 X105.047 Y118.084
G0 X105.051 Y118.062
G1 F1200 X105.116 Y118.127 E53.49151
G0 F6000 X105.543 Y119.25
G0 X104.624 Y118.916
G0 X104.252 Y118.844
G0 X103.855 Y118.903
G0 X103.517 Y119.141
G0 X103.36 Y119.546
G0 X103.402 Y119.968
G0 X103.585 Y120.315
G0 X103.867 Y120.569
G0 X104.352 Y120.784
G0 X105.297 Y120.896
G0 X105.928 Y120.819
G0 X106.562 Y120.547
G0 X108.285 Y119.423
G0 X108.299 Y120.071
G0 X108.431 Y120.439
G0 X108.722 Y120.704
G0 X109.123 Y120.757
G0 X111.034 Y120.68
G0 X111.621 Y120.557
G0 X112.637 Y119.992
G0 X112.639 Y119.993
G1 F1200 X112.823 Y119.894 E53.4975
G0 F6000 X112.871 Y119.965
G0 X113.02 Y119.418
G0 X113.402 Y118.773
G0 X113.373 Y118.747
G1 F1200 X113.487 Y118.578 E53.50687
G0 F6000 X113.576 Y118.656
G0 X114.179 Y118.526
G0 X114.532 Y118.548
G0 X114.868 Y118.665
G0 X115.161 Y118.865
G0 X115.626 Y119.556
G0 X115.704 Y119.664
G1 F1200 X115.695 Y119.937 E53.5111
G1 X115.859 Y119.536 E53.51781
G0 F6000 X115.818 Y119.495
G0 X115.751 Y120.175
G0 X115.859 Y120.561
G0 X116.2 Y120.852
G0 X116.647 Y120.933
G0 X116.94 Y120.779
G0 X117.548 Y120.084
G0 X117.526 Y120.071
G1 F1200 X117.584 Y120.13 E53.51974
G0 F6000 X118.202 Y120.754
G0 X118.563 Y120.935
G0 X119.702 Y120.973
G0 X119.294 Y118.581
G0 X119.082 Y118.207
G0 X119.613 Y117.326
G0 X120.754 Y120.246
G0 X120.582 Y121.431
G1 F1200 X120.642 Y121.49 E53.5217
G0 F6000 X120.624 Y121.473
G0 X120.867 Y119.339
G0 X119.909 Y116.752
G0 X119.874 Y116.397
G0 X119.972 Y115.956
G0 X120.288 Y115.686
G0 X120.721 Y115.644
G0 X121.127 Y115.778
G0 X121.361 Y116.012
G0 X122.072 Y117.56
G0 X122.01 Y117.485
G1 F1200 X122.103 Y117.295 E53.53143
G0 F6000 X122.147 Y117.353
G0 X122.626 Y116.23
G0 X122.826 Y115.927
G0 X123.18 Y115.658
G0 X123.583 Y115.666
G0 X123.95 Y115.933
G0 X124.112 Y116.236
G0 X124.183 Y116.816
G0 X124.204 Y116.85
G1 F1200 X124.288 Y116.651 E53.53711
G1 X124.369 Y116.167 E53.55002
G0 F6000 X124.389 Y116.199
G0 X124.427 Y116.746
G0 X124.653 Y117.103
G0 X125.587 Y117.385
G0 X125.682 Y117.479
G1 F1200 X125.864 Y117.379 E53.55831
G0 F6000 X125.833 Y117.374
G0 X125.031 Y117.265
G0 X124.653 Y117.103
G0 X124.427 Y116.746
G0 X124.4 Y116.332
G0 X124.568 Y115.928
G0 X124.903 Y115.713
G0 X125.907 Y115.643
G0 X127.703 Y115.666
G0 X128.06 Y115.84
G0 X128.263 Y116.213
G0 X128.299 Y116.588
G0 X128.225 Y116.937
G0 X126.916 Y118.993
G0 X126.981 Y119.062
G1 F1200 X126.817 Y119.18 E53.56667
G0 F6000 X126.797 Y119.156
G0 X127.676 Y119.29
G0 X128.03 Y119.42
G0 X128.434 Y119.949
G0 X128.531 Y120.046
G1 F1200 X128.452 Y120.25 E53.57004
G1 X127.761 Y120.972 E53.58545
G1 X127.563 Y121.058 E53.58877
G0 F6000 X127.457 Y120.978
G0 X127.963 Y120.825
G0 X128.202 Y120.619
G0 X130.261 Y117.546
G0 X130.275 Y117.548
G1 F1200 X130.208 Y117.48 E53.591
G0 F6000 X128.665 Y119.457
G0 X127.521 Y118.819
G0 X128.225 Y116.937
G0 X128.299 Y116.588
G0 X128.263 Y116.213
G0 X128.06 Y115.84
G0 X127.703 Y115.666
G0 X123.18 Y115.658
G0 X121.633 Y116.715
G0 X121.418 Y116.069
G0 X121.127 Y115.778
G0 X120.721 Y115.644
G0 X120.288 Y115.686
G0 X120.004 Y115.929
G0 X119.828 Y116.717
G1 F1200 X119.781 Y116.669 E53.59256
G0 F6000 X119.64 Y116.528
G1 F1200 X119.744 Y116.35 E53.60824
G0 F6000 X119.818 Y116.45
G0 X119.234 Y115.851
G0 X118.86 Y115.64
G0 X118.464 Y115.686
G0 X117.751 Y116.345
G0 X117.771 Y116.357
G1 F1200 X117.645 Y116.231 E53.61239
G0 F6000 X117.614 Y115.978
G1 F2700 E48.61239
G0 F6000 X116.886 Y115.674
G0 X116.472 Y115.647
G0 X116.069 Y115.838
G0 X115.839 Y116.189
G0 X115.912 Y117.699
G0 X116.229 Y118.253
G0 X115.803 Y118.927
G0 X113.976 Y118.099
G0 X113.312 Y118.488
G0 X111.575 Y118.313
G0 X110.222 Y118.78
;TYPE:WALL-INNER
G1 F2700 E53.61239
G1 F1200 X110.229 Y118.584 E53.62152
G1 X110.229 Y118.53 E53.62404
G1 X110.225 Y118.253 E53.63694
G1 X110.227 Y117.926 E53.65216
G1 X110.227 Y116.198 E53.73263
G1 X110.227 Y116.158 E53.73449
G1 X110.226 Y116.147 E53.735
G1 X110.273 Y116.147 E53.73612
G1 X110.553 Y116.157 E53.74568
G1 X110.592 Y116.161 E53.74738
G1 X110.998 Y116.207 E53.76641
G1 X111.214 Y116.306 E53.77747
G1 X111.389 Y116.59 E53.793
G1 X111.484 Y116.951 E53.81038
G1 X111.519 Y117.401 E53.8314
G1 X111.514 Y117.637 E53.84239
G1 X111.456 Y118.07 E53.86274
G1 X111.407 Y118.246 E53.87124
G1 X111.25 Y118.545 E53.88697
G1 X111.07 Y118.688 E53.89767
G1 X110.702 Y118.764 E53.91517
G1 X110.506 Y118.775 E53.92431
G1 X110.452 Y118.778 E53.92527
G1 X110.222 Y118.78 E53.93146
G0 F6000 X109.884 Y119.167
;TYPE:WALL-OUTER
G1 F1200 X109.829 Y119.081 E53.93621
G1 X109.82 Y118.841 E53.94739
G1 X109.829 Y118.58 E53.95955
G1 X109.825 Y118.251 E53.97487
G1 X109.827 Y117.925 E53.99005
G1 X109.827 Y116.288 E54.06628
G1 X109.825 Y115.996 E54.07988
G1 X109.847 Y115.783 E54.08985
G1 X110.003 Y115.749 E54.09728
G1 X110.284 Y115.747 E54.11037
G1 X110.575 Y115.757 E54.12392
G1 X110.842 Y115.778 E54.1364
G1 X111.089 Y115.817 E54.14804
G1 X111.296 Y115.878 E54.15809
G1 X111.511 Y116.025 E54.17022
G1 X111.751 Y116.415 E54.19154
G1 X111.824 Y116.627 E54.20198
G1 X111.879 Y116.887 E54.21435
G1 X111.908 Y117.131 E54.2258
G1 X111.919 Y117.393 E54.23801
G1 X111.913 Y117.672 E54.251
G1 X111.85 Y118.146 E54.27327
G1 X111.781 Y118.392 E54.28516
G1 X111.575 Y118.786 E54.30587
G1 X111.414 Y118.949 E54.31653
G1 X111.233 Y119.056 E54.32632
G1 X111.009 Y119.125 E54.33724
G1 X110.743 Y119.162 E54.34974
G1 X110.456 Y119.178 E54.36313
G1 X110.198 Y119.18 E54.37514
G1 X109.884 Y119.167 E54.38978
G0 F6000 X110.095 Y118.903
G0 X110.631 Y118.658
G0 X110.617 Y118.378
;TYPE:SKIN
G1 F1200 X110.615 Y118.255 E54.3955
G1 X110.617 Y117.928 E54.41073
G1 X110.616 Y116.557 E54.47457
G1 X110.894 Y116.588 E54.4876
G1 X111.027 Y116.746 E54.49721
G1 X111.099 Y117.019 E54.51036
G1 X111.129 Y117.401 E54.5282
G1 X111.124 Y117.612 E54.53803
G1 X111.074 Y117.986 E54.5556
G1 X110.944 Y118.29 E54.57099
G1 X110.656 Y118.376 E54.58499
G1 X110.617 Y118.378 E54.58681
G0 F6000 X110.946 Y117.734
G1 F1200 X110.776 Y117.564 E54.598
G0 F6000 X110.951 Y117.173
G1 F1200 X110.775 Y116.997 E54.60959
G0 F6000 X111.133 Y116.507
;TYPE:SKIN
G1 F1200 X111.044 Y116.418 E54.61252
G0 F6000 X111.282 Y116.09
G1 F1200 X111.245 Y116.053 E54.61374
G0 F6000 X111.158 Y116.069
G1 F2700 E49.61374
;MESH:NONMESH
G0 F300 X111.158 Y116.069 Z0.56
G0 F6000 X111.135 Y116.143
G0 X111.694 Y117.659
G0 X113.312 Y118.488
G0 X113.488 Y118.775
G0 X113.248 Y118.992
G0 X113.056 Y119.289
G0 X112.946 Y119.627
G0 X112.931 Y119.983
G0 X113.009 Y120.329
G0 X113.348 Y120.84
G0 X113.614 Y121.036
G0 X113.946 Y121.167
G0 X115.201 Y121.377
G0 X115.656 Y120.974
G0 X117.289 Y121.083
G0 X117.603 Y120.721
G0 X119.149 Y121.329
G0 X119.937 Y119.8
G0 X119.082 Y118.207
G0 X119.613 Y117.326
G0 X120.754 Y120.246
G0 X120.277 Y121.299
G0 X118.99 Y122.457
G0 X119.961 Y123.868
G0 X122.397 Y122.6
G0 X124.33 Y117.449
G0 X125.153 Y117.734
G0 X124.02 Y120.603
G0 X126.573 Y121.353
G0 X125.585 Y122.361
G0 X123.887 Y123.36
G0 X122.25 Y124.056
G0 X121.229 Y124.34
G0 X117.462 Y125.229
G0 X117.462 Y125.231
;TIME_ELAPSED:110.528018
;LAYER:1
M106 S85
;TYPE:WALL-INNER
;MESH:3DBenchy.stl
G1 F2700 E54.61374
G1 F1350 X117.057 Y125.223 E54.6326
G1 X116.599 Y125.2 E54.65396
G1 X112.686 Y124.95 E54.83653
G1 X106.058 Y124.534 E55.14577
G1 X105.95 Y124.524 E55.15082
G1 X94.553 Y123.809 E55.68255
G1 X93.173 Y123.722 E55.74694
G1 X92.785 Y123.637 E55.76544
G1 X92.483 Y123.461 E55.78171
G1 X92.245 Y123.181 E55.79882
G1 X92.101 Y122.788 E55.81831
G1 X92.075 Y122.381 E55.8373
G1 X92.075 Y112.507 E56.29708
G1 X92.12 Y112.126 E56.31494
G1 X92.189 Y111.933 E56.32449
G1 X92.382 Y111.633 E56.3411
G1 X92.677 Y111.408 E56.35837
G1 X93.08 Y111.287 E56.37797
G1 X93.333 Y111.269 E56.38978
G1 X109.888 Y110.227 E57.16217
G1 X116.742 Y109.791 E57.48197
G1 X117.053 Y109.778 E57.49646
G1 X117.352 Y109.771 E57.51039
G1 X117.64 Y109.77 E57.5238
G1 X118.029 Y109.778 E57.54192
G1 X118.382 Y109.794 E57.55837
G1 X118.669 Y109.811 E57.57176
G1 X119.099 Y109.852 E57.59187
G1 X119.376 Y109.884 E57.60486
G1 X119.734 Y109.934 E57.62169
G1 X120.074 Y109.99 E57.63773
G1 X120.344 Y110.04 E57.65052
G1 X120.615 Y110.095 E57.66339
G1 X120.891 Y110.156 E57.67656
G1 X121.141 Y110.216 E57.68853
G1 X121.673 Y110.36 E57.71419
G1 X122.048 Y110.475 E57.73246
G1 X122.419 Y110.6 E57.75069
G1 X122.79 Y110.735 E57.76907
G1 X123.034 Y110.83 E57.78126
G1 X123.268 Y110.926 E57.79304
G1 X123.626 Y111.081 E57.8112
G1 X123.966 Y111.24 E57.82868
G1 X124.198 Y111.355 E57.84074
G1 X124.527 Y111.528 E57.85805
G1 X124.881 Y111.725 E57.87691
G1 X125.103 Y111.854 E57.88887
G1 X125.337 Y111.996 E57.90161
G1 X125.619 Y112.175 E57.91717
G1 X125.917 Y112.374 E57.93385
G1 X126.216 Y112.586 E57.95092
G1 X126.534 Y112.824 E57.96941
G1 X126.804 Y113.036 E57.9854
G1 X127.1 Y113.282 E58.00332
G1 X127.373 Y113.518 E58.02012
G1 X127.589 Y113.715 E58.03374
G1 X127.828 Y113.941 E58.04905
G1 X128.118 Y114.232 E58.06818
G1 X128.384 Y114.515 E58.08627
G1 X128.559 Y114.707 E58.09836
G1 X128.834 Y115.026 E58.11798
G1 X128.996 Y115.222 E58.12982
G1 X129.18 Y115.451 E58.1435
G1 X129.408 Y115.753 E58.16112
G1 X129.563 Y115.965 E58.17334
G1 X129.784 Y116.283 E58.19138
G1 X130.081 Y116.746 E58.21699
G1 X130.272 Y117.065 E58.2343
G1 X130.395 Y117.368 E58.24953
G1 X130.408 Y117.497 E58.25557
G1 X130.337 Y117.813 E58.27065
G1 X130.187 Y118.081 E58.28495
G1 X130.03 Y118.334 E58.29881
G1 X129.846 Y118.623 E58.31477
G1 X129.683 Y118.865 E58.32835
G1 X129.467 Y119.17 E58.34576
G1 X129.269 Y119.434 E58.36112
G1 X129.087 Y119.668 E58.37493
G1 X128.848 Y119.959 E58.39246
G1 X128.527 Y120.331 E58.41534
G1 X128.103 Y120.783 E58.4442
G1 X127.841 Y121.044 E58.46142
G1 X127.568 Y121.306 E58.47904
G1 X127.293 Y121.551 E58.49619
G1 X127.07 Y121.745 E58.50995
G1 X126.823 Y121.949 E58.52487
G1 X126.535 Y122.176 E58.54194
G1 X126.142 Y122.468 E58.56474
G1 X125.832 Y122.684 E58.58233
G1 X125.316 Y123.019 E58.61098
G1 X125.102 Y123.148 E58.62262
G1 X124.775 Y123.336 E58.64018
G1 X124.431 Y123.525 E58.65846
G1 X124.199 Y123.644 E58.6706
G1 X123.854 Y123.813 E58.68849
G1 X123.637 Y123.913 E58.69961
G1 X123.404 Y124.017 E58.71149
G1 X123.134 Y124.131 E58.72514
G1 X122.804 Y124.261 E58.74165
G1 X122.53 Y124.362 E58.75525
G1 X122.184 Y124.481 E58.77229
G1 X121.902 Y124.571 E58.78607
G1 X121.628 Y124.653 E58.79939
G1 X121.265 Y124.752 E58.81691
G1 X120.982 Y124.823 E58.8305
G1 X120.608 Y124.908 E58.84836
G1 X120.18 Y124.992 E58.86867
G1 X119.803 Y125.055 E58.88646
G1 X119.501 Y125.099 E58.90068
G1 X119.217 Y125.135 E58.91401
G1 X118.908 Y125.168 E58.92848
G1 X118.536 Y125.196 E58.94585
G1 X118.227 Y125.214 E58.96026
G1 X117.914 Y125.226 E58.97484
G1 X117.462 Y125.231 E58.99589
G0 F7500 X117.458 Y125.631
;TYPE:WALL-OUTER
G1 F1350 X117.049 Y125.623 E59.01494
G1 X116.573 Y125.599 E59.03713
G1 X112.66 Y125.349 E59.21971
G1 X106.032 Y124.933 E59.52895
G1 X105.92 Y124.923 E59.53418
G1 X94.526 Y124.208 E60.06578
G1 X94.121 Y124.181 E60.08468
G1 X93.132 Y124.12 E60.13082
G1 X92.914 Y124.093 E60.14105
G1 X92.624 Y124.006 E60.15514
G1 X92.235 Y123.78 E60.17609
G1 X92.027 Y123.569 E60.18989
G1 X91.895 Y123.379 E60.20066
G1 X91.784 Y123.137 E60.21306
G1 X91.705 Y122.857 E60.22661
G1 X91.675 Y122.391 E60.24835
G1 X91.675 Y112.498 E60.70901
G1 X91.691 Y112.246 E60.72077
G1 X91.731 Y112.026 E60.73118
G1 X91.828 Y111.757 E60.74449
G1 X92.078 Y111.368 E60.76603
G1 X92.306 Y111.167 E60.78018
G1 X92.494 Y111.05 E60.79049
G1 X92.752 Y110.949 E60.80339
G1 X93.022 Y110.89 E60.81626
G1 X93.305 Y110.87 E60.82947
G1 X109.863 Y109.828 E61.60201
G1 X111.272 Y109.737 E61.66775
G1 X116.724 Y109.392 E61.92213
G1 X117.035 Y109.378 E61.93662
G1 X117.343 Y109.371 E61.95097
G1 X117.647 Y109.37 E61.96512
G1 X118.048 Y109.378 E61.9838
G1 X118.401 Y109.395 E62.00026
G1 X118.702 Y109.413 E62.0143
G1 X119.137 Y109.454 E62.03464
G1 X119.431 Y109.488 E62.04842
G1 X119.799 Y109.539 E62.06572
G1 X120.139 Y109.595 E62.08177
G1 X120.423 Y109.648 E62.09522
G1 X120.701 Y109.704 E62.10843
G1 X120.977 Y109.765 E62.12159
G1 X121.244 Y109.829 E62.13437
G1 X121.511 Y109.9 E62.14724
G1 X121.779 Y109.974 E62.16018
G1 X122.166 Y110.093 E62.17904
G1 X122.556 Y110.224 E62.19819
G1 X122.935 Y110.362 E62.21698
G1 X123.179 Y110.457 E62.22917
G1 X123.428 Y110.559 E62.2417
G1 X123.786 Y110.715 E62.25988
G1 X124.144 Y110.882 E62.27828
G1 X124.376 Y110.997 E62.29033
G1 X124.722 Y111.178 E62.30852
G1 X125.076 Y111.375 E62.32738
G1 X125.311 Y111.512 E62.34005
G1 X125.545 Y111.654 E62.35279
G1 X125.834 Y111.838 E62.36874
G1 X126.148 Y112.048 E62.38633
G1 X126.456 Y112.266 E62.4039
G1 X126.781 Y112.509 E62.4228
G1 X127.06 Y112.728 E62.43932
G1 X127.356 Y112.974 E62.45724
G1 X127.643 Y113.223 E62.47493
G1 X127.864 Y113.425 E62.48887
G1 X128.111 Y113.659 E62.50471
G1 X128.409 Y113.958 E62.52437
G1 X128.68 Y114.246 E62.54279
G1 X128.862 Y114.446 E62.55538
G1 X129.142 Y114.771 E62.57535
G1 X129.308 Y114.971 E62.58746
G1 X129.492 Y115.2 E62.60113
G1 X129.731 Y115.517 E62.61962
G1 X129.886 Y115.729 E62.63185
G1 X130.121 Y116.067 E62.65102
G1 X130.418 Y116.53 E62.67663
G1 X130.633 Y116.89 E62.69616
G1 X130.787 Y117.27 E62.71525
G1 X130.813 Y117.52 E62.72695
G1 X130.714 Y117.958 E62.74786
G1 X130.527 Y118.292 E62.76569
G1 X130.37 Y118.545 E62.77955
G1 X130.178 Y118.846 E62.79618
G1 X130.015 Y119.088 E62.80976
G1 X129.787 Y119.41 E62.82813
G1 X129.585 Y119.68 E62.84383
G1 X129.403 Y119.914 E62.85764
G1 X129.153 Y120.218 E62.87597
G1 X128.989 Y120.411 E62.88776
G1 X128.819 Y120.605 E62.89977
G1 X128.395 Y121.057 E62.92863
G1 X128.117 Y121.334 E62.9469
G1 X127.843 Y121.595 E62.96452
G1 X127.556 Y121.853 E62.98249
G1 X127.333 Y122.047 E62.99626
G1 X127.077 Y122.258 E63.0117
G1 X126.777 Y122.494 E63.02948
G1 X126.572 Y122.65 E63.04147
G1 X126.371 Y122.796 E63.05304
G1 X126.061 Y123.012 E63.07063
G1 X125.522 Y123.362 E63.10056
G1 X125.301 Y123.495 E63.11257
G1 X124.967 Y123.687 E63.13051
G1 X124.623 Y123.875 E63.14876
G1 X124.375 Y124.003 E63.16176
G1 X124.03 Y124.172 E63.17965
G1 X123.8 Y124.278 E63.19144
G1 X123.56 Y124.385 E63.20367
G1 X123.288 Y124.5 E63.21743
G1 X122.942 Y124.636 E63.23474
G1 X122.66 Y124.74 E63.24873
G1 X122.306 Y124.862 E63.26617
G1 X122.024 Y124.952 E63.27995
G1 X121.733 Y125.039 E63.29409
G1 X121.37 Y125.138 E63.31161
G1 X121.071 Y125.213 E63.32597
G1 X120.697 Y125.298 E63.34383
G1 X120.246 Y125.387 E63.36523
G1 X119.869 Y125.45 E63.38303
G1 X119.56 Y125.495 E63.39757
G1 X119.259 Y125.533 E63.4117
G1 X118.947 Y125.566 E63.42631
G1 X118.566 Y125.595 E63.4441
G1 X118.242 Y125.614 E63.45921
G1 X117.929 Y125.626 E63.4738
G1 X117.458 Y125.631 E63.49573
G0 F7500 X117.459 Y125.191
G0 X117.466 Y124.841
;TYPE:SKIN
G1 F1350 X117.077 Y124.833 E63.51385
G1 X116.624 Y124.81 E63.53497
G1 X112.711 Y124.56 E63.71755
G1 X93.223 Y123.334 E64.62678
G1 X92.929 Y123.269 E64.6408
G1 X92.737 Y123.157 E64.65115
G1 X92.587 Y122.981 E64.66192
G1 X92.487 Y122.709 E64.67542
G1 X92.465 Y122.356 E64.69188
G1 X92.465 Y112.536 E65.14914
G1 X92.504 Y112.21 E65.16443
G1 X92.674 Y111.901 E65.18085
G1 X92.855 Y111.762 E65.19148
G1 X93.154 Y111.673 E65.20601
G1 X93.331 Y111.66 E65.21427
G1 X109.913 Y110.617 E65.98793
G1 X116.767 Y110.181 E66.30772
G1 X117.069 Y110.168 E66.3218
G1 X117.361 Y110.161 E66.3354
G1 X117.634 Y110.16 E66.34811
G1 X118.011 Y110.168 E66.36567
G1 X118.359 Y110.184 E66.38189
G1 X118.646 Y110.201 E66.39528
G1 X119.054 Y110.24 E66.41436
G1 X119.331 Y110.272 E66.42735
G1 X119.68 Y110.32 E66.44375
G1 X120.003 Y110.374 E66.459
G1 X120.273 Y110.424 E66.47178
G1 X120.534 Y110.477 E66.48419
G1 X120.807 Y110.537 E66.4972
G1 X121.045 Y110.594 E66.5086
G1 X121.558 Y110.733 E66.53335
G1 X121.928 Y110.847 E66.55137
G1 X122.29 Y110.969 E66.56916
G1 X122.652 Y111.1 E66.58709
G1 X122.886 Y111.191 E66.59878
G1 X123.117 Y111.285 E66.61039
G1 X123.467 Y111.437 E66.62816
G1 X123.793 Y111.589 E66.64491
G1 X124.017 Y111.7 E66.65655
G1 X124.338 Y111.869 E66.67344
G1 X124.692 Y112.066 E66.69231
G1 X124.901 Y112.187 E66.70355
G1 X125.128 Y112.325 E66.71592
G1 X125.406 Y112.502 E66.73127
G1 X125.691 Y112.692 E66.74722
G1 X125.982 Y112.898 E66.76382
G1 X126.296 Y113.133 E66.78208
G1 X126.555 Y113.336 E66.7974
G1 X126.848 Y113.58 E66.81516
G1 X127.114 Y113.81 E66.83153
G1 X127.368 Y114.041 E66.84752
G1 X127.551 Y114.216 E66.85931
G1 X127.837 Y114.503 E66.87818
G1 X128.096 Y114.778 E66.89577
G1 X128.267 Y114.966 E66.9076
G1 X128.533 Y115.274 E66.92655
G1 X128.693 Y115.468 E66.93826
G1 X128.868 Y115.686 E66.95128
G1 X129.132 Y116.035 E66.97165
G1 X129.246 Y116.191 E66.98065
G1 X129.456 Y116.494 E66.99782
G1 X129.733 Y116.926 E67.02171
G1 X129.924 Y117.245 E67.03902
G1 X130.014 Y117.474 E67.05048
G1 X129.97 Y117.667 E67.0597
G1 X129.85 Y117.883 E67.07121
G1 X129.7 Y118.127 E67.08454
G1 X129.522 Y118.405 E67.09991
G1 X129.365 Y118.639 E67.11303
G1 X129.155 Y118.936 E67.12997
G1 X128.961 Y119.194 E67.145
G1 X128.785 Y119.42 E67.15834
G1 X128.546 Y119.711 E67.17588
G1 X128.242 Y120.064 E67.19757
G1 X127.828 Y120.506 E67.22577
G1 X127.568 Y120.765 E67.24286
G1 X127.303 Y121.02 E67.25998
G1 X127.037 Y121.257 E67.27657
G1 X126.818 Y121.447 E67.29007
G1 X126.578 Y121.645 E67.30456
G1 X126.303 Y121.862 E67.32087
G1 X125.914 Y122.151 E67.34343
G1 X125.614 Y122.361 E67.36049
G1 X125.109 Y122.688 E67.3885
G1 X124.907 Y122.81 E67.39949
G1 X124.58 Y122.998 E67.41705
G1 X124.249 Y123.18 E67.43464
G1 X124.027 Y123.293 E67.44624
G1 X123.686 Y123.46 E67.46392
G1 X123.478 Y123.556 E67.47459
G1 X123.212 Y123.675 E67.48816
G1 X122.992 Y123.768 E67.49928
G1 X122.669 Y123.895 E67.51544
G1 X122.399 Y123.994 E67.52883
G1 X122.085 Y124.103 E67.54431
G1 X121.786 Y124.198 E67.55892
G1 X121.516 Y124.279 E67.57204
G1 X121.17 Y124.374 E67.58875
G1 X120.891 Y124.444 E67.60214
G1 X120.524 Y124.528 E67.61968
G1 X120.104 Y124.61 E67.6396
G1 X119.747 Y124.669 E67.65645
G1 X119.445 Y124.713 E67.67066
G1 X119.176 Y124.747 E67.68329
G1 X118.867 Y124.78 E67.69776
G1 X118.575 Y124.803 E67.7114
G1 X118.204 Y124.824 E67.7287
G1 X117.899 Y124.836 E67.74291
G1 X117.466 Y124.841 E67.76308
G0 F7500 X117.46 Y125.12
G0 X120.152 Y124.824
G0 X122.128 Y124.319
G0 X123.617 Y123.725
G0 X125.839 Y122.545
G0 X125.587 Y122.183
G1 F1350 X129.256 Y118.513 E68.00472
G0 F7500 X129.622 Y118.759
G0 X130.176 Y117.751
G0 X130.219 Y117.229
G0 X129.809 Y117.394
G1 F1350 X124.158 Y123.045 E68.37685
G0 F7500 X124.358 Y123.438
G0 X123.252 Y123.962
G0 X123.082 Y123.556
G1 F1350 X129.607 Y117.031 E68.80653
G0 F7500 X129.387 Y116.685
G1 F1350 X122.168 Y123.904 E69.28191
G0 F7500 X121.349 Y124.158
G1 F1350 X129.159 Y116.348 E69.79621
G0 F7500 X128.919 Y116.022
G1 F1350 X120.594 Y124.346 E70.3444
G0 F7500 X119.894 Y124.481
G1 F1350 X128.673 Y115.702 E70.92251
G0 F7500 X128.421 Y115.389
G1 F1350 X119.232 Y124.578 E71.52762
G0 F7500 X118.605 Y124.639
G1 F1350 X128.158 Y115.086 E72.1567
G0 F7500 X127.887 Y114.791
G1 F1350 X118.007 Y124.671 E72.80732
G0 F7500 X117.433 Y124.679
G1 F1350 X127.61 Y114.503 E73.47746
G0 F7500 X127.325 Y114.221
G1 F1350 X116.885 Y124.662 E74.16498
G0 F7500 X116.35 Y124.631
G1 F1350 X127.03 Y113.951 E74.86828
G0 F7500 X126.727 Y113.688
G1 F1350 X115.818 Y124.597 E75.58665
G0 F7500 X115.286 Y124.563
G1 F1350 X126.418 Y113.431 E76.31971
G0 F7500 X126.099 Y113.185
G1 F1350 X114.755 Y124.529 E77.06674
G0 F7500 X114.223 Y124.495
G1 F1350 X125.773 Y112.946 E77.82729
G0 F7500 X125.437 Y112.715
G1 F1350 X113.692 Y124.461 E78.60075
G0 F7500 X113.16 Y124.427
G1 F1350 X125.094 Y112.493 E79.38663
G0 F7500 X124.742 Y112.28
G1 F1350 X112.628 Y124.393 E80.18432
G0 F7500 X112.096 Y124.36
G1 F1350 X124.38 Y112.076 E80.99324
G0 F7500 X124.012 Y111.878
G1 F1350 X111.563 Y124.327 E81.81303
G0 F7500 X111.032 Y124.293
G1 F1350 X123.634 Y111.691 E82.64289
G0 F7500 X123.245 Y111.514
G1 F1350 X110.499 Y124.259 E83.48221
G0 F7500 X109.967 Y124.226
G1 F1350 X122.846 Y111.347 E84.33031
G0 F7500 X122.436 Y111.191
G1 F1350 X109.435 Y124.192 E85.18645
G0 F7500 X108.902 Y124.159
G1 F1350 X122.016 Y111.046 E86.05
G0 F7500 X121.587 Y110.908
G1 F1350 X108.37 Y124.126 E86.92039
G0 F7500 X107.838 Y124.092
G1 F1350 X121.145 Y110.785 E87.79668
G0 F7500 X120.69 Y110.674
G1 F1350 X107.306 Y124.059 E88.67807
G0 F7500 X106.773 Y124.025
G1 F1350 X120.222 Y110.577 E89.56368
G0 F7500 X119.741 Y110.492
G1 F1350 X106.242 Y123.991 E90.45261
G0 F7500 X105.709 Y123.958
G1 F1350 X119.245 Y110.423 E91.34395
G0 F7500 X118.733 Y110.369
G1 F1350 X105.177 Y123.925 E92.23663
G0 F7500 X104.645 Y123.891
G1 F1350 X118.199 Y110.336 E93.12922
G0 F7500 X117.651 Y110.319
G1 F1350 X104.112 Y123.858 E94.02079
G0 F7500 X103.58 Y123.825
G1 F1350 X117.078 Y110.327 E94.90965
G0 F7500 X116.48 Y110.359
G1 F1350 X103.048 Y123.791 E95.79417
G0 F7500 X102.516 Y123.757
G1 F1350 X115.876 Y110.397 E96.67395
G0 F7500 X115.272 Y110.435
G1 F1350 X101.983 Y123.724 E97.54905
G0 F7500 X101.451 Y123.691
G1 F1350 X114.667 Y110.474 E98.41938
G0 F7500 X114.064 Y110.513
G1 F1350 X100.919 Y123.657 E99.28497
G0 F7500 X100.387 Y123.624
G1 F1350 X113.46 Y110.551 E100.14585
G0 F7500 X112.856 Y110.589
G1 F1350 X99.854 Y123.59 E101.00202
G0 F7500 X99.323 Y123.557
G1 F1350 X112.251 Y110.628 E101.85338
G0 F7500 X111.647 Y110.666
G1 F1350 X98.79 Y123.523 E102.70004
G0 F7500 X98.258 Y123.49
G1 F1350 X111.044 Y110.704 E103.54202
G0 F7500 X110.44 Y110.742
G1 F1350 X97.726 Y123.456 E104.37926
G0 F7500 X97.193 Y123.423
G1 F1350 X109.836 Y110.781 E105.21179
G0 F7500 X109.232 Y110.819
G1 F1350 X96.661 Y123.39 E106.03961
G0 F7500 X96.129 Y123.356
G1 F1350 X108.628 Y110.857 E106.86269
G0 F7500 X108.025 Y110.894
G1 F1350 X95.597 Y123.322 E107.6811
G0 F7500 X95.064 Y123.289
G1 F1350 X107.421 Y110.933 E108.49479
G0 F7500 X106.817 Y110.971
G1 F1350 X94.533 Y123.255 E109.30372
G0 F7500 X94 Y123.222
G1 F1350 X106.213 Y111.009 E110.10796
G0 F7500 X105.61 Y111.046
G1 F1350 X93.468 Y123.189 E110.90757
G0 F7500 X92.978 Y123.112
G1 F1350 X105.006 Y111.085 E111.6996
G0 F7500 X104.402 Y111.123
G1 F1350 X92.7 Y122.825 E112.47019
G0 F7500 X92.624 Y122.335
G1 F1350 X103.799 Y111.161 E113.20605
G0 F7500 X103.195 Y111.198
G1 F1350 X92.624 Y121.77 E113.90221
G0 F7500 X92.624 Y121.204
G1 F1350 X102.592 Y111.237 E114.55858
G0 F7500 X101.988 Y111.275
G1 F1350 X92.624 Y120.638 E115.17519
G0 F7500 X92.624 Y120.073
G1 F1350 X101.384 Y111.312 E115.75208
G0 F7500 X100.781 Y111.35
G1 F1350 X92.624 Y119.507 E116.28923
G0 F7500 X92.624 Y118.941
G1 F1350 X100.177 Y111.389 E116.78658
G0 F7500 X99.573 Y111.427
G1 F1350 X92.624 Y118.376 E117.24418
G0 F7500 X92.624 Y117.81
G1 F1350 X98.97 Y111.464 E117.66208
G0 F7500 X98.366 Y111.502
G1 F1350 X92.624 Y117.244 E118.0402
G0 F7500 X92.624 Y116.678
G1 F1350 X97.762 Y111.541 E118.37851
G0 F7500 X97.158 Y111.579
G1 F1350 X92.624 Y116.113 E118.67708
G0 F7500 X92.624 Y115.547
G1 F1350 X96.555 Y111.616 E118.93594
G0 F7500 X95.951 Y111.654
G1 F1350 X92.624 Y114.981 E119.15503
G0 F7500 X92.624 Y114.416
G1 F1350 X95.347 Y111.693 E119.33435
G0 F7500 X94.744 Y111.73
G1 F1350 X92.624 Y113.85 E119.47395
G0 F7500 X92.624 Y113.284
G1 F1350 X94.14 Y111.768 E119.57378
G0 F7500 X93.536 Y111.807
G1 F1350 X92.624 Y112.719 E119.63384
G0 F7500 X92.185 Y112.719
G0 X92.313 Y112.145
G0 X92.779 Y111.261
G0 X92.749 Y111.18
;TYPE:SKIN
G1 F1350 X92.815 Y111.114 E119.63601
G0 F7500 X92.8 Y111.172
G1 F2700 E114.63601
;MESH:NONMESH
G0 F300 X92.8 Y111.172 Z0.84
G0 F7500 X92.826 Y111.242
G0 X92.288 Y112.165
G0 X92.246 Y112.522
G0 X92.27 Y122.755
G0 X92.395 Y123.093
G0 X92.595 Y123.328
G0 X92.848 Y123.476
G0 X117.583 Y125.329
G0 X117.584 Y125.433
;TIME_ELAPSED:180.241596
;LAYER:2
M106 S170
;TYPE:WALL-INNER
;MESH:3DBenchy.stl
G1 F2700 E119.63601
G1 F1500 X117.286 Y125.431 E119.64989
G1 X116.98 Y125.423 E119.66414
G1 X116.679 Y125.409 E119.67817
G1 X112.055 Y125.103 E119.89396
G1 X111.908 Y125.095 E119.90081
G1 X109.871 Y124.96 E119.99587
G1 X108.971 Y124.903 E120.03786
G1 X108.375 Y124.862 E120.06568
G1 X107.459 Y124.804 E120.10842
G1 X106.085 Y124.713 E120.17254
G1 X105.604 Y124.684 E120.19498
G1 X105.154 Y124.653 E120.21598
G1 X101.369 Y124.409 E120.39259
G1 X100.453 Y124.348 E120.43534
G1 X99.793 Y124.307 E120.46613
G1 X98.877 Y124.246 E120.50888
G1 X95.096 Y124.003 E120.6853
G1 X94.192 Y123.942 E120.72749
G1 X93.463 Y123.896 E120.7615
G1 X93.002 Y123.863 E120.78302
G1 X92.64 Y123.776 E120.80036
G1 X92.35 Y123.609 E120.81594
G1 X92.112 Y123.328 E120.83309
G1 X91.97 Y122.935 E120.85255
G1 X91.943 Y122.543 E120.87084
G1 X91.941 Y118.734 E121.04821
G1 X91.941 Y118.535 E121.05747
G1 X92.14 Y118.535 E121.06347
G1 X97.275 Y118.534 E121.30258
G1 X97.275 Y116.466 E121.39887
G1 X91.943 Y116.465 E121.64715
G1 X91.942 Y112.374 E121.83764
G1 X91.991 Y111.97 E121.85659
G1 X92.058 Y111.782 E121.86589
G1 X92.249 Y111.487 E121.88225
G1 X92.54 Y111.264 E121.89932
G1 X92.951 Y111.139 E121.91933
G1 X107.29 Y110.207 E122.58842
G1 X116.666 Y109.593 E123.02594
G1 X116.982 Y109.578 E123.04067
G1 X117.288 Y109.569 E123.05493
G1 X117.581 Y109.568 E123.06857
G1 X117.88 Y109.572 E123.08249
G1 X118.181 Y109.582 E123.09652
G1 X118.487 Y109.597 E123.11078
G1 X118.922 Y109.632 E123.1311
G1 X119.211 Y109.662 E123.14463
G1 X119.498 Y109.695 E123.15809
G1 X119.778 Y109.735 E123.17126
G1 X120.201 Y109.804 E123.19121
G1 X120.617 Y109.885 E123.21095
G1 X120.895 Y109.945 E123.22419
G1 X121.159 Y110.007 E123.23682
G1 X121.7 Y110.152 E123.2629
G1 X121.95 Y110.227 E123.27505
G1 X122.351 Y110.354 E123.29464
G1 X122.599 Y110.438 E123.30683
G1 X123.108 Y110.629 E123.33215
G1 X123.475 Y110.779 E123.35061
G1 X123.834 Y110.937 E123.36887
G1 X124.069 Y111.047 E123.38095
G1 X124.308 Y111.164 E123.39334
G1 X124.533 Y111.279 E123.40511
G1 X124.765 Y111.402 E123.41734
G1 X125.112 Y111.596 E123.43585
G1 X125.333 Y111.726 E123.44779
G1 X125.668 Y111.931 E123.46607
G1 X125.99 Y112.142 E123.484
G1 X126.307 Y112.359 E123.50189
G1 X126.716 Y112.658 E123.52548
G1 X127.013 Y112.892 E123.54309
G1 X127.321 Y113.144 E123.56162
G1 X127.616 Y113.398 E123.57974
G1 X128.069 Y113.819 E123.60854
G1 X128.254 Y114.001 E123.62062
G1 X128.432 Y114.182 E123.63245
G1 X128.798 Y114.573 E123.65738
G1 X128.964 Y114.762 E123.6691
G1 X129.211 Y115.052 E123.68683
G1 X129.45 Y115.346 E123.70448
G1 X129.607 Y115.55 E123.71646
G1 X129.761 Y115.755 E123.7284
G1 X130.067 Y116.19 E123.75317
G1 X130.215 Y116.412 E123.76559
G1 X130.357 Y116.631 E123.77775
G1 X130.496 Y116.858 E123.79014
G1 X130.646 Y117.113 E123.80392
G1 X130.752 Y117.444 E123.8201
G1 X130.723 Y117.712 E123.83265
G1 X130.638 Y117.904 E123.84243
G1 X130.5 Y118.136 E123.855
G1 X130.36 Y118.362 E123.86738
G1 X130.146 Y118.695 E123.88581
G1 X129.999 Y118.911 E123.89797
G1 X129.693 Y119.335 E123.92232
G1 X129.548 Y119.528 E123.93356
G1 X129.387 Y119.731 E123.94563
G1 X129.22 Y119.938 E123.95801
G1 X129.058 Y120.129 E123.96967
G1 X128.889 Y120.323 E123.98165
G1 X128.72 Y120.511 E123.99343
G1 X128.363 Y120.889 E124.01764
G1 X128.09 Y121.16 E124.03555
G1 X127.712 Y121.512 E124.0596
G1 X127.523 Y121.682 E124.07144
G1 X127.135 Y122.009 E124.09506
G1 X126.934 Y122.171 E124.10708
G1 X126.727 Y122.332 E124.1193
G1 X126.528 Y122.481 E124.13087
G1 X126.323 Y122.63 E124.14267
G1 X126.108 Y122.779 E124.15485
G1 X125.675 Y123.065 E124.17902
G1 X125.244 Y123.328 E124.20253
G1 X124.906 Y123.521 E124.22065
G1 X124.672 Y123.649 E124.23307
G1 X124.447 Y123.766 E124.24488
G1 X124.087 Y123.945 E124.2636
G1 X123.843 Y124.058 E124.27612
G1 X123.614 Y124.161 E124.28781
G1 X123.363 Y124.268 E124.30052
G1 X123.118 Y124.367 E124.31282
G1 X122.609 Y124.558 E124.33814
G1 X122.229 Y124.687 E124.35682
G1 X121.832 Y124.809 E124.37616
G1 X121.583 Y124.88 E124.38822
G1 X121.304 Y124.955 E124.40167
G1 X121.033 Y125.021 E124.41466
G1 X120.762 Y125.085 E124.42763
G1 X120.207 Y125.194 E124.45396
G1 X119.936 Y125.24 E124.46676
G1 X119.652 Y125.283 E124.48014
