;FLAVOR:Marlin
;TIME:10455
;Filament used: 7.53662m
;Layer height: 0.2
;MINX:92.443
;MINY:69.354
;MINZ:0.2
;MAXX:142.664
;MAXY:165.646
;MAXZ:78
;Generated with Cura_SteamEngine 4.11.0
M140 S50
M105
M190 S50
M104 S200
M105
M109 S200
M82 ;absolute extrusion mode
; Ender 3 Custom Start G-code
G92 E0 ; Reset Extruder
G28 ; Home all axes
G1 Z2.0 F3000 ; Move Z Axis up little to prevent scratching of Heat Bed
G1 X0.1 Y20 Z0.3 F5000.0 ; Move to start position
G1 X0.1 Y200.0 Z0.3 F1500.0 E15 ; Draw the first line
G1 X0.4 Y200.0 Z0.3 F5000.0 ; Move to side a little
G1 X0.4 Y20 Z0.3 F1500.0 E30 ; Draw the second line
G92 E0 ; Reset Extruder
G1 Z2.0 F3000 ; Move Z Axis up little to prevent scratching of Heat Bed
G1 X5 Y20 Z0.3 F5000.0 ; Move over to prevent blob squish
G92 E0
G92 E0
M90
G1 F2700 E-5
;LAYER_COUNT:390
;LAYER:0
M107
G0 F6000 X95.641 Y90.878 Z0.2
;TYPE:SKIRT
G1 F2700 E0
G1 F1200 X96.329 Y90.241 E0.03119
G1 X97.069 Y89.665 E0.06237
G1 X97.855 Y89.153 E0.09357
G1 X98.682 Y88.711 E0.12476
G1 X99.544 Y88.341 E0.15596
G1 X100.434 Y88.045 E0.18716
G1 X101.346 Y87.827 E0.21835
G1 X102.273 Y87.686 E0.24953
G1 X103.144 Y87.627 E0.27857
G1 X103.465 Y87.618 E0.28925
G1 X103.773 Y87.614 E0.29949
G1 X110.479 Y87.614 E0.52254
G1 X111.341 Y87.625 E0.55121
G1 X111.657 Y87.634 E0.56172
G1 X112.506 Y87.672 E0.58999
G1 X113.749 Y87.743 E0.6314
G1 X116.246 Y87.814 E0.71448
G1 X118.77 Y87.816 E0.79843
G1 X121.347 Y87.744 E0.88418
G1 X122.746 Y87.674 E0.93077
G1 X123.3 Y87.642 E0.94922
G1 X123.588 Y87.629 E0.95881
G1 X123.913 Y87.619 E0.96963
G1 X124.251 Y87.614 E0.98087
G1 X131.115 Y87.615 E1.20917
G1 X131.813 Y87.625 E1.23239
G1 X132.749 Y87.679 E1.26357
G1 X133.677 Y87.811 E1.29474
G1 X134.591 Y88.023 E1.32595
G1 X135.483 Y88.312 E1.35714
G1 X136.348 Y88.675 E1.38834
G1 X137.178 Y89.111 E1.41952
G1 X137.969 Y89.616 E1.45073
G1 X138.713 Y90.187 E1.48193
G1 X139.406 Y90.819 E1.51312
G1 X140.043 Y91.507 E1.54431
G1 X140.618 Y92.248 E1.5755
G1 X141.129 Y93.034 E1.60669
G1 X141.571 Y93.862 E1.6379
G1 X141.94 Y94.724 E1.66909
G1 X142.235 Y95.614 E1.70027
G1 X142.453 Y96.526 E1.73146
G1 X142.593 Y97.454 E1.76268
G1 X142.651 Y98.315 E1.79138
G1 X142.66 Y98.635 E1.80203
G1 X142.664 Y98.944 E1.8123
G1 X142.663 Y127.959 E2.77735
G1 X142.654 Y128.686 E2.80153
G1 X142.603 Y129.623 E2.83274
G1 X142.471 Y130.551 E2.86392
G1 X142.262 Y131.465 E2.8951
G1 X141.975 Y132.358 E2.9263
G1 X141.613 Y133.224 E2.95752
G1 X141.179 Y134.055 E2.9887
G1 X140.675 Y134.846 E3.01989
G1 X140.106 Y135.591 E3.05107
G1 X139.475 Y136.286 E3.08229
G1 X138.788 Y136.924 E3.11348
G1 X138.049 Y137.501 E3.14466
G1 X137.263 Y138.013 E3.17586
G1 X136.437 Y138.456 E3.20704
G1 X135.575 Y138.828 E3.23826
G1 X134.686 Y139.124 E3.26943
G1 X133.774 Y139.344 E3.30063
G1 X132.847 Y139.485 E3.33182
G1 X131.963 Y139.546 E3.36129
G1 X131.642 Y139.555 E3.37197
G1 X131.334 Y139.559 E3.38221
G1 X124.472 Y139.558 E3.61045
G1 X123.767 Y139.548 E3.6339
G1 X123.451 Y139.539 E3.64441
G1 X122.601 Y139.501 E3.67271
G1 X121.358 Y139.43 E3.71412
G1 X118.861 Y139.359 E3.7972
G1 X116.338 Y139.357 E3.88112
G1 X113.76 Y139.429 E3.9669
G1 X112.362 Y139.499 E4.01345
G1 X111.807 Y139.531 E4.03194
G1 X111.519 Y139.544 E4.04153
G1 X111.194 Y139.554 E4.05235
G1 X110.856 Y139.559 E4.06359
G1 X104.008 Y139.558 E4.29136
G1 X103.31 Y139.549 E4.31457
G1 X102.374 Y139.497 E4.34575
G1 X101.445 Y139.365 E4.37696
G1 X100.531 Y139.155 E4.40815
G1 X99.638 Y138.868 E4.43935
G1 X98.773 Y138.505 E4.47055
G1 X97.942 Y138.071 E4.50173
G1 X97.151 Y137.567 E4.53293
G1 X96.406 Y136.997 E4.56413
G1 X95.712 Y136.366 E4.59532
G1 X95.075 Y135.679 E4.62649
G1 X94.498 Y134.939 E4.6577
G1 X93.986 Y134.153 E4.6889
G1 X93.543 Y133.326 E4.7201
G1 X93.172 Y132.465 E4.75128
G1 X92.876 Y131.575 E4.78248
G1 X92.657 Y130.663 E4.81367
G1 X92.516 Y129.736 E4.84486
G1 X92.456 Y128.847 E4.8745
G1 X92.447 Y128.514 E4.88557
G1 X92.443 Y128.217 E4.89545
G1 X92.444 Y99.139 E5.86259
G1 X92.453 Y98.474 E5.88471
G1 X92.506 Y97.538 E5.91589
G1 X92.638 Y96.609 E5.9471
G1 X92.849 Y95.695 E5.9783
G1 X93.137 Y94.803 E6.00948
G1 X93.5 Y93.938 E6.04068
G1 X93.935 Y93.107 E6.07188
G1 X94.439 Y92.317 E6.10304
G1 X95.009 Y91.572 E6.13424
G1 X95.641 Y90.878 E6.16546
G0 F6000 X96.032 Y91.053
G1 F1200 X96.717 Y90.437 E6.1961
G1 X97.453 Y89.884 E6.22672
G1 X98.234 Y89.396 E6.25735
G1 X99.054 Y88.978 E6.28796
G1 X99.908 Y88.633 E6.3186
G1 X100.788 Y88.363 E6.34921
G1 X101.688 Y88.171 E6.37982
G1 X102.602 Y88.057 E6.41046
G1 X103.155 Y88.027 E6.42888
G1 X103.476 Y88.018 E6.43956
G1 X103.773 Y88.014 E6.44944
G1 X110.479 Y88.014 E6.67248
G1 X111.335 Y88.025 E6.70095
G1 X111.64 Y88.034 E6.7111
G1 X112.484 Y88.071 E6.7392
G1 X113.716 Y88.141 E6.78024
G1 X116.27 Y88.214 E6.86522
G1 X118.781 Y88.216 E6.94874
G1 X121.333 Y88.145 E7.03365
G1 X122.782 Y88.072 E7.08191
G1 X123.322 Y88.041 E7.0999
G1 X123.6 Y88.029 E7.10915
G1 X123.925 Y88.019 E7.11997
G1 X124.251 Y88.014 E7.13081
G1 X131.109 Y88.015 E7.35891
G1 X131.807 Y88.025 E7.38213
G1 X132.726 Y88.078 E7.41274
G1 X133.637 Y88.211 E7.44337
G1 X134.533 Y88.422 E7.47398
G1 X135.407 Y88.71 E7.50459
G1 X136.254 Y89.073 E7.53524
G1 X137.065 Y89.508 E7.56585
G1 X137.835 Y90.012 E7.59646
G1 X138.559 Y90.581 E7.62708
G1 X139.231 Y91.211 E7.65772
G1 X139.846 Y91.896 E7.68834
G1 X140.399 Y92.632 E7.71896
G1 X140.886 Y93.413 E7.74957
G1 X141.303 Y94.234 E7.7802
G1 X141.648 Y95.088 E7.81083
G1 X141.917 Y95.968 E7.84144
G1 X142.109 Y96.869 E7.87208
G1 X142.222 Y97.782 E7.90268
G1 X142.251 Y98.326 E7.92079
G1 X142.26 Y98.646 E7.93144
G1 X142.264 Y98.944 E7.94135
G1 X142.263 Y127.954 E8.90623
G1 X142.254 Y128.681 E8.93041
G1 X142.203 Y129.6 E8.96103
G1 X142.072 Y130.512 E8.99167
G1 X141.862 Y131.408 E9.02228
G1 X141.576 Y132.283 E9.0529
G1 X141.215 Y133.13 E9.08352
G1 X140.781 Y133.942 E9.11414
G1 X140.279 Y134.714 E9.14477
G1 X139.711 Y135.439 E9.1754
G1 X139.083 Y136.112 E9.20602
G1 X138.399 Y136.728 E9.23664
G1 X137.664 Y137.282 E9.26725
G1 X136.884 Y137.771 E9.29787
G1 X136.064 Y138.19 E9.3285
G1 X135.211 Y138.536 E9.35911
G1 X134.331 Y138.807 E9.38974
G1 X133.431 Y139 E9.42035
G1 X132.517 Y139.115 E9.45099
G1 X131.952 Y139.146 E9.46981
G1 X131.631 Y139.155 E9.48049
G1 X131.334 Y139.159 E9.49037
G1 X124.478 Y139.158 E9.7184
G1 X123.773 Y139.148 E9.74185
G1 X123.468 Y139.139 E9.752
G1 X122.623 Y139.102 E9.78013
G1 X121.391 Y139.032 E9.82118
G1 X118.837 Y138.959 E9.90616
G1 X116.327 Y138.957 E9.98964
G1 X113.773 Y139.028 E10.07462
G1 X112.325 Y139.101 E10.12284
G1 X111.785 Y139.132 E10.14083
G1 X111.507 Y139.144 E10.15009
G1 X111.182 Y139.154 E10.1609
G1 X110.856 Y139.159 E10.17175
G1 X104.013 Y139.158 E10.39934
G1 X103.315 Y139.149 E10.42256
G1 X102.396 Y139.097 E10.45318
G1 X101.485 Y138.966 E10.48379
G1 X100.589 Y138.756 E10.5144
G1 X99.714 Y138.469 E10.54503
G1 X98.867 Y138.107 E10.57566
G1 X98.055 Y137.673 E10.60628
G1 X97.284 Y137.171 E10.63688
G1 X96.559 Y136.603 E10.66752
G1 X95.886 Y135.974 E10.69816
G1 X95.271 Y135.29 E10.72875
G1 X94.717 Y134.555 E10.75936
G1 X94.229 Y133.774 E10.78999
G1 X93.81 Y132.954 E10.82062
G1 X93.464 Y132.101 E10.85124
G1 X93.194 Y131.221 E10.88185
G1 X93.001 Y130.32 E10.9125
G1 X92.887 Y129.407 E10.9431
G1 X92.856 Y128.836 E10.96212
G1 X92.847 Y128.503 E10.9732
G1 X92.843 Y128.217 E10.98271
G1 X92.844 Y99.145 E11.94965
G1 X92.853 Y98.48 E11.97177
G1 X92.905 Y97.56 E12.00242
G1 X93.037 Y96.649 E12.03304
G1 X93.248 Y95.753 E12.06365
G1 X93.535 Y94.878 E12.09428
G1 X93.898 Y94.032 E12.1249
G1 X94.332 Y93.22 E12.15552
G1 X94.835 Y92.449 E12.18614
G1 X95.404 Y91.725 E12.21677
G1 X96.032 Y91.053 E12.24736
G0 F6000 X96.424 Y91.231
G1 F1200 X97.105 Y90.638 E12.27739
G1 X97.837 Y90.108 E12.30745
G1 X98.612 Y89.645 E12.33748
G1 X99.425 Y89.252 E12.36751
G1 X100.27 Y88.932 E12.39756
G1 X101.139 Y88.689 E12.42758
G1 X102.027 Y88.523 E12.45762
G1 X103.166 Y88.427 E12.49564
G1 X103.487 Y88.418 E12.50632
G1 X103.773 Y88.414 E12.51583
G1 X110.623 Y88.415 E12.74367
G1 X111.329 Y88.425 E12.76715
G1 X111.623 Y88.433 E12.77693
G1 X112.461 Y88.47 E12.80483
G1 X113.718 Y88.541 E12.84671
G1 X116.258 Y88.614 E12.93122
G1 X118.792 Y88.616 E13.0155
G1 X121.364 Y88.544 E13.10108
G1 X122.818 Y88.471 E13.1495
G1 X123.345 Y88.441 E13.16706
G1 X123.612 Y88.429 E13.17595
G1 X123.937 Y88.419 E13.18676
G1 X124.251 Y88.414 E13.19721
G1 X131.103 Y88.415 E13.42511
G1 X131.801 Y88.425 E13.44832
G1 X132.703 Y88.478 E13.47838
G1 X133.596 Y88.61 E13.5084
G1 X134.474 Y88.821 E13.53844
G1 X135.33 Y89.109 E13.56847
G1 X136.157 Y89.471 E13.5985
G1 X136.949 Y89.906 E13.62855
G1 X137.7 Y90.408 E13.6586
G1 X138.403 Y90.975 E13.68864
G1 X139.053 Y91.602 E13.71868
G1 X139.645 Y92.284 E13.74871
G1 X140.175 Y93.015 E13.77874
G1 X140.637 Y93.791 E13.80878
G1 X141.03 Y94.604 E13.83882
G1 X141.348 Y95.449 E13.86885
G1 X141.591 Y96.319 E13.89889
G1 X141.756 Y97.207 E13.92893
G1 X141.851 Y98.337 E13.96665
G1 X141.86 Y98.657 E13.97729
G1 X141.864 Y98.944 E13.98684
G1 X141.863 Y127.949 E14.95155
G1 X141.854 Y128.676 E14.97573
G1 X141.803 Y129.578 E15.00578
G1 X141.672 Y130.472 E15.03583
G1 X141.463 Y131.35 E15.06585
G1 X141.177 Y132.207 E15.0959
G1 X140.816 Y133.035 E15.12594
G1 X140.384 Y133.827 E15.15595
G1 X139.883 Y134.579 E15.186
G1 X139.317 Y135.283 E15.21605
G1 X138.692 Y135.934 E15.24606
G1 X138.011 Y136.528 E15.27612
G1 X137.28 Y137.059 E15.30617
G1 X136.506 Y137.523 E15.33618
G1 X135.693 Y137.917 E15.36623
G1 X134.849 Y138.237 E15.39625
G1 X133.979 Y138.482 E15.42632
G1 X133.092 Y138.648 E15.45633
G1 X131.941 Y138.746 E15.49475
G1 X131.62 Y138.755 E15.50543
G1 X131.334 Y138.759 E15.51495
G1 X124.483 Y138.758 E15.74281
G1 X123.778 Y138.748 E15.76626
G1 X123.486 Y138.74 E15.77598
G1 X122.646 Y138.703 E15.80394
G1 X121.389 Y138.632 E15.84582
G1 X118.849 Y138.559 E15.93033
G1 X116.316 Y138.557 E16.01458
G1 X113.742 Y138.629 E16.10023
G1 X112.289 Y138.702 E16.14861
G1 X111.762 Y138.732 E16.16617
G1 X111.495 Y138.744 E16.17506
G1 X111.17 Y138.754 E16.18587
G1 X110.856 Y138.759 E16.19632
G1 X104.018 Y138.758 E16.42375
G1 X103.32 Y138.749 E16.44697
G1 X102.419 Y138.698 E16.47699
G1 X101.525 Y138.566 E16.50704
G1 X100.647 Y138.357 E16.53706
G1 X99.79 Y138.07 E16.56712
G1 X98.963 Y137.709 E16.59713
G1 X98.17 Y137.276 E16.62718
G1 X97.419 Y136.775 E16.65721
G1 X96.715 Y136.209 E16.68725
G1 X96.064 Y135.583 E16.71729
G1 X95.471 Y134.902 E16.74733
G1 X94.941 Y134.171 E16.77736
G1 X94.477 Y133.396 E16.8074
G1 X94.083 Y132.583 E16.83745
G1 X93.763 Y131.739 E16.86747
G1 X93.519 Y130.869 E16.89752
G1 X93.353 Y129.981 E16.92757
G1 X93.256 Y128.826 E16.96612
G1 X93.247 Y128.493 E16.9772
G1 X93.243 Y128.217 E16.98638
G1 X93.244 Y99.15 E17.95315
G1 X93.253 Y98.485 E17.97527
G1 X93.305 Y97.583 E18.00533
G1 X93.437 Y96.69 E18.03535
G1 X93.647 Y95.812 E18.06538
G1 X93.934 Y94.955 E18.09544
G1 X94.296 Y94.128 E18.12546
G1 X94.729 Y93.336 E18.15548
G1 X95.231 Y92.585 E18.18553
G1 X95.798 Y91.881 E18.21559
G1 X96.424 Y91.231 E18.24561
G1 F2700 E13.24561
;MESH:_????????_21.stl
G0 F6000 X103.857 Y97.949
G0 X103.857 Y99.028
G0 X104.225 Y127.777
G0 X110.586 Y127.959
;TYPE:WALL-INNER
G1 F2700 E18.24561
G1 F1200 X104.043 Y127.959 E18.46323
G1 X104.043 Y99.214 E19.41929
G1 X110.586 Y99.214 E19.63691
G1 X110.586 Y127.959 E20.59298
G0 F6000 X110.986 Y128.359
;TYPE:WALL-OUTER
G1 F1200 X103.643 Y128.359 E20.8372
G1 X103.643 Y98.814 E21.81987
G1 X110.986 Y98.814 E22.0641
G1 X110.986 Y128.359 E23.04677
G0 F6000 X110.716 Y128.089
G0 X110.476 Y127.569
G0 X110.196 Y127.569
;TYPE:SKIN
G1 F1200 X104.433 Y127.569 E23.23845
G1 X104.433 Y99.604 E24.16857
G1 X110.196 Y99.604 E24.36025
G1 X110.196 Y127.569 E25.29037
G0 F6000 X110.476 Y127.569
G0 X104.78 Y127.849
G0 X104.78 Y127.407
G1 F1200 X104.592 Y127.219 E25.29921
G0 F6000 X104.592 Y126.654
G1 F1200 X105.346 Y127.407 E25.33466
G0 F6000 X105.911 Y127.407
G1 F1200 X104.592 Y126.088 E25.3967
G0 F6000 X104.592 Y125.522
G1 F1200 X106.477 Y127.407 E25.48536
G0 F6000 X107.043 Y127.407
G1 F1200 X104.592 Y124.957 E25.60063
G0 F6000 X104.592 Y124.391
G1 F1200 X107.608 Y127.407 E25.74249
G0 F6000 X108.174 Y127.407
G1 F1200 X104.592 Y123.825 E25.91098
G0 F6000 X104.592 Y123.26
G1 F1200 X108.74 Y127.407 E26.10606
G0 F6000 X109.305 Y127.407
G1 F1200 X104.592 Y122.694 E26.32775
G0 F6000 X104.592 Y122.128
G1 F1200 X109.871 Y127.407 E26.57605
G0 F6000 X110.035 Y127.006
G1 F1200 X104.592 Y121.562 E26.8321
G0 F6000 X104.592 Y120.997
G1 F1200 X110.035 Y126.44 E27.08812
G0 F6000 X110.035 Y125.874
G1 F1200 X104.592 Y120.431 E27.34414
G0 F6000 X104.592 Y119.865
G1 F1200 X110.035 Y125.309 E27.60019
G0 F6000 X110.035 Y124.743
G1 F1200 X104.592 Y119.3 E27.85621
G0 F6000 X104.592 Y118.734
G1 F1200 X110.035 Y124.177 E28.11223
G0 F6000 X110.035 Y123.612
G1 F1200 X104.592 Y118.168 E28.36828
G0 F6000 X104.592 Y117.603
G1 F1200 X110.035 Y123.046 E28.6243
G0 F6000 X110.035 Y122.48
G1 F1200 X104.592 Y117.037 E28.88032
G0 F6000 X104.592 Y116.471
G1 F1200 X110.035 Y121.915 E29.13637
G0 F6000 X110.035 Y121.349
G1 F1200 X104.592 Y115.906 E29.39239
G0 F6000 X104.592 Y115.34
G1 F1200 X110.035 Y120.783 E29.64841
G0 F6000 X110.035 Y120.218
G1 F1200 X104.592 Y114.774 E29.90446
G0 F6000 X104.592 Y114.209
G1 F1200 X110.035 Y119.652 E30.16048
G0 F6000 X110.035 Y119.086
G1 F1200 X104.592 Y113.643 E30.4165
G0 F6000 X104.592 Y113.077
G1 F1200 X110.035 Y118.52 E30.67252
G0 F6000 X110.035 Y117.955
G1 F1200 X104.592 Y112.512 E30.92855
G0 F6000 X104.592 Y111.946
G1 F1200 X110.035 Y117.389 E31.18457
G0 F6000 X110.035 Y116.823
G1 F1200 X104.592 Y111.38 E31.44059
G0 F6000 X104.592 Y110.814
G1 F1200 X110.035 Y116.258 E31.69664
G0 F6000 X110.035 Y115.692
G1 F1200 X104.592 Y110.249 E31.95266
G0 F6000 X104.592 Y109.683
G1 F1200 X110.035 Y115.126 E32.20868
G0 F6000 X110.035 Y114.561
G1 F1200 X104.592 Y109.117 E32.46473
G0 F6000 X104.592 Y108.552
G1 F1200 X110.035 Y113.995 E32.72075
G0 F6000 X110.035 Y113.429
G1 F1200 X104.592 Y107.986 E32.97677
G0 F6000 X104.592 Y107.42
G1 F1200 X110.035 Y112.864 E33.23282
G0 F6000 X110.035 Y112.298
G1 F1200 X104.592 Y106.855 E33.48884
G0 F6000 X104.592 Y106.289
G1 F1200 X110.035 Y111.732 E33.74486
G0 F6000 X110.035 Y111.167
G1 F1200 X104.592 Y105.723 E34.00091
G0 F6000 X104.592 Y105.158
G1 F1200 X110.035 Y110.601 E34.25693
G0 F6000 X110.035 Y110.035
G1 F1200 X104.592 Y104.592 E34.51295
G0 F6000 X104.592 Y104.026
G1 F1200 X110.035 Y109.47 E34.76899
G0 F6000 X110.035 Y108.904
G1 F1200 X104.592 Y103.461 E35.02502
G0 F6000 X104.592 Y102.895
G1 F1200 X110.035 Y108.338 E35.28104
G0 F6000 X110.035 Y107.772
G1 F1200 X104.592 Y102.329 E35.53706
G0 F6000 X104.592 Y101.763
G1 F1200 X110.035 Y107.207 E35.79311
G0 F6000 X110.035 Y106.641
G1 F1200 X104.592 Y101.198 E36.04913
G0 F6000 X104.592 Y100.632
G1 F1200 X110.035 Y106.075 E36.30515
G0 F6000 X110.035 Y105.51
G1 F1200 X104.592 Y100.066 E36.5612
G0 F6000 X104.855 Y99.764
G1 F1200 X110.035 Y104.944 E36.80485
G0 F6000 X110.035 Y104.378
G1 F1200 X105.421 Y99.764 E37.02188
G0 F6000 X105.986 Y99.764
G1 F1200 X110.035 Y103.813 E37.21233
G0 F6000 X110.035 Y103.247
G1 F1200 X106.552 Y99.764 E37.37616
G0 F6000 X107.118 Y99.764
G1 F1200 X110.035 Y102.681 E37.51336
G0 F6000 X110.035 Y102.116
G1 F1200 X107.683 Y99.764 E37.624
G0 F6000 X108.249 Y99.764
G1 F1200 X110.035 Y101.55 E37.708
G0 F6000 X110.035 Y100.984
G1 F1200 X108.815 Y99.764 E37.76539
G0 F6000 X109.38 Y99.764
G1 F1200 X110.035 Y100.419 E37.7962
G0 F6000 X110.035 Y99.853
G1 F1200 X109.946 Y99.764 E37.80038
G0 F6000 X109.946 Y99.414
G1 F2700 E32.80038
G0 F6000 X109.946 Y99.324
G0 X110.404 Y99.396
G0 X110.766 Y127.959
G0 X111.851 Y127.959
G0 X123.256 Y127.959
G0 X124.341 Y127.959
G0 X124.521 Y127.959
;TYPE:WALL-INNER
G1 F2700 E37.80038
G1 F1200 X124.521 Y99.214 E38.75645
G1 X131.064 Y99.214 E38.97407
G1 X131.064 Y127.959 E39.93013
G1 X124.521 Y127.959 E40.14775
G0 F6000 X124.121 Y128.359
;TYPE:WALL-OUTER
G1 F1200 X124.121 Y98.814 E41.13042
G1 X131.464 Y98.814 E41.37465
G1 X131.464 Y128.359 E42.35732
G1 X124.121 Y128.359 E42.60155
G0 F6000 X124.391 Y128.089
G0 X124.631 Y127.569
G0 X124.911 Y127.569
;TYPE:SKIN
G1 F1200 X124.911 Y99.604 E43.53167
G1 X130.674 Y99.604 E43.72335
G1 X130.674 Y127.569 E44.65347
G1 X124.911 Y127.569 E44.84515
G0 F6000 X125.145 Y127.408
G1 F1200 X125.07 Y127.332 E44.8487
G0 F6000 X125.07 Y126.767
G1 F1200 X125.711 Y127.408 E44.87885
G0 F6000 X126.277 Y127.408
G1 F1200 X125.07 Y126.201 E44.93562
G0 F6000 X125.07 Y125.635
G1 F1200 X126.842 Y127.408 E45.019
G0 F6000 X127.408 Y127.408
G1 F1200 X125.07 Y125.07 E45.12897
G0 F6000 X125.07 Y124.504
G1 F1200 X127.974 Y127.408 E45.26556
G0 F6000 X128.539 Y127.408
G1 F1200 X125.07 Y123.938 E45.42876
G0 F6000 X125.07 Y123.373
G1 F1200 X129.105 Y127.408 E45.61855
G0 F6000 X129.671 Y127.408
G1 F1200 X125.07 Y122.807 E45.83497
G0 F6000 X125.07 Y122.241
G1 F1200 X130.237 Y127.408 E46.07801
G0 F6000 X130.513 Y127.119
G1 F1200 X125.07 Y121.676 E46.33403
G0 F6000 X125.07 Y121.11
G1 F1200 X130.513 Y126.553 E46.59005
G0 F6000 X130.513 Y125.988
G1 F1200 X125.07 Y120.544 E46.8461
G0 F6000 X125.07 Y119.979
G1 F1200 X130.513 Y125.422 E47.10212
G0 F6000 X130.513 Y124.856
G1 F1200 X125.07 Y119.413 E47.35814
G0 F6000 X125.07 Y118.847
G1 F1200 X130.513 Y124.29 E47.61416
G0 F6000 X130.513 Y123.725
G1 F1200 X125.07 Y118.281 E47.87021
G0 F6000 X125.07 Y117.716
G1 F1200 X130.513 Y123.159 E48.12623
G0 F6000 X130.513 Y122.593
G1 F1200 X125.07 Y117.15 E48.38225
G0 F6000 X125.07 Y116.584
G1 F1200 X130.513 Y122.028 E48.6383
G0 F6000 X130.513 Y121.462
G1 F1200 X125.07 Y116.019 E48.89432
G0 F6000 X125.07 Y115.453
G1 F1200 X130.513 Y120.896 E49.15034
G0 F6000 X130.513 Y120.331
G1 F1200 X125.07 Y114.887 E49.40639
G0 F6000 X125.07 Y114.322
G1 F1200 X130.513 Y119.765 E49.66241
G0 F6000 X130.513 Y119.199
G1 F1200 X125.07 Y113.756 E49.91843
G0 F6000 X125.07 Y113.19
G1 F1200 X130.513 Y118.634 E50.17448
G0 F6000 X130.513 Y118.068
G1 F1200 X125.07 Y112.625 E50.4305
G0 F6000 X125.07 Y112.059
G1 F1200 X130.513 Y117.502 E50.68652
G0 F6000 X130.513 Y116.937
G1 F1200 X125.07 Y111.493 E50.94257
G0 F6000 X125.07 Y110.928
G1 F1200 X130.513 Y116.371 E51.19859
G0 F6000 X130.513 Y115.805
G1 F1200 X125.07 Y110.362 E51.45461
G0 F6000 X125.07 Y109.796
G1 F1200 X130.513 Y115.24 E51.71066
G0 F6000 X130.513 Y114.674
G1 F1200 X125.07 Y109.231 E51.96668
G0 F6000 X125.07 Y108.665
G1 F1200 X130.513 Y114.108 E52.2227
G0 F6000 X130.513 Y113.542
G1 F1200 X125.07 Y108.099 E52.47872
G0 F6000 X125.07 Y107.533
G1 F1200 X130.513 Y112.977 E52.73477
G0 F6000 X130.513 Y112.411
G1 F1200 X125.07 Y106.968 E52.99079
G0 F6000 X125.07 Y106.402
G1 F1200 X130.513 Y111.845 E53.24681
G0 F6000 X130.513 Y111.28
G1 F1200 X125.07 Y105.836 E53.50286
G0 F6000 X125.07 Y105.271
G1 F1200 X130.513 Y110.714 E53.75888
G0 F6000 X130.513 Y110.148
G1 F1200 X125.07 Y104.705 E54.0149
G0 F6000 X125.07 Y104.139
G1 F1200 X130.513 Y109.583 E54.27095
G0 F6000 X130.513 Y109.017
G1 F1200 X125.07 Y103.574 E54.52697
G0 F6000 X125.07 Y103.008
G1 F1200 X130.513 Y108.451 E54.78299
G0 F6000 X130.513 Y107.886
G1 F1200 X125.07 Y102.442 E55.03904
G0 F6000 X125.07 Y101.877
G1 F1200 X130.513 Y107.32 E55.29506
G0 F6000 X130.513 Y106.754
G1 F1200 X125.07 Y101.311 E55.55108
G0 F6000 X125.07 Y100.745
G1 F1200 X130.513 Y106.189 E55.80713
G0 F6000 X130.513 Y105.623
G1 F1200 X125.07 Y100.18 E56.06315
G0 F6000 X125.22 Y99.764
G1 F1200 X130.513 Y105.057 E56.31212
G0 F6000 X130.513 Y104.491
G1 F1200 X125.785 Y99.764 E56.53448
G0 F6000 X126.351 Y99.764
G1 F1200 X130.513 Y103.926 E56.73025
G0 F6000 X130.513 Y103.36
G1 F1200 X126.917 Y99.764 E56.8994
G0 F6000 X127.482 Y99.764
G1 F1200 X130.513 Y102.794 E57.04194
G0 F6000 X130.513 Y102.229
G1 F1200 X128.048 Y99.764 E57.15789
G0 F6000 X128.614 Y99.764
G1 F1200 X130.513 Y101.663 E57.24721
G0 F6000 X130.513 Y101.097
G1 F1200 X129.179 Y99.764 E57.30993
G0 F6000 X129.745 Y99.764
G1 F1200 X130.513 Y100.532 E57.34606
G0 F6000 X130.513 Y99.966
G1 F1200 X130.311 Y99.764 E57.35556
G0 F6000 X130.311 Y99.414
G1 F2700 E52.35556
;MESH:NONMESH
G0 F300 X130.311 Y99.414 Z0.4
G0 F6000 X130.311 Y99.324
G0 X130.882 Y99.396
G0 X130.882 Y127.777
G0 X125.82 Y128.139
G0 X125.82 Y129.224
G0 X125.82 Y165.246
;TIME_ELAPSED:103.913873
;LAYER:1
M106 S85
;TYPE:WALL-INNER
;MESH:_????????_21.stl
G1 F2700 E57.35556
G1 F1350 X108.829 Y165.246 E57.92068
G1 X108.829 Y127.959 E59.16085
G1 X104.043 Y127.959 E59.32004
G1 X104.043 Y99.214 E60.2761
G1 X110.586 Y99.214 E60.49372
G1 X110.586 Y128.805 E61.47792
G1 X124.521 Y128.805 E61.9414
G1 X124.521 Y99.214 E62.9256
G1 X131.064 Y99.214 E63.14322
G1 X131.064 Y127.959 E64.09929
G1 X125.82 Y127.959 E64.2737
G1 X125.82 Y165.246 E65.51387
G0 F7500 X126.22 Y165.646
;TYPE:WALL-OUTER
G1 F1350 X108.429 Y165.646 E66.1056
G1 X108.429 Y128.359 E67.34577
G1 X103.643 Y128.359 E67.50496
G1 X103.643 Y98.814 E68.48763
G1 X110.986 Y98.814 E68.73186
G1 X110.986 Y128.405 E69.71606
G1 X124.121 Y128.405 E70.15293
G1 X124.121 Y98.814 E71.13713
G1 X131.464 Y98.814 E71.38136
G1 X131.464 Y128.359 E72.36403
G1 X126.22 Y128.359 E72.53845
G1 X126.22 Y165.646 E73.77862
G0 F7500 X125.95 Y165.376
G0 X125.71 Y164.856
G0 X125.43 Y164.856
;TYPE:SKIN
G1 F1350 X109.219 Y164.856 E74.3178
G1 X109.219 Y127.569 E75.55797
G1 X104.433 Y127.569 E75.71715
G1 X104.433 Y99.604 E76.64727
G1 X110.196 Y99.604 E76.83895
G1 X110.196 Y129.195 E77.82315
G1 X124.911 Y129.195 E78.31257
G1 X124.911 Y99.604 E79.29677
G1 X130.674 Y99.604 E79.48845
G1 X130.674 Y127.569 E80.41857
G1 X125.43 Y127.569 E80.59299
G1 X125.43 Y164.856 E81.83316
G0 F7500 X124.935 Y164.695
G1 F1350 X125.269 Y164.361 E81.84887
G0 F7500 X125.269 Y163.795
G1 F1350 X124.369 Y164.695 E81.8912
G0 F7500 X123.803 Y164.695
G1 F1350 X125.269 Y163.229 E81.96016
G0 F7500 X125.269 Y162.664
G1 F1350 X123.238 Y164.695 E82.05569
G0 F7500 X122.672 Y164.695
G1 F1350 X125.269 Y162.098 E82.17784
G0 F7500 X125.269 Y161.532
G1 F1350 X122.106 Y164.695 E82.32662
G0 F7500 X121.541 Y164.695
G1 F1350 X125.269 Y160.967 E82.50198
G0 F7500 X125.269 Y160.401
G1 F1350 X120.975 Y164.695 E82.70395
G0 F7500 X120.409 Y164.695
G1 F1350 X125.269 Y159.835 E82.93255
G0 F7500 X125.269 Y159.27
G1 F1350 X119.843 Y164.695 E83.18775
G0 F7500 X119.278 Y164.695
G1 F1350 X125.269 Y158.704 E83.46955
G0 F7500 X125.269 Y158.138
G1 F1350 X118.712 Y164.695 E83.77797
G0 F7500 X118.146 Y164.695
G1 F1350 X125.269 Y157.573 E84.11299
G0 F7500 X125.269 Y157.007
G1 F1350 X117.581 Y164.695 E84.47461
G0 F7500 X117.015 Y164.695
G1 F1350 X125.269 Y156.441 E84.86285
G0 F7500 X125.269 Y155.876
G1 F1350 X116.449 Y164.695 E85.2777
G0 F7500 X115.884 Y164.695
G1 F1350 X125.269 Y155.31 E85.71914
G0 F7500 X125.269 Y154.744
G1 F1350 X115.318 Y164.695 E86.1872
G0 F7500 X114.752 Y164.695
G1 F1350 X125.269 Y154.178 E86.68189
G0 F7500 X125.269 Y153.613
G1 F1350 X114.187 Y164.695 E87.20315
G0 F7500 X113.621 Y164.695
G1 F1350 X125.269 Y153.047 E87.75104
G0 F7500 X125.269 Y152.481
G1 F1350 X113.055 Y164.695 E88.32555
G0 F7500 X112.49 Y164.695
G1 F1350 X125.269 Y151.916 E88.92663
G0 F7500 X125.269 Y151.35
G1 F1350 X111.924 Y164.695 E89.55434
G0 F7500 X111.358 Y164.695
G1 F1350 X125.269 Y150.784 E90.20867
G0 F7500 X125.269 Y150.219
G1 F1350 X110.793 Y164.695 E90.88958
G0 F7500 X110.227 Y164.695
G1 F1350 X125.269 Y149.653 E91.59711
G0 F7500 X125.269 Y149.087
G1 F1350 X109.661 Y164.695 E92.33126
G0 F7500 X109.378 Y164.412
G1 F1350 X125.269 Y148.522 E93.0787
G0 F7500 X125.269 Y147.956
G1 F1350 X109.378 Y163.847 E93.82616
G0 F7500 X109.378 Y163.281
G1 F1350 X125.269 Y147.39 E94.57363
G0 F7500 X125.269 Y146.825
G1 F1350 X109.378 Y162.715 E95.32107
G0 F7500 X109.378 Y162.15
G1 F1350 X125.269 Y146.259 E96.06853
G0 F7500 X125.269 Y145.693
G1 F1350 X109.378 Y161.584 E96.816
G0 F7500 X109.378 Y161.018
G1 F1350 X125.269 Y145.128 E97.56344
G0 F7500 X125.269 Y144.562
G1 F1350 X109.378 Y160.453 E98.3109
G0 F7500 X109.378 Y159.887
G1 F1350 X125.269 Y143.996 E99.05836
G0 F7500 X125.269 Y143.43
G1 F1350 X109.378 Y159.321 E99.80583
G0 F7500 X109.378 Y158.756
G1 F1350 X125.269 Y142.865 E100.55329
G0 F7500 X125.269 Y142.299
G1 F1350 X109.378 Y158.19 E101.30076
G0 F7500 X109.378 Y157.624
G1 F1350 X125.269 Y141.733 E102.04822
G0 F7500 X125.269 Y141.168
G1 F1350 X109.378 Y157.059 E102.79568
G0 F7500 X109.378 Y156.493
G1 F1350 X125.269 Y140.602 E103.54315
G0 F7500 X125.269 Y140.036
G1 F1350 X109.378 Y155.927 E104.29061
G0 F7500 X109.378 Y155.361
G1 F1350 X125.269 Y139.471 E105.03805
G0 F7500 X125.269 Y138.905
G1 F1350 X109.378 Y154.796 E105.78552
G0 F7500 X109.378 Y154.23
G1 F1350 X125.269 Y138.339 E106.53298
G0 F7500 X125.269 Y137.774
G1 F1350 X109.378 Y153.664 E107.28042
G0 F7500 X109.378 Y153.099
G1 F1350 X125.269 Y137.208 E108.02788
G0 F7500 X125.269 Y136.642
G1 F1350 X109.378 Y152.533 E108.77535
G0 F7500 X109.378 Y151.967
G1 F1350 X125.269 Y136.077 E109.52279
G0 F7500 X125.269 Y135.511
G1 F1350 X109.378 Y151.402 E110.27025
G0 F7500 X109.378 Y150.836
G1 F1350 X125.269 Y134.945 E111.01772
G0 F7500 X125.269 Y134.379
G1 F1350 X109.378 Y150.27 E111.76518
G0 F7500 X109.378 Y149.705
G1 F1350 X125.269 Y133.814 E112.51264
G0 F7500 X125.269 Y133.248
G1 F1350 X109.378 Y149.139 E113.26011
G0 F7500 X109.378 Y148.573
G1 F1350 X125.269 Y132.682 E114.00757
G0 F7500 X125.269 Y132.117
G1 F1350 X109.378 Y148.008 E114.75504
G0 F7500 X109.378 Y147.442
G1 F1350 X125.269 Y131.551 E115.5025
G0 F7500 X125.269 Y130.985
G1 F1350 X109.378 Y146.876 E116.24996
G0 F7500 X109.378 Y146.31
G1 F1350 X125.269 Y130.42 E116.9974
G0 F7500 X125.269 Y129.854
G1 F1350 X109.378 Y145.745 E117.74487
G0 F7500 X109.378 Y145.179
G1 F1350 X125.269 Y129.288 E118.49233
G0 F7500 X125.07 Y128.921
G1 F1350 X125.269 Y128.723 E118.50167
G0 F7500 X125.07 Y128.356
G1 F1350 X125.269 Y128.157 E118.51103
G0 F7500 X125.07 Y127.79
G1 F1350 X125.269 Y127.591 E118.52039
G0 F7500 X125.452 Y127.409
G1 F1350 X130.513 Y122.347 E118.75847
G0 F7500 X130.513 Y121.782
G1 F1350 X125.07 Y127.224 E119.01447
G0 F7500 X125.07 Y126.659
G1 F1350 X130.513 Y121.216 E119.27049
G0 F7500 X130.513 Y120.65
G1 F1350 X125.07 Y126.093 E119.52651
G0 F7500 X125.07 Y125.527
G1 F1350 X130.513 Y120.085 E119.78251
G0 F7500 X130.513 Y119.519
G1 F1350 X125.07 Y124.962 E120.03853
G0 F7500 X125.07 Y124.396
G1 F1350 X130.513 Y118.953 E120.29455
G0 F7500 X130.513 Y118.388
G1 F1350 X125.07 Y123.83 E120.55055
G0 F7500 X125.07 Y123.264
G1 F1350 X130.513 Y117.822 E120.80655
G0 F7500 X130.513 Y117.256
G1 F1350 X125.07 Y122.699 E121.06257
G0 F7500 X125.07 Y122.133
G1 F1350 X130.513 Y116.691 E121.31857
G0 F7500 X130.513 Y116.125
G1 F1350 X125.07 Y121.567 E121.57457
G0 F7500 X125.07 Y121.002
G1 F1350 X130.513 Y115.559 E121.83059
G0 F7500 X130.513 Y114.993
G1 F1350 X125.07 Y120.436 E122.08661
G0 F7500 X125.07 Y119.87
G1 F1350 X130.513 Y114.428 E122.34261
G0 F7500 X130.513 Y113.862
G1 F1350 X125.07 Y119.305 E122.59863
G0 F7500 X125.07 Y118.739
G1 F1350 X130.513 Y113.296 E122.85466
G0 F7500 X130.513 Y112.731
G1 F1350 X125.07 Y118.173 E123.11065
G0 F7500 X125.07 Y117.608
G1 F1350 X130.513 Y112.165 E123.36668
G0 F7500 X130.513 Y111.599
G1 F1350 X125.07 Y117.042 E123.6227
G0 F7500 X125.07 Y116.476
G1 F1350 X130.513 Y111.034 E123.8787
G0 F7500 X130.513 Y110.468
G1 F1350 X125.07 Y115.911 E124.13472
G0 F7500 X125.07 Y115.345
G1 F1350 X130.513 Y109.902 E124.39074
G0 F7500 X130.513 Y109.337
G1 F1350 X125.07 Y114.779 E124.64674
G0 F7500 X125.07 Y114.214
G1 F1350 X130.513 Y108.771 E124.90276
G0 F7500 X130.513 Y108.205
G1 F1350 X125.07 Y113.648 E125.15878
G0 F7500 X125.07 Y113.082
G1 F1350 X130.513 Y107.64 E125.41478
G0 F7500 X130.513 Y107.074
G1 F1350 X125.07 Y112.516 E125.67078
G0 F7500 X125.07 Y111.951
G1 F1350 X130.513 Y106.508 E125.9268
G0 F7500 X130.513 Y105.942
G1 F1350 X125.07 Y111.385 E126.18282
G0 F7500 X125.07 Y110.819
G1 F1350 X130.513 Y105.377 E126.43882
G0 F7500 X130.513 Y104.811
G1 F1350 X125.07 Y110.254 E126.69484
G0 F7500 X125.07 Y109.688
G1 F1350 X130.513 Y104.245 E126.95087
G0 F7500 X130.513 Y103.68
G1 F1350 X125.07 Y109.122 E127.20687
G0 F7500 X125.07 Y108.557
G1 F1350 X130.513 Y103.114 E127.46289
G0 F7500 X130.513 Y102.548
G1 F1350 X125.07 Y107.991 E127.71891
G0 F7500 X125.07 Y107.425
G1 F1350 X130.513 Y101.983 E127.97491
G0 F7500 X130.513 Y101.417
G1 F1350 X125.07 Y106.86 E128.23093
G0 F7500 X125.07 Y106.294
G1 F1350 X130.513 Y100.851 E128.48695
G0 F7500 X130.513 Y100.286
G1 F1350 X125.07 Y105.728 E128.74295
G0 F7500 X125.07 Y105.163
G1 F1350 X130.469 Y99.764 E128.9969
G0 F7500 X129.904 Y99.764
G1 F1350 X125.07 Y104.597 E129.22426
G0 F7500 X125.07 Y104.031
G1 F1350 X129.338 Y99.764 E129.42499
G0 F7500 X128.772 Y99.764
G1 F1350 X125.07 Y103.465 E129.59909
G0 F7500 X125.07 Y102.9
G1 F1350 X128.206 Y99.764 E129.7466
G0 F7500 X127.641 Y99.764
G1 F1350 X125.07 Y102.334 E129.86751
G0 F7500 X125.07 Y101.768
G1 F1350 X127.075 Y99.764 E129.96179
G0 F7500 X126.509 Y99.764
G1 F1350 X125.07 Y101.203 E130.02948
G0 F7500 X125.07 Y100.637
G1 F1350 X125.944 Y99.764 E130.07057
G0 F7500 X125.378 Y99.764
G1 F1350 X125.07 Y100.071 E130.08503
G1 F2700 E125.08503
G0 F7500 X124.631 Y100.071
G0 X124.349 Y128.633
G0 X110.758 Y128.633
G0 X110.476 Y99.833
G1 F2700 E130.08503
G0 F7500 X110.035 Y99.833
G1 F1350 X104.593 Y105.276 E130.34103
G0 F7500 X104.593 Y105.841
G1 F1350 X110.035 Y100.399 E130.59701
G0 F7500 X110.035 Y100.964
G1 F1350 X104.593 Y106.407 E130.853
G0 F7500 X104.593 Y106.973
G1 F1350 X110.035 Y101.53 E131.109
G0 F7500 X110.035 Y102.096
G1 F1350 X104.593 Y107.538 E131.36498
G0 F7500 X104.593 Y108.104
G1 F1350 X110.035 Y102.662 E131.62095
G0 F7500 X110.035 Y103.227
G1 F1350 X104.593 Y108.67 E131.87695
G0 F7500 X104.593 Y109.235
G1 F1350 X110.035 Y103.793 E132.13293
G0 F7500 X110.035 Y104.359
G1 F1350 X104.593 Y109.801 E132.3889
G0 F7500 X104.593 Y110.367
G1 F1350 X110.035 Y104.924 E132.6449
G0 F7500 X110.035 Y105.49
G1 F1350 X104.593 Y110.933 E132.9009
G0 F7500 X104.593 Y111.498
G1 F1350 X110.035 Y106.056 E133.15687
G0 F7500 X110.035 Y106.621
G1 F1350 X104.593 Y112.064 E133.41287
G0 F7500 X104.593 Y112.63
G1 F1350 X110.035 Y107.187 E133.66887
G0 F7500 X110.035 Y107.753
G1 F1350 X104.593 Y113.195 E133.92484
G0 F7500 X104.593 Y113.761
G1 F1350 X110.035 Y108.318 E134.18084
G0 F7500 X110.035 Y108.884
G1 F1350 X104.593 Y114.327 E134.43684
G0 F7500 X104.593 Y114.892
G1 F1350 X110.035 Y109.45 E134.69282
G0 F7500 X110.035 Y110.015
G1 F1350 X104.593 Y115.458 E134.94882
G0 F7500 X104.593 Y116.024
G1 F1350 X110.035 Y110.581 E135.20481
G0 F7500 X110.035 Y111.147
G1 F1350 X104.593 Y116.589 E135.46079
G0 F7500 X104.593 Y117.155
G1 F1350 X110.035 Y111.712 E135.71679
G0 F7500 X110.035 Y112.278
G1 F1350 X104.593 Y117.721 E135.97279
G0 F7500 X104.593 Y118.286
G1 F1350 X110.035 Y112.844 E136.22876
G0 F7500 X110.035 Y113.41
G1 F1350 X104.593 Y118.852 E136.48474
G0 F7500 X104.593 Y119.418
G1 F1350 X110.035 Y113.975 E136.74073
G0 F7500 X110.035 Y114.541
G1 F1350 X104.593 Y119.983 E136.99671
G0 F7500 X104.593 Y120.549
G1 F1350 X110.035 Y115.107 E137.25268
G0 F7500 X110.035 Y115.672
G1 F1350 X104.593 Y121.115 E137.50868
G0 F7500 X104.593 Y121.681
G1 F1350 X110.035 Y116.238 E137.76468
G0 F7500 X110.035 Y116.804
G1 F1350 X104.593 Y122.246 E138.02066
G0 F7500 X104.593 Y122.812
G1 F1350 X110.035 Y117.369 E138.27665
G0 F7500 X110.035 Y117.935
G1 F1350 X104.593 Y123.378 E138.53265
G0 F7500 X104.593 Y123.943
G1 F1350 X110.035 Y118.501 E138.78863
G0 F7500 X110.035 Y119.066
G1 F1350 X104.593 Y124.509 E139.04463
G0 F7500 X104.593 Y125.075
G1 F1350 X110.035 Y119.632 E139.30063
G0 F7500 X110.035 Y120.198
G1 F1350 X104.593 Y125.64 E139.5566
G0 F7500 X104.593 Y126.206
G1 F1350 X110.035 Y120.763 E139.8126
G0 F7500 X110.035 Y121.329
G1 F1350 X104.593 Y126.772 E140.0686
G0 F7500 X104.593 Y127.337
G1 F1350 X110.035 Y121.895 E140.32457
G0 F7500 X110.035 Y122.46
G1 F1350 X105.088 Y127.408 E140.55729
G0 F7500 X105.653 Y127.408
G1 F1350 X110.035 Y123.026 E140.7634
G0 F7500 X110.035 Y123.592
G1 F1350 X106.219 Y127.408 E140.9429
G0 F7500 X106.785 Y127.408
G1 F1350 X110.035 Y124.158 E141.09577
G0 F7500 X110.035 Y124.723
G1 F1350 X107.35 Y127.408 E141.22206
G0 F7500 X107.916 Y127.408
G1 F1350 X110.035 Y125.289 E141.32173
G0 F7500 X110.035 Y125.855
G1 F1350 X108.482 Y127.408 E141.39478
G0 F7500 X109.047 Y127.408
G1 F1350 X110.035 Y126.42 E141.44125
G0 F7500 X110.035 Y126.986
G1 F1350 X109.378 Y127.643 E141.47216
G0 F7500 X109.378 Y128.209
G1 F1350 X110.035 Y127.552 E141.50306
G0 F7500 X110.035 Y128.117
G1 F1350 X109.378 Y128.774 E141.53396
G0 F7500 X109.378 Y129.34
G1 F1350 X110.035 Y128.683 E141.56487
G0 F7500 X110.035 Y129.249
G1 F1350 X109.378 Y129.906 E141.59577
G0 F7500 X109.378 Y130.471
G1 F1350 X110.496 Y129.353 E141.64836
G0 F7500 X111.062 Y129.353
G1 F1350 X109.378 Y131.037 E141.72757
G0 F7500 X109.378 Y131.603
G1 F1350 X111.628 Y129.353 E141.8334
G0 F7500 X112.193 Y129.353
G1 F1350 X109.378 Y132.168 E141.96581
G0 F7500 X109.378 Y132.734
G1 F1350 X112.759 Y129.353 E142.12484
G0 F7500 X113.325 Y129.353
G1 F1350 X109.378 Y133.3 E142.3105
G0 F7500 X109.378 Y133.865
G1 F1350 X113.89 Y129.353 E142.52273
G0 F7500 X114.456 Y129.353
G1 F1350 X109.378 Y134.431 E142.76158
G0 F7500 X109.378 Y134.997
G1 F1350 X115.022 Y129.353 E143.02706
G0 F7500 X115.587 Y129.353
G1 F1350 X109.378 Y135.562 E143.31911
G0 F7500 X109.378 Y136.128
G1 F1350 X116.153 Y129.353 E143.63778
G0 F7500 X116.719 Y129.353
G1 F1350 X109.378 Y136.694 E143.98308
G0 F7500 X109.378 Y137.26
G1 F1350 X117.284 Y129.353 E144.35498
G0 F7500 X117.85 Y129.353
G1 F1350 X109.378 Y137.825 E144.75348
G0 F7500 X109.378 Y138.391
G1 F1350 X118.416 Y129.353 E145.1786
G0 F7500 X118.982 Y129.353
G1 F1350 X109.378 Y138.957 E145.63034
G0 F7500 X109.378 Y139.522
G1 F1350 X119.547 Y129.353 E146.10866
G0 F7500 X120.113 Y129.353
G1 F1350 X109.378 Y140.088 E146.6136
G0 F7500 X109.378 Y140.654
G1 F1350 X120.679 Y129.353 E147.14516
G0 F7500 X121.244 Y129.353
G1 F1350 X109.378 Y141.219 E147.7033
G0 F7500 X109.378 Y141.785
G1 F1350 X121.81 Y129.353 E148.28807
G0 F7500 X122.376 Y129.353
G1 F1350 X109.378 Y142.351 E148.89945
G0 F7500 X109.378 Y142.916
G1 F1350 X122.941 Y129.353 E149.53741
G0 F7500 X123.507 Y129.353
G1 F1350 X109.378 Y143.482 E150.202
G0 F7500 X109.378 Y144.048
G1 F1350 X124.073 Y129.353 E150.89321
G0 F7500 X124.638 Y129.353
G1 F1350 X109.378 Y144.613 E151.61099
G1 F2700 E146.61099
G0 F7500 X108.939 Y144.613
G0 X109.011 Y165.064
G0 X125.638 Y165.064
G0 X126.017 Y127.849
G1 F2700 E151.61099
G0 F7500 X126.017 Y127.409
G1 F1350 X130.513 Y122.913 E151.82247
G0 F7500 X130.513 Y123.479
G1 F1350 X126.583 Y127.409 E152.00732
G0 F7500 X127.149 Y127.409
G1 F1350 X130.513 Y124.044 E152.16558
G0 F7500 X130.513 Y124.61
G1 F1350 X127.714 Y127.409 E152.29724
G0 F7500 X128.28 Y127.409
G1 F1350 X130.513 Y125.176 E152.40227
G0 F7500 X130.513 Y125.741
G1 F1350 X128.846 Y127.409 E152.4807
G0 F7500 X129.411 Y127.409
G1 F1350 X130.513 Y126.307 E152.53254
G0 F7500 X130.513 Y126.873
G1 F1350 X129.977 Y127.409 E152.55775
G1 F2700 E147.55775
G0 F7500 X129.977 Y127.849
G0 X130.882 Y127.777
G0 X130.882 Y99.396
G0 X124.703 Y99.396
G0 X124.349 Y128.633
G0 X110.758 Y128.633
G0 X110.404 Y99.396
G0 X104.225 Y99.396
G0 X104.153 Y104.71
G1 F2700 E152.55775
G0 F7500 X104.593 Y104.71
G1 F1350 X109.539 Y99.764 E152.79039
G0 F7500 X108.973 Y99.764
G1 F1350 X104.593 Y104.144 E152.99642
G0 F7500 X104.593 Y103.579
G1 F1350 X108.407 Y99.764 E153.17584
G0 F7500 X107.842 Y99.764
G1 F1350 X104.593 Y103.013 E153.32866
G0 F7500 X104.593 Y102.447
G1 F1350 X107.276 Y99.764 E153.45486
G0 F7500 X106.71 Y99.764
G1 F1350 X104.593 Y101.882 E153.55446
G0 F7500 X104.593 Y101.316
G1 F1350 X106.145 Y99.764 E153.62746
G0 F7500 X105.579 Y99.764
G1 F1350 X104.593 Y100.75 E153.67384
G0 F7500 X104.593 Y100.185
G1 F1350 X105.013 Y99.764 E153.69362
G0 F7500 X105.013 Y99.414
G1 F2700 E148.69362
G0 F7500 X105.013 Y99.324
G0 X110.772 Y99.028
G0 X111.851 Y99.028
G0 X121.112 Y92.85
G0 X122.091 Y92.85
G1 F2700 E153.69362
G0 F7500 X121.977 Y92.964
;TYPE:WALL-OUTER
G1 F1350 X121.977 Y92.394 E153.71258
G1 X129.319 Y92.393 E153.95678
G1 X129.319 Y92.964 E153.97577
G1 X121.977 Y92.964 E154.21996
G0 F7500 X122.281 Y92.678
;TYPE:SKIN
G1 F1350 X122.564 Y92.678 E154.22544
G1 X128.786 Y92.678 E154.34595
G1 X129.051 Y92.697 E154.35109
G1 F2700 E149.35109
G0 F7500 X129.119 Y92.605
G0 X122.097 Y92.794
G0 X121.112 Y92.794
G0 X113.734 Y92.794
G0 X112.749 Y92.794
G1 F2700 E154.35109
G0 F7500 X112.869 Y92.964
;TYPE:WALL-OUTER
G1 F1350 X105.527 Y92.964 E154.59529
G1 X105.527 Y92.394 E154.61425
G1 X112.869 Y92.393 E154.85844
G1 X112.869 Y92.964 E154.87744
G0 F7500 X112.623 Y92.719
;TYPE:SKIN
G1 F1350 X112.381 Y92.678 E154.88213
G1 X106.159 Y92.678 E155.00119
G0 F7500 X105.987 Y92.568
G1 F1350 X105.766 Y92.789 E155.00638
G1 F2700 E150.00638
;MESH:NONMESH
G0 F300 X105.766 Y92.789 Z0.6
G0 F7500 X105.766 Y92.764
G0 X112.755 Y92.85
G0 X112.755 Y93.829
G0 X112.755 Y127.54
G0 X112.755 Y128.625
G0 X124.703 Y128.987
G0 X124.703 Y99.396
G0 X130.882 Y99.396
G0 X130.882 Y127.777
G0 X125.638 Y127.777
G0 X125.82 Y165.246
;TIME_ELAPSED:262.621134
;LAYER:2
M106 S170
;TYPE:WALL-INNER
;MESH:_????????_21.stl
G1 F2700 E155.00638
G1 F1500 X108.829 Y165.246 E155.57151
G1 X108.829 Y127.959 E156.81168
G1 X104.043 Y127.959 E156.97086
G1 X104.043 Y99.214 E157.92692
G1 X110.586 Y99.214 E158.14454
G1 X110.586 Y128.805 E159.12874
G1 X124.521 Y128.805 E159.59222
G1 X124.521 Y99.214 E160.57642
G1 X131.064 Y99.214 E160.79405
G1 X131.064 Y127.959 E161.75011
G1 X125.82 Y127.959 E161.92452
G1 X125.82 Y165.246 E163.16469
G0 F9000 X126.22 Y165.646
;TYPE:WALL-OUTER
G1 F1500 X108.429 Y165.646 E163.75643
G1 X108.429 Y128.359 E164.9966
G1 X103.643 Y128.359 E165.15578
G1 X103.643 Y98.814 E166.13845
G1 X110.986 Y98.814 E166.38268
G1 X110.986 Y128.405 E167.36688
G1 X124.121 Y128.405 E167.80375
G1 X124.121 Y98.814 E168.78795
G1 X131.464 Y98.814 E169.03218
G1 X131.464 Y128.359 E170.01485
G1 X126.22 Y128.359 E170.18927
G1 X126.22 Y165.646 E171.42944
G0 F9000 X125.95 Y165.376
G0 X125.71 Y164.856
G0 X125.43 Y164.856
;TYPE:SKIN
G1 F1500 X109.219 Y164.856 E171.96862
G1 X109.219 Y127.569 E173.20879
G1 X104.433 Y127.569 E173.36797
G1 X104.433 Y99.604 E174.29809
G1 X110.196 Y99.604 E174.48977
G1 X110.196 Y129.195 E175.47397
G1 X124.911 Y129.195 E175.96339
G1 X124.911 Y99.604 E176.9476
G1 X130.674 Y99.604 E177.13927
G1 X130.674 Y127.569 E178.06939
G1 X125.43 Y127.569 E178.24381
G1 X125.43 Y164.856 E179.48398
G0 F9000 X125.71 Y164.856
G0 X109.823 Y165.136
G0 X109.823 Y164.695
G1 F1500 X109.378 Y164.25 E179.50491
G0 F9000 X109.378 Y163.684
G1 F1500 X110.389 Y164.695 E179.55247
G0 F9000 X110.954 Y164.695
G1 F1500 X109.378 Y163.118 E179.62662
G0 F9000 X109.378 Y162.553
G1 F1500 X111.52 Y164.695 E179.72737
G0 F9000 X112.086 Y164.695
G1 F1500 X109.378 Y161.987 E179.85475
G0 F9000 X109.378 Y161.421
G1 F1500 X112.652 Y164.695 E180.00875
G0 F9000 X113.217 Y164.695
G1 F1500 X109.378 Y160.856 E180.18932
G0 F9000 X109.378 Y160.29
G1 F1500 X113.783 Y164.695 E180.39652
G0 F9000 X114.349 Y164.695
G1 F1500 X109.378 Y159.724 E180.63034
G0 F9000 X109.378 Y159.159
G1 F1500 X114.914 Y164.695 E180.89074
G0 F9000 X115.48 Y164.695
G1 F1500 X109.378 Y158.593 E181.17776
G0 F9000 X109.378 Y158.027
G1 F1500 X116.046 Y164.695 E181.4914
G0 F9000 X116.611 Y164.695
G1 F1500 X109.378 Y157.462 E181.83162
G0 F9000 X109.378 Y156.896
G1 F1500 X117.177 Y164.695 E182.19846
G0 F9000 X117.743 Y164.695
G1 F1500 X109.378 Y156.33 E182.59192
G0 F9000 X109.378 Y155.765
G1 F1500 X118.308 Y164.695 E183.01196
G0 F9000 X118.874 Y164.695
G1 F1500 X109.378 Y155.199 E183.45862
G0 F9000 X109.378 Y154.633
G1 F1500 X119.44 Y164.695 E183.93191
G0 F9000 X120.005 Y164.695
G1 F1500 X109.378 Y154.067 E184.43179
G0 F9000 X109.378 Y153.502
G1 F1500 X120.571 Y164.695 E184.95828
G0 F9000 X121.137 Y164.695
G1 F1500 X109.378 Y152.936 E185.51139
G0 F9000 X109.378 Y152.37
G1 F1500 X121.702 Y164.695 E186.09109
G0 F9000 X122.268 Y164.695
G1 F1500 X109.378 Y151.805 E186.6974
G0 F9000 X109.378 Y151.239
G1 F1500 X122.834 Y164.695 E187.33033
G0 F9000 X123.4 Y164.695
G1 F1500 X109.378 Y150.673 E187.98988
G0 F9000 X109.378 Y150.108
G1 F1500 X123.965 Y164.695 E188.67601
G0 F9000 X124.531 Y164.695
G1 F1500 X109.378 Y149.542 E189.38876
G0 F9000 X109.378 Y148.976
G1 F1500 X125.097 Y164.695 E190.12813
G0 F9000 X125.27 Y164.302
G1 F1500 X109.378 Y148.411 E190.87562
G0 F9000 X109.378 Y147.845
G1 F1500 X125.27 Y163.736 E191.62311
G0 F9000 X125.27 Y163.171
G1 F1500 X109.378 Y147.279 E192.37062
G0 F9000 X109.378 Y146.714
G1 F1500 X125.27 Y162.605 E193.11811
G0 F9000 X125.27 Y162.039
G1 F1500 X109.378 Y146.148 E193.86559
G0 F9000 X109.378 Y145.582
G1 F1500 X125.27 Y161.474 E194.6131
G0 F9000 X125.27 Y160.908
G1 F1500 X109.378 Y145.016 E195.36061
G0 F9000 X109.378 Y144.451
G1 F1500 X125.27 Y160.342 E196.1081
G0 F9000 X125.27 Y159.777
G1 F1500 X109.378 Y143.885 E196.85561
G0 F9000 X109.378 Y143.319
G1 F1500 X125.27 Y159.211 E197.60312
G0 F9000 X125.27 Y158.645
G1 F1500 X109.378 Y142.754 E198.35061
G0 F9000 X109.378 Y142.188
G1 F1500 X125.27 Y158.08 E199.09812
G0 F9000 X125.27 Y157.514
G1 F1500 X109.378 Y141.622 E199.84563
G0 F9000 X109.378 Y141.057
G1 F1500 X125.27 Y156.948 E200.59312
G0 F9000 X125.27 Y156.383
G1 F1500 X109.378 Y140.491 E201.34063
G0 F9000 X109.378 Y139.925
G1 F1500 X125.27 Y155.817 E202.08814
G0 F9000 X125.27 Y155.251
G1 F1500 X109.378 Y139.36 E202.83563
G0 F9000 X109.378 Y138.794
G1 F1500 X125.27 Y154.685 E203.58312
G0 F9000 X125.27 Y154.12
G1 F1500 X109.378 Y138.228 E204.33063
G0 F9000 X109.378 Y137.663
G1 F1500 X125.27 Y153.554 E205.07812
G0 F9000 X125.27 Y152.988
G1 F1500 X109.378 Y137.097 E205.8256
G0 F9000 X109.378 Y136.531
G1 F1500 X125.27 Y152.423 E206.57311
G0 F9000 X125.27 Y151.857
G1 F1500 X109.378 Y135.966 E207.3206
G0 F9000 X109.378 Y135.4
G1 F1500 X125.27 Y151.291 E208.06809
G0 F9000 X125.27 Y150.726
G1 F1500 X109.378 Y134.834 E208.8156
G0 F9000 X109.378 Y134.268
G1 F1500 X125.27 Y150.16 E209.56311
G0 F9000 X125.27 Y149.594
G1 F1500 X109.378 Y133.703 E210.3106
G0 F9000 X109.378 Y133.137
G1 F1500 X125.27 Y149.029 E211.05811
G0 F9000 X125.27 Y148.463
G1 F1500 X109.378 Y132.571 E211.80562
G0 F9000 X109.378 Y132.006
G1 F1500 X125.27 Y147.897 E212.55311
G0 F9000 X125.27 Y147.332
G1 F1500 X109.378 Y131.44 E213.30062
G0 F9000 X109.378 Y130.874
G1 F1500 X125.27 Y146.766 E214.04813
G0 F9000 X125.27 Y146.2
G1 F1500 X109.378 Y130.309 E214.79562
G0 F9000 X109.378 Y129.743
G1 F1500 X125.27 Y145.635 E215.54313
G0 F9000 X125.27 Y145.069
G1 F1500 X109.378 Y129.177 E216.29064
G0 F9000 X109.378 Y128.612
G1 F1500 X110.035 Y129.269 E216.32154
G0 F9000 X110.121 Y129.354
G1 F1500 X125.27 Y144.503 E217.03411
G0 F9000 X125.27 Y143.937
G1 F1500 X110.686 Y129.354 E217.72007
G0 F9000 X111.252 Y129.354
G1 F1500 X125.27 Y143.372 E218.37943
G0 F9000 X125.27 Y142.806
G1 F1500 X111.818 Y129.354 E219.01217
G0 F9000 X112.384 Y129.354
G1 F1500 X125.27 Y142.24 E219.61829
G0 F9000 X125.27 Y141.675
G1 F1500 X112.949 Y129.354 E220.19783
G0 F9000 X113.515 Y129.354
G1 F1500 X125.27 Y141.109 E220.75075
G0 F9000 X125.27 Y140.543
G1 F1500 X114.081 Y129.354 E221.27705
G0 F9000 X114.646 Y129.354
G1 F1500 X125.27 Y139.978 E221.77677
G0 F9000 X125.27 Y139.412
G1 F1500 X115.212 Y129.354 E222.24987
G0 F9000 X115.778 Y129.354
G1 F1500 X125.27 Y138.846 E222.69634
G0 F9000 X125.27 Y138.281
G1 F1500 X116.343 Y129.354 E223.11624
G0 F9000 X116.909 Y129.354
G1 F1500 X125.27 Y137.715 E223.50952
G0 F9000 X125.27 Y137.149
G1 F1500 X117.475 Y129.354 E223.87617
G0 F9000 X118.04 Y129.354
G1 F1500 X125.27 Y136.584 E224.21625
G0 F9000 X125.27 Y136.018
G1 F1500 X118.606 Y129.354 E224.5297
G0 F9000 X119.172 Y129.354
G1 F1500 X125.27 Y135.452 E224.81653
G0 F9000 X125.27 Y134.886
G1 F1500 X119.737 Y129.354 E225.07676
G0 F9000 X120.303 Y129.354
G1 F1500 X125.27 Y134.321 E225.31039
G0 F9000 X125.27 Y133.755
G1 F1500 X120.869 Y129.354 E225.5174
G0 F9000 X121.434 Y129.354
G1 F1500 X125.27 Y133.189 E225.69781
G0 F9000 X125.27 Y132.624
G1 F1500 X122 Y129.354 E225.85163
G0 F9000 X122.566 Y129.354
G1 F1500 X125.27 Y132.058 E225.97881
G0 F9000 X125.27 Y131.492
G1 F1500 X123.132 Y129.354 E226.07938
G0 F9000 X123.697 Y129.354
G1 F1500 X125.27 Y130.927 E226.15337
G0 F9000 X125.27 Y130.361
G1 F1500 X124.263 Y129.354 E226.20073
G0 F9000 X124.829 Y129.354
G1 F1500 X125.27 Y129.795 E226.22148
G0 F9000 X125.27 Y129.23
G1 F1500 X125.07 Y129.03 E226.23088
G0 F9000 X125.27 Y128.664
G1 F1500 X125.07 Y128.464 E226.24029
G0 F9000 X125.27 Y128.098
G1 F1500 X125.07 Y127.898 E226.2497
G0 F9000 X125.27 Y127.533
G1 F1500 X125.07 Y127.332 E226.25913
G0 F9000 X125.07 Y126.767
G1 F1500 X125.711 Y127.408 E226.28928
G0 F9000 X126.277 Y127.408
G1 F1500 X125.07 Y126.201 E226.34605
G0 F9000 X125.07 Y125.635
G1 F1500 X126.842 Y127.408 E226.42943
G0 F9000 X127.408 Y127.408
G1 F1500 X125.07 Y125.07 E226.5394
G0 F9000 X125.07 Y124.504
G1 F1500 X127.974 Y127.408 E226.67599
G0 F9000 X128.539 Y127.408
G1 F1500 X125.07 Y123.938 E226.83919
G0 F9000 X125.07 Y123.373
G1 F1500 X129.105 Y127.408 E227.02898
G0 F9000 X129.671 Y127.408
G1 F1500 X125.07 Y122.807 E227.2454
G0 F9000 X125.07 Y122.241
G1 F1500 X130.237 Y127.408 E227.48844
G0 F9000 X130.513 Y127.119
G1 F1500 X125.07 Y121.676 E227.74446
G0 F9000 X125.07 Y121.11
G1 F1500 X130.513 Y126.553 E228.00048
G0 F9000 X130.513 Y125.988
G1 F1500 X125.07 Y120.544 E228.25653
G0 F9000 X125.07 Y119.979
G1 F1500 X130.513 Y125.422 E228.51255
G0 F9000 X130.513 Y124.856
G1 F1500 X125.07 Y119.413 E228.76857
G0 F9000 X125.07 Y118.847
G1 F1500 X130.513 Y124.29 E229.0246
G0 F9000 X130.513 Y123.725
G1 F1500 X125.07 Y118.281 E229.28064
G0 F9000 X125.07 Y117.716
G1 F1500 X130.513 Y123.159 E229.53666
G0 F9000 X130.513 Y122.593
G1 F1500 X125.07 Y117.15 E229.79269
G0 F9000 X125.07 Y116.584
G1 F1500 X130.513 Y122.028 E230.04873
G0 F9000 X130.513 Y121.462
G1 F1500 X125.07 Y116.019 E230.30475
G0 F9000 X125.07 Y115.453
G1 F1500 X130.513 Y120.896 E230.56078
G0 F9000 X130.513 Y120.331
G1 F1500 X125.07 Y114.887 E230.81682
G0 F9000 X125.07 Y114.322
G1 F1500 X130.513 Y119.765 E231.07284
G0 F9000 X130.513 Y119.199
G1 F1500 X125.07 Y113.756 E231.32886
G0 F9000 X125.07 Y113.19
G1 F1500 X130.513 Y118.634 E231.58491
G0 F9000 X130.513 Y118.068
G1 F1500 X125.07 Y112.625 E231.84093
G0 F9000 X125.07 Y112.059
G1 F1500 X130.513 Y117.502 E232.09695
G0 F9000 X130.513 Y116.937
G1 F1500 X125.07 Y111.493 E232.353
G0 F9000 X125.07 Y110.928
G1 F1500 X130.513 Y116.371 E232.60902
G0 F9000 X130.513 Y115.805
G1 F1500 X125.07 Y110.362 E232.86504
G0 F9000 X125.07 Y109.796
G1 F1500 X130.513 Y115.24 E233.12109
G0 F9000 X130.513 Y114.674
G1 F1500 X125.07 Y109.231 E233.37711
G0 F9000 X125.07 Y108.665
G1 F1500 X130.513 Y114.108 E233.63313
G0 F9000 X130.513 Y113.542
G1 F1500 X125.07 Y108.099 E233.88916
G0 F9000 X125.07 Y107.533
G1 F1500 X130.513 Y112.977 E234.1452
G0 F9000 X130.513 Y112.411
G1 F1500 X125.07 Y106.968 E234.40122
G0 F9000 X125.07 Y106.402
G1 F1500 X130.513 Y111.845 E234.65725
G0 F9000 X130.513 Y111.28
G1 F1500 X125.07 Y105.836 E234.91329
G0 F9000 X125.07 Y105.271
G1 F1500 X130.513 Y110.714 E235.16931
G0 F9000 X130.513 Y110.148
G1 F1500 X125.07 Y104.705 E235.42533
G0 F9000 X125.07 Y104.139
G1 F1500 X130.513 Y109.583 E235.68138
G0 F9000 X130.513 Y109.017
G1 F1500 X125.07 Y103.574 E235.9374
G0 F9000 X125.07 Y103.008
G1 F1500 X130.513 Y108.451 E236.19342
G0 F9000 X130.513 Y107.886
G1 F1500 X125.07 Y102.442 E236.44947
G0 F9000 X125.07 Y101.877
G1 F1500 X130.513 Y107.32 E236.70549
G0 F9000 X130.513 Y106.754
G1 F1500 X125.07 Y101.311 E236.96151
G0 F9000 X125.07 Y100.745
G1 F1500 X130.513 Y106.189 E237.21756
G0 F9000 X130.513 Y105.623
G1 F1500 X125.07 Y100.18 E237.47358
G0 F9000 X125.22 Y99.764
G1 F1500 X130.513 Y105.057 E237.72255
G0 F9000 X130.513 Y104.491
G1 F1500 X125.785 Y99.764 E237.94492
G0 F9000 X126.351 Y99.764
G1 F1500 X130.513 Y103.926 E238.14068
G0 F9000 X130.513 Y103.36
G1 F1500 X126.917 Y99.764 E238.30983
G0 F9000 X127.482 Y99.764
G1 F1500 X130.513 Y102.794 E238.45237
G0 F9000 X130.513 Y102.229
G1 F1500 X128.048 Y99.764 E238.56832
G0 F9000 X128.614 Y99.764
G1 F1500 X130.513 Y101.663 E238.65764
G0 F9000 X130.513 Y101.097
G1 F1500 X129.179 Y99.764 E238.72037
G0 F9000 X129.745 Y99.764
G1 F1500 X130.513 Y100.532 E238.75649
G0 F9000 X130.513 Y99.966
G1 F1500 X130.311 Y99.764 E238.76599
G1 F2700 E233.76599
G0 F9000 X130.311 Y99.324
G0 X124.703 Y99.396
G0 X124.349 Y128.633
G0 X110.758 Y128.633
G0 X110.476 Y99.853
G1 F2700 E238.76599
G0 F9000 X110.035 Y99.853
G1 F1500 X109.946 Y99.764 E238.77018
G0 F9000 X109.38 Y99.764
G1 F1500 X110.035 Y100.419 E238.80099
G0 F9000 X110.035 Y100.984
G1 F1500 X108.815 Y99.764 E238.85837
G0 F9000 X108.249 Y99.764
G1 F1500 X110.035 Y101.55 E238.94238
G0 F9000 X110.035 Y102.116
G1 F1500 X107.683 Y99.764 E239.05301
G0 F9000 X107.118 Y99.764
G1 F1500 X110.035 Y102.681 E239.19022
G0 F9000 X110.035 Y103.247
G1 F1500 X106.552 Y99.764 E239.35405
G0 F9000 X105.986 Y99.764
G1 F1500 X110.035 Y103.813 E239.5445
G0 F9000 X110.035 Y104.378
G1 F1500 X105.421 Y99.764 E239.76153
G0 F9000 X104.855 Y99.764
G1 F1500 X110.035 Y104.944 E240.00518
G0 F9000 X110.035 Y105.51
G1 F1500 X104.592 Y100.066 E240.26123
G0 F9000 X104.592 Y100.632
G1 F1500 X110.035 Y106.075 E240.51725
G0 F9000 X110.035 Y106.641
G1 F1500 X104.592 Y101.198 E240.77327
G0 F9000 X104.592 Y101.763
G1 F1500 X110.035 Y107.207 E241.02932
G0 F9000 X110.035 Y107.772
G1 F1500 X104.592 Y102.329 E241.28534
G0 F9000 X104.592 Y102.895
G1 F1500 X110.035 Y108.338 E241.54136
G0 F9000 X110.035 Y108.904
G1 F1500 X104.592 Y103.461 E241.79738
G0 F9000 X104.592 Y104.026
G1 F1500 X110.035 Y109.47 E242.05343
G0 F9000 X110.035 Y110.035
G1 F1500 X104.592 Y104.592 E242.30945
G0 F9000 X104.592 Y105.158
G1 F1500 X110.035 Y110.601 E242.56547
G0 F9000 X110.035 Y111.167
G1 F1500 X104.592 Y105.723 E242.82152
G0 F9000 X104.592 Y106.289
G1 F1500 X110.035 Y111.732 E243.07754
G0 F9000 X110.035 Y112.298
G1 F1500 X104.592 Y106.855 E243.33356
G0 F9000 X104.592 Y107.42
G1 F1500 X110.035 Y112.864 E243.58961
G0 F9000 X110.035 Y113.429
G1 F1500 X104.592 Y107.986 E243.84563
G0 F9000 X104.592 Y108.552
G1 F1500 X110.035 Y113.995 E244.10165
G0 F9000 X110.035 Y114.561
G1 F1500 X104.592 Y109.117 E244.3577
G0 F9000 X104.592 Y109.683
G1 F1500 X110.035 Y115.126 E244.61372
G0 F9000 X110.035 Y115.692
G1 F1500 X104.592 Y110.249 E244.86974
G0 F9000 X104.592 Y110.814
G1 F1500 X110.035 Y116.258 E245.12579
G0 F9000 X110.035 Y116.823
G1 F1500 X104.592 Y111.38 E245.38181
G0 F9000 X104.592 Y111.946
G1 F1500 X110.035 Y117.389 E245.63783
G0 F9000 X110.035 Y117.955
G1 F1500 X104.592 Y112.512 E245.89385
G0 F9000 X104.592 Y113.077
G1 F1500 X110.035 Y118.52 E246.14987
G0 F9000 X110.035 Y119.086
G1 F1500 X104.592 Y113.643 E246.4059
G0 F9000 X104.592 Y114.209
G1 F1500 X110.035 Y119.652 E246.66192
G0 F9000 X110.035 Y120.218
G1 F1500 X104.592 Y114.774 E246.91796
G0 F9000 X104.592 Y115.34
G1 F1500 X110.035 Y120.783 E247.17399
G0 F9000 X110.035 Y121.349
G1 F1500 X104.592 Y115.906 E247.43001
G0 F9000 X104.592 Y116.471
G1 F1500 X110.035 Y121.915 E247.68605
G0 F9000 X110.035 Y122.48
G1 F1500 X104.592 Y117.037 E247.94207
G0 F9000 X104.592 Y117.603
G1 F1500 X110.035 Y123.046 E248.1981
G0 F9000 X110.035 Y123.612
G1 F1500 X104.592 Y118.168 E248.45414
G0 F9000 X104.592 Y118.734
G1 F1500 X110.035 Y124.177 E248.71016
G0 F9000 X110.035 Y124.743
G1 F1500 X104.592 Y119.3 E248.96619
G0 F9000 X104.592 Y119.865
G1 F1500 X110.035 Y125.309 E249.22223
G0 F9000 X110.035 Y125.874
G1 F1500 X104.592 Y120.431 E249.47825
G0 F9000 X104.592 Y120.997
G1 F1500 X110.035 Y126.44 E249.73428
G0 F9000 X110.035 Y127.006
G1 F1500 X104.592 Y121.562 E249.99032
G0 F9000 X104.592 Y122.128
G1 F1500 X110.035 Y127.571 E250.24634
G0 F9000 X110.035 Y128.137
G1 F1500 X109.378 Y127.48 E250.27725
G0 F9000 X109.306 Y127.408
G1 F1500 X104.592 Y122.694 E250.49898
G0 F9000 X104.592 Y123.26
G1 F1500 X108.741 Y127.408 E250.69411
G0 F9000 X108.175 Y127.408
G1 F1500 X104.592 Y123.825 E250.86264
G0 F9000 X104.592 Y124.391
G1 F1500 X107.609 Y127.408 E251.00456
G0 F9000 X107.043 Y127.408
G1 F1500 X104.592 Y124.957 E251.11984
G0 F9000 X104.592 Y125.522
G1 F1500 X106.478 Y127.408 E251.20855
G0 F9000 X105.912 Y127.408
G1 F1500 X104.592 Y126.088 E251.27064
G0 F9000 X104.592 Y126.654
G1 F1500 X105.346 Y127.408 E251.30611
G0 F9000 X104.781 Y127.408
G1 F1500 X104.592 Y127.219 E251.315
G0 F9000 X104.153 Y127.219
G0 X104.225 Y127.777
G0 X108.939 Y128.046
G0 X109.378 Y128.046
G1 F1500 X110.035 Y128.703 E251.3459
G0 F9000 X110.504 Y128.887
G1 F2700 E246.3459
G0 F9000 X110.772 Y99.028
G0 X111.851 Y99.028
G0 X121.112 Y92.819
G0 X122.191 Y92.819
G0 X122.377 Y92.633
;TYPE:WALL-INNER
G1 F2700 E251.3459
G1 F1500 X122.377 Y92.217 E251.35974
G1 X128.72 Y92.216 E251.57071
G1 X128.919 Y92.216 E251.57733
G1 X128.919 Y92.415 E251.58161
G1 X128.919 Y92.633 E251.58886
G1 X122.377 Y92.633 E251.80645
G0 F9000 X121.977 Y93.033
;TYPE:WALL-OUTER
G1 F1500 X121.977 Y91.817 E251.84689
G1 X129.319 Y91.816 E252.09109
G1 X129.319 Y93.033 E252.13157
G1 X121.977 Y93.033 E252.37576
G0 F9000 X122.459 Y92.433
G1 F2700 E247.37576
G0 F9000 X122.197 Y92.633
G0 X121.112 Y92.633
G0 X113.734 Y92.633
G0 X112.649 Y92.633
G0 X112.469 Y92.633
;TYPE:WALL-INNER
G1 F2700 E252.37576
G1 F1500 X105.927 Y92.633 E252.59335
G1 X105.927 Y92.217 E252.60718
G1 X112.27 Y92.216 E252.81815
G1 X112.469 Y92.216 E252.82477
G1 X112.469 Y92.415 E252.82906
G1 X112.469 Y92.633 E252.83631
G0 F9000 X112.869 Y93.033
;TYPE:WALL-OUTER
G1 F1500 X105.527 Y93.033 E253.0805
G1 X105.527 Y91.817 E253.12095
G1 X112.869 Y91.816 E253.36514
G1 X112.869 Y93.033 E253.40562
G0 F9000 X112.269 Y92.551
G1 F2700 E248.40562
;MESH:NONMESH
G0 F300 X112.269 Y92.551 Z0.8
G0 F9000 X112.655 Y92.819
G0 X112.655 Y93.898
G0 X112.655 Y127.54
G0 X112.655 Y128.625
G0 X124.703 Y128.987
G0 X124.703 Y99.396
G0 X130.882 Y99.396
G0 X130.882 Y127.777
G0 X125.638 Y127.777
G0 X125.82 Y165.246
;TIME_ELAPSED:406.999607
;LAYER:3
M106 S255
;TYPE:WALL-INNER
;MESH:_????????_21.stl
G1 F2700 E253.40562
G1 F1500 X108.829 Y165.246 E253.97074
G1 X108.829 Y127.959 E255.21091
G1 X104.043 Y127.959 E255.3701
G1 X104.043 Y99.214 E256.32616
G1 X110.586 Y99.214 E256.54378
G1 X110.586 Y128.805 E257.52798
G1 X124.521 Y128.805 E257.99146
G1 X124.521 Y99.214 E258.97566
G1 X131.064 Y99.214 E259.19328
G1 X131.064 Y127.959 E260.14934
G1 X125.82 Y127.959 E260.32376
G1 X125.82 Y165.246 E261.56393
G0 F9000 X126.22 Y165.646
;TYPE:WALL-OUTER
G1 F1500 X108.429 Y165.646 E262.15566
G1 X108.429 Y128.359 E263.39583
G1 X103.643 Y128.359 E263.55502
G1 X103.643 Y98.814 E264.53769
G1 X110.986 Y98.814 E264.78192
G1 X110.986 Y128.405 E265.76612
G1 X124.121 Y128.405 E266.20299
G1 X124.121 Y98.814 E267.18719
G1 X131.464 Y98.814 E267.43142
G1 X131.464 Y128.359 E268.41409
G1 X126.22 Y128.359 E268.58851
G1 X126.22 Y165.646 E269.82868
G0 F9000 X125.95 Y165.376
G0 X125.71 Y164.856
G0 X125.43 Y164.856
;TYPE:SKIN
G1 F1500 X109.219 Y164.856 E270.36786
G1 X109.219 Y127.569 E271.60803
G1 X104.433 Y127.569 E271.76721
G1 X104.433 Y99.604 E272.69733
G1 X110.196 Y99.604 E272.88901
G1 X110.196 Y129.195 E273.87321
G1 X124.911 Y129.195 E274.36263
G1 X124.911 Y99.604 E275.34683
G1 X130.674 Y99.604 E275.53851
G1 X130.674 Y127.569 E276.46863
G1 X125.43 Y127.569 E276.64305
G1 X125.43 Y164.856 E277.88322
G0 F9000 X124.935 Y164.695
G1 F1500 X125.269 Y164.361 E277.89893
G0 F9000 X125.269 Y163.795
G1 F1500 X124.369 Y164.695 E277.94126
G0 F9000 X123.803 Y164.695
G1 F1500 X125.269 Y163.229 E278.01022
G0 F9000 X125.269 Y162.664
G1 F1500 X123.238 Y164.695 E278.10575
G0 F9000 X122.672 Y164.695
G1 F1500 X125.269 Y162.098 E278.2279
G0 F9000 X125.269 Y161.532
G1 F1500 X122.106 Y164.695 E278.37668
G0 F9000 X121.541 Y164.695
G1 F1500 X125.269 Y160.967 E278.55203
G0 F9000 X125.269 Y160.401
G1 F1500 X120.975 Y164.695 E278.75401
G0 F9000 X120.409 Y164.695
G1 F1500 X125.269 Y159.835 E278.98261
G0 F9000 X125.269 Y159.27
G1 F1500 X119.843 Y164.695 E279.23781
G0 F9000 X119.278 Y164.695
G1 F1500 X125.269 Y158.704 E279.51961
G0 F9000 X125.269 Y158.138
G1 F1500 X118.712 Y164.695 E279.82803
G0 F9000 X118.146 Y164.695
G1 F1500 X125.269 Y157.573 E280.16305
G0 F9000 X125.269 Y157.007
G1 F1500 X117.581 Y164.695 E280.52467
G0 F9000 X117.015 Y164.695
G1 F1500 X125.269 Y156.441 E280.91291
G0 F9000 X125.269 Y155.876
G1 F1500 X116.449 Y164.695 E281.32775
G0 F9000 X115.884 Y164.695
G1 F1500 X125.269 Y155.31 E281.7692
G0 F9000 X125.269 Y154.744
G1 F1500 X115.318 Y164.695 E282.23726
G0 F9000 X114.752 Y164.695
G1 F1500 X125.269 Y154.178 E282.73195
G0 F9000 X125.269 Y153.613
G1 F1500 X114.187 Y164.695 E283.25321
G0 F9000 X113.621 Y164.695
G1 F1500 X125.269 Y153.047 E283.8011
G0 F9000 X125.269 Y152.481
G1 F1500 X113.055 Y164.695 E284.37561
G0 F9000 X112.49 Y164.695
G1 F1500 X125.269 Y151.916 E284.97669
G0 F9000 X125.269 Y151.35
G1 F1500 X111.924 Y164.695 E285.6044
G0 F9000 X111.358 Y164.695
G1 F1500 X125.269 Y150.784 E286.25873
G0 F9000 X125.269 Y150.219
G1 F1500 X110.793 Y164.695 E286.93964
G0 F9000 X110.227 Y164.695
G1 F1500 X125.269 Y149.653 E287.64717
G0 F9000 X125.269 Y149.087
G1 F1500 X109.661 Y164.695 E288.38132
G0 F9000 X109.378 Y164.412
G1 F1500 X125.269 Y148.522 E289.12876
G0 F9000 X125.269 Y147.956
G1 F1500 X109.378 Y163.847 E289.87622
G0 F9000 X109.378 Y163.281
G1 F1500 X125.269 Y147.39 E290.62369
G0 F9000 X125.269 Y146.825
G1 F1500 X109.378 Y162.715 E291.37113
G0 F9000 X109.378 Y162.15
G1 F1500 X125.269 Y146.259 E292.11859
G0 F9000 X125.269 Y145.693
G1 F1500 X109.378 Y161.584 E292.86606
G0 F9000 X109.378 Y161.018
G1 F1500 X125.269 Y145.128 E293.6135
G0 F9000 X125.269 Y144.562
G1 F1500 X109.378 Y160.453 E294.36096
G0 F9000 X109.378 Y159.887
G1 F1500 X125.269 Y143.996 E295.10842
G0 F9000 X125.269 Y143.43
G1 F1500 X109.378 Y159.321 E295.85589
G0 F9000 X109.378 Y158.756
G1 F1500 X125.269 Y142.865 E296.60335
G0 F9000 X125.269 Y142.299
G1 F1500 X109.378 Y158.19 E297.35082
G0 F9000 X109.378 Y157.624
G1 F1500 X125.269 Y141.733 E298.09828
G0 F9000 X125.269 Y141.168
G1 F1500 X109.378 Y157.059 E298.84574
G0 F9000 X109.378 Y156.493
G1 F1500 X125.269 Y140.602 E299.59321
G0 F9000 X125.269 Y140.036
G1 F1500 X109.378 Y155.927 E300.34067
G0 F9000 X109.378 Y155.361
G1 F1500 X125.269 Y139.471 E301.08811
G0 F9000 X125.269 Y138.905
G1 F1500 X109.378 Y154.796 E301.83558
G0 F9000 X109.378 Y154.23
G1 F1500 X125.269 Y138.339 E302.58304
G0 F9000 X125.269 Y137.774
G1 F1500 X109.378 Y153.664 E303.33048
G0 F9000 X109.378 Y153.099
G1 F1500 X125.269 Y137.208 E304.07794
G0 F9000 X125.269 Y136.642
G1 F1500 X109.378 Y152.533 E304.82541
G0 F9000 X109.378 Y151.967
G1 F1500 X125.269 Y136.077 E305.57285
G0 F9000 X125.269 Y135.511
G1 F1500 X109.378 Y151.402 E306.32031
G0 F9000 X109.378 Y150.836
G1 F1500 X125.269 Y134.945 E307.06778
G0 F9000 X125.269 Y134.379
G1 F1500 X109.378 Y150.27 E307.81524
G0 F9000 X109.378 Y149.705
G1 F1500 X125.269 Y133.814 E308.5627
G0 F9000 X125.269 Y133.248
G1 F1500 X109.378 Y149.139 E309.31017
G0 F9000 X109.378 Y148.573
G1 F1500 X125.269 Y132.682 E310.05763
G0 F9000 X125.269 Y132.117
G1 F1500 X109.378 Y148.008 E310.8051
G0 F9000 X109.378 Y147.442
G1 F1500 X125.269 Y131.551 E311.55256
G0 F9000 X125.269 Y130.985
G1 F1500 X109.378 Y146.876 E312.30002
G0 F9000 X109.378 Y146.31
G1 F1500 X125.269 Y130.42 E313.04746
G0 F9000 X125.269 Y129.854
G1 F1500 X109.378 Y145.745 E313.79493
G0 F9000 X109.378 Y145.179
G1 F1500 X125.269 Y129.288 E314.54239
G0 F9000 X125.07 Y128.921
G1 F1500 X125.269 Y128.723 E314.55173
G0 F9000 X125.07 Y128.356
G1 F1500 X125.269 Y128.157 E314.56109
G0 F9000 X125.07 Y127.79
G1 F1500 X125.269 Y127.591 E314.57045
G0 F9000 X125.452 Y127.409
G1 F1500 X130.513 Y122.347 E314.80853
G0 F9000 X130.513 Y121.782
G1 F1500 X125.07 Y127.224 E315.06453
G0 F9000 X125.07 Y126.659
G1 F1500 X130.513 Y121.216 E315.32055
G0 F9000 X130.513 Y120.65
G1 F1500 X125.07 Y126.093 E315.57657
G0 F9000 X125.07 Y125.527
G1 F1500 X130.513 Y120.085 E315.83257
G0 F9000 X130.513 Y119.519
G1 F1500 X125.07 Y124.962 E316.08859
G0 F9000 X125.07 Y124.396
G1 F1500 X130.513 Y118.953 E316.34461
G0 F9000 X130.513 Y118.388
G1 F1500 X125.07 Y123.83 E316.60061
G0 F9000 X125.07 Y123.264
G1 F1500 X130.513 Y117.822 E316.85661
G0 F9000 X130.513 Y117.256
G1 F1500 X125.07 Y122.699 E317.11263
G0 F9000 X125.07 Y122.133
G1 F1500 X130.513 Y116.691 E317.36863
G0 F9000 X130.513 Y116.125
G1 F1500 X125.07 Y121.567 E317.62463
G0 F9000 X125.07 Y121.002
G1 F1500 X130.513 Y115.559 E317.88065
G0 F9000 X130.513 Y114.993
G1 F1500 X125.07 Y120.436 E318.13667
G0 F9000 X125.07 Y119.87
G1 F1500 X130.513 Y114.428 E318.39267
G0 F9000 X130.513 Y113.862
G1 F1500 X125.07 Y119.305 E318.64869
G0 F9000 X125.07 Y118.739
G1 F1500 X130.513 Y113.296 E318.90471
G0 F9000 X130.513 Y112.731
G1 F1500 X125.07 Y118.173 E319.16071
G0 F9000 X125.07 Y117.608
G1 F1500 X130.513 Y112.165 E319.41674
G0 F9000 X130.513 Y111.599
G1 F1500 X125.07 Y117.042 E319.67276
G0 F9000 X125.07 Y116.476
G1 F1500 X130.513 Y111.034 E319.92876
G0 F9000 X130.513 Y110.468
G1 F1500 X125.07 Y115.911 E320.18478
G0 F9000 X125.07 Y115.345
G1 F1500 X130.513 Y109.902 E320.4408
G0 F9000 X130.513 Y109.337
G1 F1500 X125.07 Y114.779 E320.6968
G0 F9000 X125.07 Y114.214
G1 F1500 X130.513 Y108.771 E320.95282
G0 F9000 X130.513 Y108.205
G1 F1500 X125.07 Y113.648 E321.20884
G0 F9000 X125.07 Y113.082
G1 F1500 X130.513 Y107.64 E321.46484
G0 F9000 X130.513 Y107.074
G1 F1500 X125.07 Y112.516 E321.72084
G0 F9000 X125.07 Y111.951
G1 F1500 X130.513 Y106.508 E321.97686
G0 F9000 X130.513 Y105.942
G1 F1500 X125.07 Y111.385 E322.23288
G0 F9000 X125.07 Y110.819
G1 F1500 X130.513 Y105.377 E322.48888
G0 F9000 X130.513 Y104.811
G1 F1500 X125.07 Y110.254 E322.7449
G0 F9000 X125.07 Y109.688
G1 F1500 X130.513 Y104.245 E323.00093
G0 F9000 X130.513 Y103.68
G1 F1500 X125.07 Y109.122 E323.25692
G0 F9000 X125.07 Y108.557
G1 F1500 X130.513 Y103.114 E323.51295
G0 F9000 X130.513 Y102.548
G1 F1500 X125.07 Y107.991 E323.76897
G0 F9000 X125.07 Y107.425
G1 F1500 X130.513 Y101.983 E324.02497
G0 F9000 X130.513 Y101.417
G1 F1500 X125.07 Y106.86 E324.28099
G0 F9000 X125.07 Y106.294
G1 F1500 X130.513 Y100.851 E324.53701
G0 F9000 X130.513 Y100.286
G1 F1500 X125.07 Y105.728 E324.79301
G0 F9000 X125.07 Y105.163
G1 F1500 X130.469 Y99.764 E325.04696
G0 F9000 X129.904 Y99.764
G1 F1500 X125.07 Y104.597 E325.27432
G0 F9000 X125.07 Y104.031
G1 F1500 X129.338 Y99.764 E325.47505
G0 F9000 X128.772 Y99.764
G1 F1500 X125.07 Y103.465 E325.64915
G0 F9000 X125.07 Y102.9
G1 F1500 X128.206 Y99.764 E325.79666
G0 F9000 X127.641 Y99.764
G1 F1500 X125.07 Y102.334 E325.91757
G0 F9000 X125.07 Y101.768
G1 F1500 X127.075 Y99.764 E326.01185
G0 F9000 X126.509 Y99.764
G1 F1500 X125.07 Y101.203 E326.07954
G0 F9000 X125.07 Y100.637
G1 F1500 X125.944 Y99.764 E326.12063
G0 F9000 X125.378 Y99.764
G1 F1500 X125.07 Y100.071 E326.13509
G1 F2700 E321.13509
G0 F9000 X124.631 Y100.071
G0 X124.349 Y128.633
G0 X110.758 Y128.633
G0 X110.476 Y99.833
G1 F2700 E326.13509
G0 F9000 X110.035 Y99.833
G1 F1500 X104.593 Y105.276 E326.39109
G0 F9000 X104.593 Y105.841
G1 F1500 X110.035 Y100.399 E326.64706
G0 F9000 X110.035 Y100.964
G1 F1500 X104.593 Y106.407 E326.90306
G0 F9000 X104.593 Y106.973
G1 F1500 X110.035 Y101.53 E327.15906
G0 F9000 X110.035 Y102.096
G1 F1500 X104.593 Y107.538 E327.41504
G0 F9000 X104.593 Y108.104
G1 F1500 X110.035 Y102.662 E327.67101
G0 F9000 X110.035 Y103.227
G1 F1500 X104.593 Y108.67 E327.92701
G0 F9000 X104.593 Y109.235
G1 F1500 X110.035 Y103.793 E328.18299
G0 F9000 X110.035 Y104.359
G1 F1500 X104.593 Y109.801 E328.43896
G0 F9000 X104.593 Y110.367
G1 F1500 X110.035 Y104.924 E328.69496
G0 F9000 X110.035 Y105.49
G1 F1500 X104.593 Y110.933 E328.95096
G0 F9000 X104.593 Y111.498
G1 F1500 X110.035 Y106.056 E329.20693
G0 F9000 X110.035 Y106.621
G1 F1500 X104.593 Y112.064 E329.46293
G0 F9000 X104.593 Y112.63
G1 F1500 X110.035 Y107.187 E329.71893
G0 F9000 X110.035 Y107.753
G1 F1500 X104.593 Y113.195 E329.9749
G0 F9000 X104.593 Y113.761
G1 F1500 X110.035 Y108.318 E330.2309
G0 F9000 X110.035 Y108.884
G1 F1500 X104.593 Y114.327 E330.4869
G0 F9000 X104.593 Y114.892
G1 F1500 X110.035 Y109.45 E330.74288
G0 F9000 X110.035 Y110.015
G1 F1500 X104.593 Y115.458 E330.99887
G0 F9000 X104.593 Y116.024
G1 F1500 X110.035 Y110.581 E331.25487
G0 F9000 X110.035 Y111.147
G1 F1500 X104.593 Y116.589 E331.51085
G0 F9000 X104.593 Y117.155
G1 F1500 X110.035 Y111.712 E331.76685
G0 F9000 X110.035 Y112.278
G1 F1500 X104.593 Y117.721 E332.02285
G0 F9000 X104.593 Y118.286
G1 F1500 X110.035 Y112.844 E332.27882
G0 F9000 X110.035 Y113.41
G1 F1500 X104.593 Y118.852 E332.5348
G0 F9000 X104.593 Y119.418
G1 F1500 X110.035 Y113.975 E332.79079
G0 F9000 X110.035 Y114.541
G1 F1500 X104.593 Y119.983 E333.04677
G0 F9000 X104.593 Y120.549
G1 F1500 X110.035 Y115.107 E333.30274
G0 F9000 X110.035 Y115.672
G1 F1500 X104.593 Y121.115 E333.55874
G0 F9000 X104.593 Y121.681
G1 F1500 X110.035 Y116.238 E333.81474
G0 F9000 X110.035 Y116.804
G1 F1500 X104.593 Y122.246 E334.07072
G0 F9000 X104.593 Y122.812
G1 F1500 X110.035 Y117.369 E334.32671
G0 F9000 X110.035 Y117.935
G1 F1500 X104.593 Y123.378 E334.58271
G0 F9000 X104.593 Y123.943
G1 F1500 X110.035 Y118.501 E334.83869
G0 F9000 X110.035 Y119.066
G1 F1500 X104.593 Y124.509 E335.09469
G0 F9000 X104.593 Y125.075
G1 F1500 X110.035 Y119.632 E335.35068
G0 F9000 X110.035 Y120.198
G1 F1500 X104.593 Y125.64 E335.60666
G0 F9000 X104.593 Y126.206
G1 F1500 X110.035 Y120.763 E335.86266
G0 F9000 X110.035 Y121.329
G1 F1500 X104.593 Y126.772 E336.11866
G0 F9000 X104.593 Y127.337
G1 F1500 X110.035 Y121.895 E336.37463
G0 F9000 X110.035 Y122.46
G1 F1500 X105.088 Y127.408 E336.60735
G0 F9000 X105.653 Y127.408
G1 F1500 X110.035 Y123.026 E336.81346
G0 F9000 X110.035 Y123.592
G1 F1500 X106.219 Y127.408 E336.99296
G0 F9000 X106.785 Y127.408
G1 F1500 X110.035 Y124.158 E337.14583
G0 F9000 X110.035 Y124.723
G1 F1500 X107.35 Y127.408 E337.27212
G0 F9000 X107.916 Y127.408
G1 F1500 X110.035 Y125.289 E337.37179
G0 F9000 X110.035 Y125.855
G1 F1500 X108.482 Y127.408 E337.44484
G0 F9000 X109.047 Y127.408
G1 F1500 X110.035 Y126.42 E337.49131
G0 F9000 X110.035 Y126.986
G1 F1500 X109.378 Y127.643 E337.52222
G0 F9000 X109.378 Y128.209
G1 F1500 X110.035 Y127.552 E337.55312
G0 F9000 X110.035 Y128.117
G1 F1500 X109.378 Y128.774 E337.58402
G0 F9000 X109.378 Y129.34
G1 F1500 X110.035 Y128.683 E337.61493
G0 F9000 X110.035 Y129.249
G1 F1500 X109.378 Y129.906 E337.64583
G0 F9000 X109.378 Y130.471
G1 F1500 X110.496 Y129.353 E337.69842
G0 F9000 X111.062 Y129.353
G1 F1500 X109.378 Y131.037 E337.77763
G0 F9000 X109.378 Y131.603
G1 F1500 X111.628 Y129.353 E337.88346
G0 F9000 X112.193 Y129.353
G1 F1500 X109.378 Y132.168 E338.01587
G0 F9000 X109.378 Y132.734
G1 F1500 X112.759 Y129.353 E338.1749
G0 F9000 X113.325 Y129.353
G1 F1500 X109.378 Y133.3 E338.36055
G0 F9000 X109.378 Y133.865
G1 F1500 X113.89 Y129.353 E338.57279
G0 F9000 X114.456 Y129.353
G1 F1500 X109.378 Y134.431 E338.81164
G0 F9000 X109.378 Y134.997
G1 F1500 X115.022 Y129.353 E339.07712
G0 F9000 X115.587 Y129.353
G1 F1500 X109.378 Y135.562 E339.36917
G0 F9000 X109.378 Y136.128
G1 F1500 X116.153 Y129.353 E339.68784
G0 F9000 X116.719 Y129.353
G1 F1500 X109.378 Y136.694 E340.03314
G0 F9000 X109.378 Y137.26
G1 F1500 X117.284 Y129.353 E340.40504
G0 F9000 X117.85 Y129.353
G1 F1500 X109.378 Y137.825 E340.80354
G0 F9000 X109.378 Y138.391
G1 F1500 X118.416 Y129.353 E341.22866
G0 F9000 X118.982 Y129.353
G1 F1500 X109.378 Y138.957 E341.6804
G0 F9000 X109.378 Y139.522
G1 F1500 X119.547 Y129.353 E342.15872
G0 F9000 X120.113 Y129.353
G1 F1500 X109.378 Y140.088 E342.66366
G0 F9000 X109.378 Y140.654
G1 F1500 X120.679 Y129.353 E343.19522
G0 F9000 X121.244 Y129.353
G1 F1500 X109.378 Y141.219 E343.75336
G0 F9000 X109.378 Y141.785
G1 F1500 X121.81 Y129.353 E344.33813
G0 F9000 X122.376 Y129.353
G1 F1500 X109.378 Y142.351 E344.94951
G0 F9000 X109.378 Y142.916
G1 F1500 X122.941 Y129.353 E345.58747
G0 F9000 X123.507 Y129.353
G1 F1500 X109.378 Y143.482 E346.25206
G0 F9000 X109.378 Y144.048
G1 F1500 X124.073 Y129.353 E346.94327
G0 F9000 X124.638 Y129.353
G1 F1500 X109.378 Y144.613 E347.66105
G1 F2700 E342.66105
G0 F9000 X108.939 Y144.613
G0 X109.011 Y165.064
G0 X125.638 Y165.064
G0 X126.017 Y127.849
G1 F2700 E347.66105
G0 F9000 X126.017 Y127.409
G1 F1500 X130.513 Y122.913 E347.87253
G0 F9000 X130.513 Y123.479
G1 F1500 X126.583 Y127.409 E348.05738
G0 F9000 X127.149 Y127.409
G1 F1500 X130.513 Y124.044 E348.21564
G0 F9000 X130.513 Y124.61
G1 F1500 X127.714 Y127.409 E348.3473
G0 F9000 X128.28 Y127.409
G1 F1500 X130.513 Y125.176 E348.45233
G0 F9000 X130.513 Y125.741
G1 F1500 X128.846 Y127.409 E348.53076
G0 F9000 X129.411 Y127.409
G1 F1500 X130.513 Y126.307 E348.5826
G0 F9000 X130.513 Y126.873
G1 F1500 X129.977 Y127.409 E348.60781
G1 F2700 E343.60781
G0 F9000 X129.977 Y127.849
G0 X130.882 Y127.777
G0 X130.882 Y99.396
G0 X124.703 Y99.396
G0 X124.349 Y128.633
G0 X110.758 Y128.633
G0 X110.404 Y99.396
G0 X104.225 Y99.396
G0 X104.153 Y104.71
G1 F2700 E348.60781
G0 F9000 X104.593 Y104.71
G1 F1500 X109.539 Y99.764 E348.84045
G0 F9000 X108.973 Y99.764
G1 F1500 X104.593 Y104.144 E349.04648
G0 F9000 X104.593 Y103.579
G1 F1500 X108.407 Y99.764 E349.2259
G0 F9000 X107.842 Y99.764
G1 F1500 X104.593 Y103.013 E349.37872
G0 F9000 X104.593 Y102.447
G1 F1500 X107.276 Y99.764 E349.50492
G0 F9000 X106.71 Y99.764
G1 F1500 X104.593 Y101.882 E349.60452
G0 F9000 X104.593 Y101.316
G1 F1500 X106.145 Y99.764 E349.67752
G0 F9000 X105.579 Y99.764
G1 F1500 X104.593 Y100.75 E349.7239
G0 F9000 X104.593 Y100.185
G1 F1500 X105.013 Y99.764 E349.74368
G0 F9000 X105.013 Y99.414
G1 F2700 E344.74368
G0 F9000 X105.013 Y99.324
G0 X110.772 Y99.028
G0 X111.851 Y99.028
G0 X121.112 Y92.888
G0 X122.191 Y92.888
G0 X122.377 Y92.702
;TYPE:WALL-INNER
G1 F2700 E349.74368
G1 F1500 X122.377 Y91.639 E349.77904
G1 X128.72 Y91.638 E349.99001
G1 X128.919 Y91.638 E349.99662
G1 X128.919 Y91.837 E350.00091
G1 X128.919 Y92.702 E350.02968
G1 X122.377 Y92.702 E350.24726
G0 F9000 X121.977 Y93.102
;TYPE:WALL-OUTER
G1 F1500 X121.977 Y91.239 E350.30923
G1 X129.319 Y91.238 E350.55342
G1 X129.319 Y93.102 E350.61542
G1 X121.977 Y93.102 E350.85962
G0 F9000 X122.247 Y92.832
G0 X122.487 Y92.312
G0 X122.767 Y92.312
;TYPE:SKIN
G1 F1500 X122.767 Y92.029 E350.86903
G1 X128.529 Y92.028 E351.06067
G1 X128.529 Y92.312 E351.07012
G1 X122.767 Y92.312 E351.26176
G0 F9000 X122.577 Y92.312
G1 F2700 E346.26176
G0 F9000 X122.487 Y92.312
G0 X122.197 Y92.702
G0 X121.112 Y92.702
G0 X113.734 Y92.702
G0 X112.649 Y92.702
G0 X112.469 Y92.702
;TYPE:WALL-INNER
G1 F2700 E351.26176
G1 F1500 X105.927 Y92.702 E351.47935
G1 X105.927 Y91.639 E351.51471
G1 X112.27 Y91.638 E351.72568
G1 X112.469 Y91.638 E351.7323
G1 X112.469 Y91.837 E351.73658
G1 X112.469 Y92.702 E351.76535
G0 F9000 X112.869 Y93.102
;TYPE:WALL-OUTER
G1 F1500 X105.527 Y93.102 E352.00954
G1 X105.527 Y91.239 E352.07151
G1 X112.869 Y91.238 E352.3157
G1 X112.869 Y93.102 E352.3777
G0 F9000 X112.599 Y92.832
G0 X112.359 Y92.312
G0 X112.079 Y92.312
;TYPE:SKIN
G1 F1500 X106.317 Y92.312 E352.56935
G1 X106.317 Y92.029 E352.57876
G1 X112.079 Y92.028 E352.7704
G1 X112.079 Y92.312 E352.77985
G0 F9000 X112.079 Y92.502
G1 F2700 E347.77985
;MESH:NONMESH
G0 F300 X112.079 Y92.502 Z1
G0 F9000 X112.079 Y92.592
G0 X112.655 Y92.888
G0 X112.655 Y93.967
G0 X112.655 Y127.54
G0 X112.655 Y128.625
G0 X124.703 Y128.987
G0 X124.703 Y99.396
G0 X130.882 Y99.396
G0 X130.882 Y127.777
G0 X125.638 Y127.777
G0 X125.82 Y165.246
;TIME_ELAPSED:556.032763
;LAYER:4
;TYPE:WALL-INNER
;MESH:_????????_21.stl
G1 F2700 E352.77985
G1 F1500 X108.829 Y165.246 E353.34497
G1 X108.829 Y127.959 E354.58514
G1 X104.043 Y127.959 E354.74433
G1 X104.043 Y99.214 E355.70039
G1 X110.586 Y99.214 E355.91801
G1 X110.586 Y128.805 E356.90221
G1 X124.521 Y128.805 E357.36569
G1 X124.521 Y99.214 E358.34989
G1 X131.064 Y99.214 E358.56751
G1 X131.064 Y127.959 E359.52357
G1 X125.82 Y127.959 E359.69799
G1 X125.82 Y165.246 E360.93816
G0 F9000 X126.22 Y165.646
;TYPE:WALL-OUTER
G1 F1500 X108.429 Y165.646 E361.52989
G1 X108.429 Y128.359 E362.77006
G1 X103.643 Y128.359 E362.92925
G1 X103.643 Y98.814 E363.91192
G1 X110.986 Y98.814 E364.15615
G1 X110.986 Y128.405 E365.14035
G1 X124.121 Y128.405 E365.57722
G1 X124.121 Y98.814 E366.56142
G1 X131.464 Y98.814 E366.80565
G1 X131.464 Y128.359 E367.78832
G1 X126.22 Y128.359 E367.96273
G1 X126.22 Y165.646 E369.20291
G1 F2700 E364.20291
G0 F9000 X125.95 Y165.376
G0 X125.992 Y128.131
G0 X126.409 Y127.878
;TYPE:FILL
G1 F2700 E369.20291
G1 F3000 X130.983 Y110.808 E369.79068
G0 F9000 X130.983 Y113.013
G1 F3000 X124.599 Y106.629 E370.09097
G0 F9000 X124.601 Y103.905
G1 F3000 X130.982 Y102.195 E370.31069
G0 F9000 X130.982 Y114.618
G1 F3000 X124.6 Y116.328 E370.53044
G0 F9000 X124.6 Y123.6
G1 F3000 X128.877 Y127.878 E370.73164
G0 F9000 X127.861 Y127.878
G1 F3000 X130.983 Y127.041 E370.83915
G0 F9000 X124.354 Y127.628
G0 X124.349 Y128.633
G0 X110.758 Y128.633
G0 X110.505 Y126.476
G1 F3000 X104.122 Y120.092 E371.13941
G0 F9000 X104.123 Y121.815
G1 F3000 X110.505 Y120.105 E371.35916
G0 F9000 X104.122 Y118.325
G1 F3000 X109.222 Y99.293 E372.0145
G0 F9000 X104.122 Y103.122
G1 F3000 X110.505 Y109.506 E372.31476
G0 F9000 X110.504 Y107.682
G1 F3000 X104.122 Y109.392 E372.53452
G0 F9000 X108.939 Y127.949
G0 X109.219 Y127.949
;TYPE:SKIN
G1 F1500 X110.196 Y127.949 E372.56701
G1 X110.196 Y129.195 E372.60846
G1 X124.911 Y129.195 E373.09788
G1 X124.911 Y127.949 E373.13932
G1 X125.43 Y127.949 E373.15658
G1 X125.43 Y164.856 E374.38411
G1 X109.219 Y164.856 E374.92329
G1 X109.219 Y127.949 E376.15083
G0 F9000 X108.939 Y127.949
G0 X110.404 Y127.731
G0 X110.758 Y128.633
G0 X124.349 Y128.633
G0 X124.631 Y128.465
G0 X125.07 Y128.465
G1 F1500 X125.27 Y128.664 E376.16021
G0 F9000 X125.07 Y129.03
G1 F1500 X125.27 Y129.23 E376.16962
G0 F9000 X124.829 Y129.354
G1 F1500 X125.27 Y129.795 E376.19036
G0 F9000 X125.27 Y130.361
G1 F1500 X124.263 Y129.354 E376.23773
G0 F9000 X123.697 Y129.354
G1 F1500 X125.27 Y130.927 E376.31172
G0 F9000 X125.27 Y131.492
G1 F1500 X123.132 Y129.354 E376.41228
G0 F9000 X122.566 Y129.354
G1 F1500 X125.27 Y132.058 E376.53947
G0 F9000 X125.27 Y132.624
G1 F1500 X122 Y129.354 E376.69328
G0 F9000 X121.434 Y129.354
G1 F1500 X125.27 Y133.189 E376.87369
G0 F9000 X125.27 Y133.755
G1 F1500 X120.869 Y129.354 E377.0807
G0 F9000 X120.303 Y129.354
G1 F1500 X125.27 Y134.321 E377.31433
G0 F9000 X125.27 Y134.886
G1 F1500 X119.737 Y129.354 E377.57456
G0 F9000 X119.172 Y129.354
G1 F1500 X125.27 Y135.452 E377.86139
G0 F9000 X125.27 Y136.018
G1 F1500 X118.606 Y129.354 E378.17485
G0 F9000 X118.04 Y129.354
G1 F1500 X125.27 Y136.584 E378.51493
G0 F9000 X125.27 Y137.149
G1 F1500 X117.475 Y129.354 E378.88158
G0 F9000 X116.909 Y129.354
G1 F1500 X125.27 Y137.715 E379.27485
G0 F9000 X125.27 Y138.281
G1 F1500 X116.343 Y129.354 E379.69475
G0 F9000 X115.778 Y129.354
G1 F1500 X125.27 Y138.846 E380.14123
G0 F9000 X125.27 Y139.412
G1 F1500 X115.212 Y129.354 E380.61433
G0 F9000 X114.646 Y129.354
G1 F1500 X125.27 Y139.978 E381.11405
G0 F9000 X125.27 Y140.543
G1 F1500 X114.081 Y129.354 E381.64034
G0 F9000 X113.515 Y129.354
G1 F1500 X125.27 Y141.109 E382.19326
G0 F9000 X125.27 Y141.675
G1 F1500 X112.949 Y129.354 E382.7728
G0 F9000 X112.384 Y129.354
G1 F1500 X125.27 Y142.24 E383.37892
G0 F9000 X125.27 Y142.806
G1 F1500 X111.818 Y129.354 E384.01166
G0 F9000 X111.252 Y129.354
G1 F1500 X125.27 Y143.372 E384.67103
G0 F9000 X125.27 Y143.937
G1 F1500 X110.686 Y129.354 E385.35699
G0 F9000 X110.121 Y129.354
G1 F1500 X125.27 Y144.503 E386.06955
G0 F9000 X125.27 Y145.069
G1 F1500 X109.378 Y129.177 E386.81706
G0 F9000 X109.378 Y128.612
G1 F1500 X110.035 Y129.269 E386.84797
G0 F9000 X110.035 Y128.703
G1 F1500 X109.441 Y128.108 E386.87593
G0 F9000 X109.441 Y127.659
G0 X109.011 Y127.731
G0 X108.939 Y129.743
G0 X109.378 Y129.743
G1 F1500 X125.27 Y145.635 E387.62344
G0 F9000 X125.27 Y146.2
G1 F1500 X109.378 Y130.309 E388.37093
G0 F9000 X109.378 Y130.874
G1 F1500 X125.27 Y146.766 E389.11844
G0 F9000 X125.27 Y147.332
G1 F1500 X109.378 Y131.44 E389.86595
G0 F9000 X109.378 Y132.006
G1 F1500 X125.27 Y147.897 E390.61344
G0 F9000 X125.27 Y148.463
G1 F1500 X109.378 Y132.571 E391.36095
G0 F9000 X109.378 Y133.137
G1 F1500 X125.27 Y149.029 E392.10846
G0 F9000 X125.27 Y149.594
G1 F1500 X109.378 Y133.703 E392.85595
G0 F9000 X109.378 Y134.268
G1 F1500 X125.27 Y150.16 E393.60346
G0 F9000 X125.27 Y150.726
G1 F1500 X109.378 Y134.834 E394.35097
G0 F9000 X109.378 Y135.4
G1 F1500 X125.27 Y151.291 E395.09846
G0 F9000 X125.27 Y151.857
G1 F1500 X109.378 Y135.966 E395.84594
G0 F9000 X109.378 Y136.531
G1 F1500 X125.27 Y152.423 E396.59345
G0 F9000 X125.27 Y152.988
G1 F1500 X109.378 Y137.097 E397.34094
G0 F9000 X109.378 Y137.663
G1 F1500 X125.27 Y153.554 E398.08843
G0 F9000 X125.27 Y154.12
G1 F1500 X109.378 Y138.228 E398.83594
G0 F9000 X109.378 Y138.794
G1 F1500 X125.27 Y154.685 E399.58343
G0 F9000 X125.27 Y155.251
G1 F1500 X109.378 Y139.36 E400.33091
G0 F9000 X109.378 Y139.925
G1 F1500 X125.27 Y155.817 E401.07843
G0 F9000 X125.27 Y156.383
G1 F1500 X109.378 Y140.491 E401.82594
G0 F9000 X109.378 Y141.057
G1 F1500 X125.27 Y156.948 E402.57342
G0 F9000 X125.27 Y157.514
G1 F1500 X109.378 Y141.622 E403.32093
G0 F9000 X109.378 Y142.188
G1 F1500 X125.27 Y158.08 E404.06845
G0 F9000 X125.27 Y158.645
G1 F1500 X109.378 Y142.754 E404.81593
G0 F9000 X109.378 Y143.319
G1 F1500 X125.27 Y159.211 E405.56344
G0 F9000 X125.27 Y159.777
G1 F1500 X109.378 Y143.885 E406.31096
G0 F9000 X109.378 Y144.451
G1 F1500 X125.27 Y160.342 E407.05844
G0 F9000 X125.27 Y160.908
G1 F1500 X109.378 Y145.016 E407.80595
G0 F9000 X109.378 Y145.582
G1 F1500 X125.27 Y161.474 E408.55346
G0 F9000 X125.27 Y162.039
G1 F1500 X109.378 Y146.148 E409.30095
G0 F9000 X109.378 Y146.714
G1 F1500 X125.27 Y162.605 E410.04844
G0 F9000 X125.27 Y163.171
G1 F1500 X109.378 Y147.279 E410.79595
G0 F9000 X109.378 Y147.845
G1 F1500 X125.27 Y163.736 E411.54344
G0 F9000 X125.27 Y164.302
G1 F1500 X109.378 Y148.411 E412.29093
G0 F9000 X109.378 Y148.976
G1 F1500 X125.097 Y164.695 E413.0303
G0 F9000 X124.531 Y164.695
G1 F1500 X109.378 Y149.542 E413.74305
G0 F9000 X109.378 Y150.108
G1 F1500 X123.965 Y164.695 E414.42918
G0 F9000 X123.4 Y164.695
G1 F1500 X109.378 Y150.673 E415.08873
G0 F9000 X109.378 Y151.239
G1 F1500 X122.834 Y164.695 E415.72166
G0 F9000 X122.268 Y164.695
G1 F1500 X109.378 Y151.805 E416.32796
G0 F9000 X109.378 Y152.37
G1 F1500 X121.702 Y164.695 E416.90767
G0 F9000 X121.137 Y164.695
G1 F1500 X109.378 Y152.936 E417.46078
G0 F9000 X109.378 Y153.502
G1 F1500 X120.571 Y164.695 E417.98726
G0 F9000 X120.005 Y164.695
G1 F1500 X109.378 Y154.067 E418.48715
G0 F9000 X109.378 Y154.633
G1 F1500 X119.44 Y164.695 E418.96043
G0 F9000 X118.874 Y164.695
G1 F1500 X109.378 Y155.199 E419.4071
G0 F9000 X109.378 Y155.765
G1 F1500 X118.308 Y164.695 E419.82714
G0 F9000 X117.743 Y164.695
G1 F1500 X109.378 Y156.33 E420.2206
G0 F9000 X109.378 Y156.896
G1 F1500 X117.177 Y164.695 E420.58744
G0 F9000 X116.611 Y164.695
G1 F1500 X109.378 Y157.462 E420.92766
G0 F9000 X109.378 Y158.027
G1 F1500 X116.046 Y164.695 E421.2413
G0 F9000 X115.48 Y164.695
G1 F1500 X109.378 Y158.593 E421.52832
G0 F9000 X109.378 Y159.159
G1 F1500 X114.914 Y164.695 E421.78872
G0 F9000 X114.349 Y164.695
G1 F1500 X109.378 Y159.724 E422.02254
G0 F9000 X109.378 Y160.29
G1 F1500 X113.783 Y164.695 E422.22974
G0 F9000 X113.217 Y164.695
G1 F1500 X109.378 Y160.856 E422.41031
G0 F9000 X109.378 Y161.421
G1 F1500 X112.652 Y164.695 E422.56431
G0 F9000 X112.086 Y164.695
G1 F1500 X109.378 Y161.987 E422.69168
G0 F9000 X109.378 Y162.553
G1 F1500 X111.52 Y164.695 E422.79244
G0 F9000 X110.954 Y164.695
G1 F1500 X109.378 Y163.118 E422.86659
G0 F9000 X109.378 Y163.684
G1 F1500 X110.389 Y164.695 E422.91415
G0 F9000 X109.823 Y164.695
G1 F1500 X109.378 Y164.25 E422.93508
G0 F9000 X109.029 Y164.25
G1 F2700 E417.93508
G0 F9000 X108.939 Y164.25
G0 X109.011 Y127.731
G0 X110.404 Y127.731
G0 X110.404 Y128.748
G0 X122.377 Y128.625
G0 X122.377 Y127.54
G0 X122.377 Y94.036
G0 X122.377 Y92.951
G0 X122.377 Y92.771
;TYPE:WALL-INNER
G1 F2700 E422.93508
G1 F1500 X122.377 Y91.062 E422.99192
G1 X128.72 Y91.061 E423.20289
G1 X128.919 Y91.061 E423.20951
G1 X128.919 Y91.26 E423.21379
G1 X128.919 Y92.771 E423.26405
G1 X122.377 Y92.771 E423.48163
G0 F9000 X121.977 Y93.171
;TYPE:WALL-OUTER
G1 F1500 X121.977 Y90.662 E423.56508
G1 X129.319 Y90.661 E423.80928
G1 X129.319 Y93.171 E423.89276
G1 X121.977 Y93.171 E424.13696
G0 F9000 X122.247 Y92.901
G0 X122.487 Y92.381
G0 X122.767 Y92.381
;TYPE:SKIN
G1 F1500 X122.767 Y91.452 E424.16786
G1 X128.529 Y91.451 E424.3595
G1 X128.529 Y92.381 E424.39043
G1 X122.767 Y92.381 E424.58208
G0 F9000 X123.333 Y92.22
G1 F1500 X122.926 Y91.813 E424.60122
G0 F9000 X123.289 Y91.611
G1 F1500 X123.899 Y92.22 E424.62989
G0 F9000 X124.464 Y92.22
G1 F1500 X123.855 Y91.611 E424.65854
G0 F9000 X124.421 Y91.611
G1 F1500 X125.03 Y92.22 E424.68718
G0 F9000 X125.596 Y92.22
G1 F1500 X124.986 Y91.611 E424.71585
G0 F9000 X125.552 Y91.611
G1 F1500 X126.161 Y92.22 E424.7445
G0 F9000 X126.727 Y92.22
G1 F1500 X126.118 Y91.611 E424.77314
G0 F9000 X126.683 Y91.611
G1 F1500 X127.293 Y92.22 E424.80181
G0 F9000 X127.859 Y92.22
G1 F1500 X127.249 Y91.611 E424.83048
G0 F9000 X127.815 Y91.611
G1 F1500 X128.368 Y92.164 E424.85649
G0 F9000 X128.719 Y92.164
G1 F2700 E419.85649
G0 F9000 X128.809 Y92.164
G0 X128.737 Y92.589
G0 X122.197 Y92.771
G0 X121.112 Y92.771
G0 X113.734 Y92.771
G0 X112.649 Y92.771
G0 X112.469 Y92.771
;TYPE:WALL-INNER
G1 F2700 E424.85649
G1 F1500 X105.927 Y92.771 E425.07408
G1 X105.927 Y91.062 E425.13092
G1 X112.27 Y91.061 E425.34189
G1 X112.469 Y91.061 E425.34851
G1 X112.469 Y91.26 E425.35279
G1 X112.469 Y92.771 E425.40305
G0 F9000 X112.869 Y93.171
;TYPE:WALL-OUTER
G1 F1500 X105.527 Y93.171 E425.64724
G1 X105.527 Y90.662 E425.73069
G1 X112.869 Y90.661 E425.97489
G1 X112.869 Y93.171 E426.05837
G0 F9000 X112.599 Y92.901
G0 X112.359 Y92.381
G0 X112.079 Y92.381
;TYPE:SKIN
G1 F1500 X106.317 Y92.381 E426.25002
G1 X106.317 Y91.452 E426.28091
G1 X112.079 Y91.451 E426.47256
G1 X112.079 Y92.381 E426.50349
G0 F9000 X112.359 Y92.381
G0 X112.287 Y91.243
G0 X111.411 Y91.171
G0 X111.411 Y91.612
G1 F1500 X111.918 Y92.119 E426.52734
G0 F9000 X111.454 Y92.22
G1 F1500 X110.845 Y91.612 E426.55596
G0 F9000 X110.279 Y91.612
G1 F1500 X110.888 Y92.22 E426.58458
G0 F9000 X110.322 Y92.22
G1 F1500 X109.713 Y91.612 E426.61321
G0 F9000 X109.148 Y91.612
G1 F1500 X109.757 Y92.22 E426.64183
G0 F9000 X109.191 Y92.22
G1 F1500 X108.582 Y91.612 E426.67045
G0 F9000 X108.016 Y91.612
G1 F1500 X108.625 Y92.22 E426.69907
G0 F9000 X108.06 Y92.22
G1 F1500 X107.451 Y91.612 E426.72769
G0 F9000 X106.885 Y91.612
G1 F1500 X107.494 Y92.22 E426.75632
G0 F9000 X106.928 Y92.22
G1 F1500 X106.476 Y91.768 E426.77758
G0 F9000 X106.127 Y91.768
G1 F2700 E421.77758
;MESH:NONMESH
G0 F300 X106.127 Y91.768 Z1.2
G0 F9000 X106.037 Y91.768
G0 X106.109 Y92.589
G0 X112.655 Y92.957
G0 X112.655 Y94.036
G0 X112.655 Y127.54
G0 X112.655 Y128.625
G0 X124.703 Y128.987
G0 X124.703 Y127.731
G0 X125.638 Y127.731
G0 X125.82 Y165.246
;TIME_ELAPSED:663.861432
;LAYER:5
;TYPE:WALL-INNER
;MESH:_????????_21.stl
G1 F2700 E426.77758
G1 F1500 X108.829 Y165.246 E427.3427
G1 X108.829 Y127.959 E428.58287
G1 X104.043 Y127.959 E428.74205
G1 X104.043 Y99.214 E429.69812
G1 X110.586 Y99.214 E429.91574
G1 X110.586 Y128.805 E430.89994
G1 X124.521 Y128.805 E431.36342
G1 X124.521 Y99.214 E432.34762
G1 X131.064 Y99.214 E432.56524
G1 X131.064 Y127.959 E433.5213
G1 X125.82 Y127.959 E433.69572
G1 X125.82 Y165.246 E434.93589
G0 F9000 X126.22 Y165.646
;TYPE:WALL-OUTER
G1 F1500 X108.429 Y165.646 E435.52762
G1 X108.429 Y128.359 E436.76779
G1 X103.643 Y128.359 E436.92697
G1 X103.643 Y98.814 E437.90964
G1 X110.986 Y98.814 E438.15387
G1 X110.986 Y128.405 E439.13807
G1 X124.121 Y128.405 E439.57495
G1 X124.121 Y98.814 E440.55915
G1 X131.464 Y98.814 E440.80338
G1 X131.464 Y128.359 E441.78605
G1 X126.22 Y128.359 E441.96046
G1 X126.22 Y165.646 E443.20063
G0 F9000 X125.95 Y165.376
G0 X125.739 Y158.481
;TYPE:FILL
G1 F3000 X108.909 Y141.651 E443.99226
G0 F9000 X108.908 Y145.525
G1 F3000 X125.738 Y141.016 E444.57177
G0 F9000 X125.739 Y141.511
G1 F3000 X113.113 Y128.884 E445.16569
G0 F9000 X113.571 Y128.884
G1 F3000 X108.909 Y146.283 E445.76479
G0 F9000 X108.908 Y157.949
G1 F3000 X125.738 Y153.439 E446.34431
G0 F9000 X116.272 Y165.166
G1 F3000 X125.74 Y129.833 E447.56095
G0 F9000 X125.738 Y128.593
G1 F3000 X108.908 Y133.102 E448.14046
G0 F9000 X110.505 Y126.277
G1 F3000 X104.122 Y119.893 E448.44072
G0 F9000 X104.122 Y121.961
G1 F3000 X110.504 Y120.251 E448.66047
G0 F9000 X104.122 Y117.781
G1 F3000 X109.076 Y99.292 E449.29711
G0 F9000 X104.122 Y102.922
G1 F3000 X110.505 Y109.306 E449.59737
G0 F9000 X110.504 Y107.828
G1 F3000 X104.122 Y109.538 E449.81713
G1 F2700 E444.81713
G0 F9000 X110.758 Y128.633
G0 X124.349 Y128.633
G0 X124.599 Y106.43
G1 F2700 E449.81713
G1 F3000 X130.983 Y112.813 E450.11739
G0 F9000 X130.982 Y114.764
G1 F3000 X124.6 Y116.474 E450.33714
G0 F9000 X124.599 Y123.4
G1 F3000 X129.077 Y127.878 E450.54777
G0 F9000 X128.404 Y127.878
G1 F3000 X130.982 Y127.187 E450.63654
G0 F9000 X126.263 Y127.878
G1 F3000 X130.983 Y110.263 E451.24309
G0 F9000 X130.983 Y102.341
G1 F3000 X124.601 Y104.051 E451.46284
G1 F2700 E446.46284
G0 F9000 X124.349 Y128.633
G0 X108.909 Y158.621
G1 F2700 E451.46284
G1 F3000 X115.452 Y165.165 E451.77063
G0 F9000 X115.452 Y165.046
G1 F2700 E446.77063
G0 F9000 X122.377 Y128.625
G0 X122.377 Y127.54
G0 X122.377 Y94.106
G0 X122.377 Y93.021
G0 X122.377 Y92.841
;TYPE:WALL-INNER
G1 F2700 E451.77063
G1 F1500 X122.377 Y90.484 E451.84902
G1 X128.72 Y90.483 E452.05999
G1 X128.919 Y90.483 E452.06661
G1 X128.919 Y90.682 E452.07089
G1 X128.919 Y92.841 E452.1427
G1 X122.377 Y92.841 E452.36029
G0 F9000 X121.977 Y93.241
;TYPE:WALL-OUTER
G1 F1500 X121.977 Y90.084 E452.46529
G1 X129.319 Y90.083 E452.70949
G1 X129.319 Y93.241 E452.81452
G1 X121.977 Y93.241 E453.05872
G0 F9000 X122.247 Y92.971
G0 X122.487 Y92.451
G0 X122.767 Y92.451
;TYPE:SKIN
G1 F1500 X122.767 Y90.874 E453.11117
G1 X128.529 Y90.873 E453.30282
G1 X128.529 Y92.451 E453.3553
G1 X122.767 Y92.451 E453.54695
G0 F9000 X122.926 Y91.468
G1 F1500 X123.361 Y91.033 E453.56741
G0 F9000 X123.926 Y91.033
G1 F1500 X122.926 Y92.034 E453.61447
G0 F9000 X123.234 Y92.291
G1 F1500 X124.492 Y91.033 E453.67364
G0 F9000 X125.058 Y91.033
G1 F1500 X123.8 Y92.291 E453.73281
G0 F9000 X124.365 Y92.291
G1 F1500 X125.623 Y91.033 E453.79198
G0 F9000 X126.19 Y91.032
G1 F1500 X124.931 Y92.291 E453.8512
G0 F9000 X125.497 Y92.291
G1 F1500 X126.755 Y91.032 E453.9104
G0 F9000 X127.321 Y91.032
G1 F1500 X126.062 Y92.291 E453.96962
G0 F9000 X126.628 Y92.291
G1 F1500 X127.887 Y91.032 E454.02884
G0 F9000 X128.368 Y91.117
G1 F1500 X127.194 Y92.291 E454.08406
G0 F9000 X127.76 Y92.291
G1 F1500 X128.368 Y91.683 E454.11266
G0 F9000 X128.719 Y91.683
G1 F2700 E449.11266
G0 F9000 X128.809 Y91.683
G0 X128.737 Y92.659
G0 X122.197 Y92.841
G0 X121.112 Y92.841
G0 X113.734 Y92.841
G0 X112.649 Y92.841
G0 X112.469 Y92.841
;TYPE:WALL-INNER
G1 F2700 E454.11266
G1 F1500 X105.927 Y92.841 E454.33025
G1 X105.927 Y90.484 E454.40864
G1 X112.27 Y90.483 E454.61961
G1 X112.469 Y90.483 E454.62623
G1 X112.469 Y90.682 E454.63051
G1 X112.469 Y92.841 E454.70232
G0 F9000 X112.869 Y93.241
;TYPE:WALL-OUTER
G1 F1500 X105.527 Y93.241 E454.94651
G1 X105.527 Y90.084 E455.05152
G1 X112.869 Y90.083 E455.29571
G1 X112.869 Y93.241 E455.40075
G0 F9000 X112.599 Y92.971
G0 X112.359 Y92.451
G0 X112.079 Y92.451
;TYPE:SKIN
G1 F1500 X106.317 Y92.451 E455.59239
G1 X106.317 Y90.874 E455.64484
G1 X112.079 Y90.873 E455.83649
G1 X112.079 Y92.451 E455.88897
G0 F9000 X111.918 Y91.728
G1 F1500 X111.355 Y92.29 E455.91543
G0 F9000 X110.79 Y92.29
G1 F1500 X111.918 Y91.163 E455.96847
G0 F9000 X111.482 Y91.032
G1 F1500 X110.224 Y92.29 E456.02764
G0 F9000 X109.658 Y92.29
G1 F1500 X110.916 Y91.032 E456.08681
G0 F9000 X110.351 Y91.032
G1 F1500 X109.093 Y92.29 E456.14598
G0 F9000 X108.527 Y92.29
G1 F1500 X109.785 Y91.032 E456.20516
G0 F9000 X109.219 Y91.032
G1 F1500 X107.961 Y92.29 E456.26433
G0 F9000 X107.396 Y92.29
G1 F1500 X108.653 Y91.033 E456.32345
G0 F9000 X108.087 Y91.033
G1 F1500 X106.83 Y92.29 E456.38258
G0 F9000 X106.476 Y92.078
G1 F1500 X107.521 Y91.033 E456.43173
G0 F9000 X106.956 Y91.033
G1 F1500 X106.476 Y91.513 E456.45431
G0 F9000 X106.127 Y91.513
G1 F2700 E451.45431
;MESH:NONMESH
G0 F300 X106.127 Y91.513 Z1.4
G0 F9000 X106.037 Y91.513
G0 X106.109 Y92.659
G0 X112.655 Y93.027
G0 X112.655 Y94.106
G0 X112.655 Y127.54
G0 X112.655 Y128.625
G0 X125.82 Y165.246
;TIME_ELAPSED:708.426768
;LAYER:6
;TYPE:WALL-INNER
;MESH:_????????_21.stl
G1 F2700 E456.45431
G1 F1500 X108.829 Y165.246 E457.01943
G1 X108.829 Y127.959 E458.2596
G1 X104.043 Y127.959 E458.41879
G1 X104.043 Y99.214 E459.37485
G1 X110.586 Y99.214 E459.59247
G1 X110.586 Y128.805 E460.57667
G1 X124.521 Y128.805 E461.04015
G1 X124.521 Y99.214 E462.02435
G1 X131.064 Y99.214 E462.24197
G1 X131.064 Y127.959 E463.19804
G1 X125.82 Y127.959 E463.37245
G1 X125.82 Y165.246 E464.61262
G0 F9000 X126.22 Y165.646
;TYPE:WALL-OUTER
G1 F1500 X108.429 Y165.646 E465.20435
G1 X108.429 Y128.359 E466.44452
G1 X103.643 Y128.359 E466.60371
G1 X103.643 Y98.814 E467.58638
G1 X110.986 Y98.814 E467.83061
G1 X110.986 Y128.405 E468.81481
G1 X124.121 Y128.405 E469.25168
G1 X124.121 Y98.814 E470.23588
G1 X131.464 Y98.814 E470.48011
G1 X131.464 Y128.359 E471.46278
G1 X126.22 Y128.359 E471.6372
G1 X126.22 Y165.646 E472.87737
G0 F9000 X125.95 Y165.376
G0 X125.739 Y158.282
;TYPE:FILL
G1 F3000 X108.909 Y141.451 E473.66902
G0 F9000 X108.908 Y145.672
G1 F3000 X125.738 Y141.162 E474.24854
G0 F9000 X125.739 Y141.311
G1 F3000 X113.312 Y128.884 E474.83307
G0 F9000 X113.425 Y128.884
G1 F3000 X108.909 Y145.738 E475.41341
G0 F9000 X108.908 Y158.095
G1 F3000 X125.739 Y153.585 E475.99296
G0 F9000 X116.126 Y165.165
G1 F3000 X125.739 Y129.289 E477.22829
G0 F9000 X125.738 Y128.739
G1 F3000 X108.909 Y133.248 E477.80777
G0 F9000 X110.505 Y126.077
G1 F3000 X104.122 Y119.694 E478.10801
G0 F9000 X104.122 Y122.107
G1 F3000 X110.504 Y120.397 E478.32776
G0 F9000 X104.122 Y117.236
G1 F3000 X108.93 Y99.292 E478.94563
G0 F9000 X104.122 Y102.723
G1 F3000 X110.505 Y109.107 E479.24589
G0 F9000 X110.505 Y107.974
G1 F3000 X104.122 Y109.684 E479.46568
G1 F2700 E474.46568
G0 F9000 X110.758 Y128.633
G0 X124.349 Y128.633
G0 X124.599 Y106.23
G1 F2700 E479.46568
G1 F3000 X130.983 Y112.614 E479.76596
G0 F9000 X130.983 Y114.91
G1 F3000 X124.601 Y116.62 E479.98572
G0 F9000 X124.599 Y123.201
G1 F3000 X129.276 Y127.878 E480.20571
G0 F9000 X128.95 Y127.878
G1 F3000 X130.982 Y127.334 E480.27567
G0 F9000 X126.117 Y127.879
G1 F3000 X130.983 Y109.718 E480.90102
G0 F9000 X130.982 Y102.487
G1 F3000 X124.6 Y104.197 E481.12077
G1 F2700 E476.12077
G0 F9000 X124.349 Y128.633
G0 X108.909 Y158.422
G1 F2700 E481.12077
G1 F3000 X115.652 Y165.165 E481.43794
G0 F9000 X115.652 Y165.046
G1 F2700 E476.43794
G0 F9000 X122.377 Y128.625
G0 X122.377 Y127.54
G0 X122.377 Y94.175
G0 X122.377 Y93.09
G0 X122.377 Y92.91
;TYPE:WALL-INNER
G1 F2700 E481.43794
G1 F1500 X122.377 Y89.907 E481.53782
G1 X128.72 Y89.906 E481.74879
G1 X128.919 Y89.906 E481.75541
G1 X128.919 Y90.105 E481.75969
G1 X128.919 Y92.91 E481.85299
G1 X122.377 Y92.91 E482.07057
G0 F9000 X121.977 Y93.31
;TYPE:WALL-OUTER
G1 F1500 X121.977 Y89.507 E482.19706
G1 X129.319 Y89.506 E482.44126
G1 X129.319 Y93.31 E482.56778
G1 X121.977 Y93.31 E482.81198
G0 F9000 X122.247 Y93.04
G0 X122.457 Y92.348
;TYPE:FILL
G1 F3000 X122.65 Y92.296 E482.81862
G0 F9000 X123.228 Y92.295
G1 F3000 X123.085 Y92.83 E482.83704
G0 F9000 X127.637 Y92.507
G0 X127.637 Y92.297
G1 F3000 X128.169 Y92.829 E482.86207
G0 F9000 X128.529 Y92.226
;TYPE:SKIN
G1 F1500 X122.767 Y92.227 E483.05371
G1 X122.767 Y90.297 E483.1179
G1 X128.529 Y90.296 E483.30955
G1 X128.529 Y92.226 E483.37374
G0 F9000 X128.809 Y92.226
G0 X128.809 Y91.033
G0 X128.368 Y91.033
G1 F1500 X127.791 Y90.456 E483.40088
G0 F9000 X127.226 Y90.456
G1 F1500 X128.368 Y91.599 E483.45462
G0 F9000 X128.269 Y92.066
G1 F1500 X126.66 Y90.456 E483.53033
G0 F9000 X126.094 Y90.456
G1 F1500 X127.704 Y92.066 E483.60606
G0 F9000 X127.138 Y92.066
G1 F1500 X125.529 Y90.457 E483.68174
G0 F9000 X124.964 Y90.457
G1 F1500 X126.572 Y92.066 E483.7574
G0 F9000 X126.007 Y92.066
G1 F1500 X124.398 Y90.457 E483.83308
G0 F9000 X123.832 Y90.457
G1 F1500 X125.441 Y92.066 E483.90876
G0 F9000 X124.875 Y92.066
G1 F1500 X123.267 Y90.457 E483.98442
G0 F9000 X122.926 Y90.682
G1 F1500 X124.31 Y92.066 E484.04952
G0 F9000 X123.744 Y92.066
G1 F1500 X122.926 Y91.247 E484.08802
G0 F9000 X122.926 Y91.813
G1 F1500 X123.178 Y92.066 E484.0999
G0 F9000 X123.385 Y92.555
;TYPE:SKIN
G1 F1500 X123.668 Y92.555 E484.10894
G1 X128.476 Y92.555 E484.26256
G1 X128.661 Y92.457 E484.26925
G0 F9000 X128.58 Y92.507
G0 X123.281 Y92.734
G0 X123.102 Y92.555
G1 F1500 X122.82 Y92.555 E484.28258
G1 X122.633 Y92.651 E484.29251
G0 F9000 X122.577 Y92.689
G1 F2700 E479.29251
G0 F9000 X122.197 Y92.91
G0 X121.112 Y92.91
G0 X113.734 Y92.91
G0 X112.649 Y92.91
G0 X112.469 Y92.91
;TYPE:WALL-INNER
G1 F2700 E484.29251
G1 F1500 X105.927 Y92.91 E484.5101
G1 X105.927 Y89.907 E484.60998
G1 X112.27 Y89.906 E484.82095
G1 X112.469 Y89.906 E484.82757
G1 X112.469 Y90.105 E484.83185
G1 X112.469 Y92.91 E484.92515
G0 F9000 X112.869 Y93.31
;TYPE:WALL-OUTER
G1 F1500 X105.527 Y93.31 E485.16934
G1 X105.527 Y89.507 E485.29583
G1 X112.869 Y89.506 E485.54003
G1 X112.869 Y93.31 E485.66655
G0 F9000 X112.599 Y93.04
G0 X111.198 Y92.829
;TYPE:FILL
G1 F3000 X110.666 Y92.297 E485.69157
G0 F9000 X110.805 Y92.295
G1 F3000 X110.662 Y92.829 E485.70996
G0 F9000 X112.287 Y92.434
G0 X112.079 Y92.226
;TYPE:SKIN
G1 F1500 X106.317 Y92.227 E485.9016
G1 X106.317 Y90.297 E485.96579
G1 X112.079 Y90.296 E486.15744
G1 X112.079 Y92.226 E486.22163
G0 F9000 X112.359 Y92.226
G0 X112.359 Y90.988
G0 X111.918 Y90.988
G1 F1500 X111.386 Y90.456 E486.24665
G0 F9000 X110.821 Y90.456
G1 F1500 X111.918 Y91.554 E486.29828
G0 F9000 X111.864 Y92.066
G1 F1500 X110.255 Y90.456 E486.37398
G0 F9000 X109.689 Y90.456
G1 F1500 X111.299 Y92.066 E486.44971
G0 F9000 X110.733 Y92.066
G1 F1500 X109.124 Y90.457 E486.5254
G0 F9000 X108.559 Y90.457
G1 F1500 X110.167 Y92.066 E486.60105
G0 F9000 X109.602 Y92.066
G1 F1500 X107.993 Y90.457 E486.67674
G0 F9000 X107.427 Y90.457
G1 F1500 X109.036 Y92.066 E486.75242
G0 F9000 X108.47 Y92.066
G1 F1500 X106.862 Y90.457 E486.82808
G0 F9000 X106.476 Y90.636
G1 F1500 X107.905 Y92.066 E486.89532
G0 F9000 X107.339 Y92.066
G1 F1500 X106.476 Y91.202 E486.93593
G0 F9000 X106.476 Y91.768
G1 F1500 X106.773 Y92.066 E486.94993
G0 F9000 X106.98 Y92.555
;TYPE:SKIN
G1 F1500 X106.697 Y92.555 E486.96014
G1 X106.205 Y92.629 E486.9781
G0 F9000 X107.263 Y92.555
G1 F1500 X107.546 Y92.555 E486.98714
G1 X112.071 Y92.555 E487.1317
G1 X112.234 Y92.435 E487.13817
G0 F9000 X112.269 Y92.688
G1 F2700 E482.13817
;MESH:NONMESH
G0 F300 X112.269 Y92.688 Z1.6
G0 F9000 X112.655 Y93.096
G0 X112.655 Y94.175
G0 X112.655 Y127.54
G0 X112.655 Y128.625
G0 X125.82 Y165.246
;TIME_ELAPSED:755.039312
;LAYER:7
;TYPE:WALL-INNER
;MESH:_????????_21.stl
G1 F2700 E487.13817
G1 F1500 X108.829 Y165.246 E487.70329
G1 X108.829 Y127.96 E488.94343
G1 X104.043 Y127.96 E489.10261
G1 X104.043 Y99.215 E490.05868
G1 X110.586 Y99.215 E490.2763
G1 X110.586 Y128.805 E491.26046
G1 X124.521 Y128.805 E491.72394
G1 X124.521 Y99.215 E492.70811
G1 X131.064 Y99.215 E492.92573
G1 X131.064 Y127.96 E493.8818
G1 X125.82 Y127.96 E494.05621
G1 X125.82 Y165.246 E495.29635
G0 F9000 X126.22 Y165.646
;TYPE:WALL-OUTER
G1 F1500 X108.429 Y165.646 E495.88808
G1 X108.429 Y128.36 E497.12822
G1 X103.643 Y128.36 E497.2874
G1 X103.643 Y98.815 E498.27007
G1 X110.986 Y98.815 E498.5143
G1 X110.986 Y128.405 E499.49847
G1 X124.121 Y128.405 E499.93534
G1 X124.121 Y98.815 E500.91951
G1 X131.464 Y98.815 E501.16374
G1 X131.464 Y128.36 E502.14641
G1 X126.22 Y128.36 E502.32082
G1 X126.22 Y165.646 E503.56096
G0 F9000 X125.95 Y165.376
G0 X125.739 Y158.081
;TYPE:FILL
G1 F3000 X108.909 Y141.25 E504.35262
G0 F9000 X108.908 Y145.19
G1 F3000 X113.278 Y128.884 E504.91409
G0 F9000 X113.513 Y128.884
G1 F3000 X125.739 Y141.11 E505.48917
G0 F9000 X125.739 Y141.309
G1 F3000 X108.908 Y145.819 E506.06872
G0 F9000 X108.909 Y158.221
G1 F3000 X115.853 Y165.165 E506.39534
G0 F9000 X115.979 Y165.165
G1 F3000 X125.739 Y128.741 E507.64955
G0 F9000 X125.738 Y128.886
G1 F3000 X108.909 Y133.395 E508.22902
G0 F9000 X110.505 Y125.877
G1 F3000 X104.122 Y119.493 E508.52929
G0 F9000 X104.122 Y122.254
G1 F3000 X110.504 Y120.544 E508.74904
G0 F9000 X104.122 Y116.688
G1 F3000 X108.783 Y99.293 E509.34801
G0 F9000 X104.122 Y102.522
G1 F3000 X110.505 Y108.906 E509.64827
G0 F9000 X110.505 Y108.121
G1 F3000 X104.122 Y109.831 E509.86805
G1 F2700 E504.86805
G0 F9000 X110.758 Y128.633
G0 X124.349 Y128.633
G0 X124.6 Y106.03
G1 F2700 E509.86805
G1 F3000 X130.983 Y112.413 E510.16829
G0 F9000 X130.983 Y115.057
G1 F3000 X124.6 Y116.767 E510.38808
G0 F9000 X124.6 Y123.001
G1 F3000 X129.479 Y127.879 E510.61755
G0 F9000 X129.495 Y127.879
G1 F3000 X130.983 Y127.48 E510.66879
G0 F9000 X125.97 Y127.879
G1 F3000 X130.983 Y109.17 E511.313
G0 F9000 X130.982 Y102.634
G1 F3000 X124.6 Y104.344 E511.53275
G1 F2700 E506.53275
G0 F9000 X125.739 Y153.732
G1 F2700 E511.53275
G1 F3000 X108.908 Y158.242 E512.1123
G0 F9000 X109.029 Y158.242
G1 F2700 E507.1123
G0 F9000 X122.377 Y128.625
G0 X122.377 Y127.54
G0 X122.377 Y94.244
G0 X122.377 Y93.159
G0 X122.377 Y92.979
;TYPE:WALL-INNER
G1 F2700 E512.1123
G1 F1500 X122.377 Y89.329 E512.2337
G1 X128.72 Y89.328 E512.44467
G1 X128.919 Y89.328 E512.45129
G1 X128.919 Y89.527 E512.45557
G1 X128.919 Y92.979 E512.57039
G1 X122.377 Y92.979 E512.78798
G0 F9000 X121.977 Y93.379
;TYPE:WALL-OUTER
G1 F1500 X121.977 Y88.929 E512.93598
G1 X129.319 Y88.928 E513.18018
G1 X129.319 Y93.379 E513.32822
G1 X121.977 Y93.379 E513.57242
G0 F9000 X122.247 Y93.109
G0 X122.457 Y92.495
;TYPE:FILL
G1 F3000 X125.359 Y91.717 E513.67235
G0 F9000 X125.359 Y91.939
G0 X127.259 Y91.939
G0 X127.259 Y91.718
G1 F3000 X128.439 Y92.898 E513.72785
G0 F9000 X123.236 Y91.939
G0 X123.236 Y91.718
G1 F3000 X122.92 Y92.898 E513.76848
G0 F9000 X122.487 Y91.649
G0 X122.767 Y91.649
;TYPE:SKIN
G1 F1500 X122.767 Y89.719 E513.83267
G1 X128.529 Y89.718 E514.02432
G1 X128.529 Y91.648 E514.08851
G1 X122.767 Y91.649 E514.28015
G0 F9000 X122.487 Y91.649
G0 X122.487 Y90.336
G0 X122.926 Y90.336
G1 F1500 X123.385 Y89.878 E514.30172
G0 F9000 X123.95 Y89.878
G1 F1500 X122.926 Y90.902 E514.34989
G0 F9000 X122.926 Y91.467
G1 F1500 X124.516 Y89.878 E514.42465
G0 F9000 X125.082 Y89.878
G1 F1500 X123.471 Y91.489 E514.50043
G0 F9000 X124.037 Y91.489
G1 F1500 X125.648 Y89.877 E514.57623
G0 F9000 X126.214 Y89.877
G1 F1500 X124.602 Y91.489 E514.65205
G0 F9000 X125.168 Y91.489
G1 F1500 X126.78 Y89.877 E514.72787
G0 F9000 X127.345 Y89.877
G1 F1500 X125.734 Y91.489 E514.80367
G0 F9000 X126.299 Y91.489
G1 F1500 X127.911 Y89.877 E514.8795
G0 F9000 X128.368 Y89.986
G1 F1500 X126.865 Y91.489 E514.95019
G0 F9000 X127.431 Y91.489
G1 F1500 X128.368 Y90.552 E514.99427
G0 F9000 X128.368 Y91.117
G1 F1500 X127.996 Y91.489 E515.01177
G0 F9000 X127.996 Y92.239
G1 F2700 E510.01177
G0 F9000 X122.197 Y92.979
G0 X121.112 Y92.979
G0 X113.734 Y92.979
G0 X112.649 Y92.979
G0 X112.469 Y92.979
;TYPE:WALL-INNER
G1 F2700 E515.01177
G1 F1500 X105.927 Y92.979 E515.22935
G1 X105.927 Y89.329 E515.35075
G1 X112.27 Y89.328 E515.56172
G1 X112.469 Y89.328 E515.56834
G1 X112.469 Y89.527 E515.57262
G1 X112.469 Y92.979 E515.68744
G0 F9000 X112.869 Y93.379
;TYPE:WALL-OUTER
G1 F1500 X105.527 Y93.379 E515.93163
G1 X105.527 Y88.929 E516.07964
G1 X112.869 Y88.928 E516.32384
G1 X112.869 Y93.379 E516.47188
G0 F9000 X112.599 Y93.109
G0 X111.469 Y92.898
;TYPE:FILL
G1 F3000 X110.288 Y91.718 E516.5274
G0 F9000 X110.813 Y91.716
G1 F3000 X110.497 Y92.899 E516.56813
G0 F9000 X112.287 Y91.866
G0 X112.079 Y91.648
;TYPE:SKIN
G1 F1500 X106.317 Y91.649 E516.75978
G1 X106.317 Y89.719 E516.82397
G1 X112.079 Y89.718 E517.01561
G1 X112.079 Y91.648 E517.0798
G0 F9000 X111.918 Y91.163
G1 F1500 X111.592 Y91.489 E517.09514
G0 F9000 X111.026 Y91.489
G1 F1500 X111.918 Y90.597 E517.1371
G0 F9000 X111.918 Y90.031
G1 F1500 X110.46 Y91.489 E517.20568
G0 F9000 X109.895 Y91.489
G1 F1500 X111.505 Y89.878 E517.28143
G0 F9000 X110.94 Y89.878
G1 F1500 X109.329 Y91.489 E517.3572
G0 F9000 X108.763 Y91.489
G1 F1500 X110.374 Y89.878 E517.43298
G0 F9000 X109.808 Y89.878
G1 F1500 X108.197 Y91.489 E517.50876
G0 F9000 X107.632 Y91.489
G1 F1500 X109.243 Y89.878 E517.58453
G0 F9000 X108.677 Y89.878
G1 F1500 X107.066 Y91.489 E517.66031
G0 F9000 X106.5 Y91.489
G1 F1500 X108.111 Y89.878 E517.73609
G0 F9000 X107.545 Y89.878
G1 F1500 X106.476 Y90.947 E517.78637
G0 F9000 X106.476 Y90.381
G1 F1500 X106.98 Y89.878 E517.81005
G0 F9000 X106.979 Y89.529
G1 F2700 E512.81005
;MESH:NONMESH
G0 F300 X106.979 Y89.529 Z1.8
G0 F9000 X106.98 Y89.438
